( Generated by Carbide Copper )
( Material Size )
( X= 58.000, Y= 63.000, Z= 1.580 )
()
G17
G21
G54
G90
M05
(  )
T501 M06
( Contour )
M03 S10000
G0  X28.254 Y61.333
G0  Z3.000
G01 F400 Z0
G01 F400 Z-0.100
G01F400X28.036 Y61.287
X27.833 Y61.196
X27.653 Y61.065
X27.504 Y60.900
X27.393 Y60.707
X27.324 Y60.495
X27.301 Y60.274
X27.324 Y60.053
X27.393 Y59.841
X27.504 Y59.649
X27.653 Y59.483
X27.834 Y59.352
X27.967 Y59.295
X27.967 Y58.111
X27.812 Y58.042
X27.632 Y57.911
X27.483 Y57.746
X27.372 Y57.553
X27.303 Y57.341
X27.280 Y57.120
X27.303 Y56.899
X27.372 Y56.687
X27.483 Y56.494
X27.632 Y56.329
X27.812 Y56.198
X28.016 Y56.108
X28.233 Y56.061
X28.456 Y56.061
X28.674 Y56.108
X28.877 Y56.198
X29.057 Y56.329
X29.206 Y56.494
X29.317 Y56.687
X29.386 Y56.899
X29.409 Y57.120
X29.386 Y57.341
X29.317 Y57.553
X29.206 Y57.746
X29.057 Y57.911
X28.877 Y58.042
X28.723 Y58.111
X28.723 Y59.274
X28.898 Y59.352
X29.078 Y59.483
X29.227 Y59.649
X29.338 Y59.841
X29.407 Y60.053
X29.430 Y60.274
X29.407 Y60.495
X29.338 Y60.707
X29.227 Y60.900
X29.078 Y61.065
X28.898 Y61.196
X28.694 Y61.287
X28.477 Y61.333
X28.254 Y61.333
G0 Z3.000
G0  X25.739 Y61.257
G0  Z3.000
G01 F400 Z0
G01 F400 Z-0.100
G01F400X25.522 Y61.211
X25.318 Y61.120
X25.138 Y60.989
X24.989 Y60.824
X24.878 Y60.631
X24.809 Y60.419
X24.786 Y60.198
X24.809 Y59.977
X24.878 Y59.765
X24.989 Y59.572
X25.138 Y59.407
X25.318 Y59.276
X25.473 Y59.207
X25.473 Y58.131
X25.272 Y58.042
X25.092 Y57.911
X24.943 Y57.746
X24.832 Y57.553
X24.763 Y57.341
X24.740 Y57.120
X24.763 Y56.899
X24.832 Y56.687
X24.943 Y56.494
X25.092 Y56.329
X25.272 Y56.198
X25.476 Y56.108
X25.693 Y56.061
X25.916 Y56.061
X26.134 Y56.108
X26.337 Y56.198
X26.517 Y56.329
X26.666 Y56.494
X26.777 Y56.687
X26.846 Y56.899
X26.869 Y57.120
X26.846 Y57.341
X26.777 Y57.553
X26.666 Y57.746
X26.517 Y57.911
X26.337 Y58.042
X26.229 Y58.090
X26.229 Y59.207
X26.383 Y59.276
X26.563 Y59.407
X26.712 Y59.572
X26.823 Y59.765
X26.892 Y59.977
X26.915 Y60.198
X26.892 Y60.419
X26.823 Y60.631
X26.712 Y60.824
X26.563 Y60.989
X26.383 Y61.120
X26.180 Y61.211
X25.962 Y61.257
X25.739 Y61.257
G0 Z3.000
G0  X30.946 Y61.257
G0  Z3.000
G01 F400 Z0
G01 F400 Z-0.100
G01F400X30.729 Y61.211
X30.525 Y61.120
X30.345 Y60.989
X30.196 Y60.824
X30.085 Y60.631
X30.016 Y60.419
X29.993 Y60.198
X30.016 Y59.977
X30.085 Y59.765
X30.196 Y59.572
X30.345 Y59.407
X30.525 Y59.276
X30.678 Y59.208
X30.664 Y58.155
X30.556 Y58.133
X30.352 Y58.042
X30.172 Y57.911
X30.023 Y57.746
X29.912 Y57.553
X29.843 Y57.341
X29.820 Y57.120
X29.843 Y56.899
X29.912 Y56.687
X30.023 Y56.494
X30.172 Y56.329
X30.352 Y56.198
X30.556 Y56.108
X30.773 Y56.061
X30.996 Y56.061
X31.214 Y56.108
X31.417 Y56.198
X31.597 Y56.329
X31.746 Y56.494
X31.857 Y56.687
X31.926 Y56.899
X31.949 Y57.120
X31.926 Y57.341
X31.857 Y57.553
X31.746 Y57.746
X31.597 Y57.911
X31.436 Y58.028
X31.436 Y59.207
X31.590 Y59.276
X31.770 Y59.407
X31.919 Y59.572
X32.030 Y59.765
X32.099 Y59.977
X32.122 Y60.198
X32.099 Y60.419
X32.030 Y60.631
X31.919 Y60.824
X31.770 Y60.989
X31.590 Y61.120
X31.387 Y61.211
X31.169 Y61.257
X30.946 Y61.257
G0 Z3.000
G0  X17.967 Y61.181
G0  Z3.000
G01 F400 Z0
G01 F400 Z-0.100
G01F400X17.749 Y61.134
X17.546 Y61.044
X17.366 Y60.913
X17.217 Y60.748
X17.106 Y60.555
X17.037 Y60.343
X17.014 Y60.122
X17.037 Y59.901
X17.106 Y59.689
X17.217 Y59.496
X17.366 Y59.331
X17.546 Y59.200
X17.700 Y59.131
X17.700 Y58.063
X17.652 Y58.042
X17.472 Y57.911
X17.323 Y57.746
X17.212 Y57.553
X17.143 Y57.341
X17.120 Y57.120
X17.143 Y56.899
X17.212 Y56.687
X17.323 Y56.494
X17.472 Y56.329
X17.652 Y56.198
X17.856 Y56.108
X18.073 Y56.061
X18.296 Y56.061
X18.514 Y56.108
X18.717 Y56.198
X18.897 Y56.329
X19.046 Y56.494
X19.157 Y56.687
X19.226 Y56.899
X19.249 Y57.120
X19.226 Y57.341
X19.157 Y57.553
X19.046 Y57.746
X18.897 Y57.911
X18.717 Y58.042
X18.514 Y58.133
X18.456 Y58.145
X18.456 Y59.131
X18.611 Y59.200
X18.791 Y59.331
X18.940 Y59.496
X19.051 Y59.689
X19.120 Y59.901
X19.143 Y60.122
X19.120 Y60.343
X19.051 Y60.555
X18.940 Y60.748
X18.791 Y60.913
X18.611 Y61.044
X18.407 Y61.134
X18.190 Y61.181
X17.967 Y61.181
G0 Z3.000
G0  X15.376 Y61.181
G0  Z3.000
G01 F400 Z0
G01 F400 Z-0.100
G01F400X15.159 Y61.134
X14.955 Y61.044
X14.775 Y60.913
X14.626 Y60.748
X14.515 Y60.555
X14.446 Y60.343
X14.423 Y60.122
X14.446 Y59.901
X14.515 Y59.689
X14.626 Y59.496
X14.775 Y59.331
X14.955 Y59.200
X15.109 Y59.131
X15.109 Y58.040
X14.932 Y57.911
X14.783 Y57.746
X14.672 Y57.553
X14.603 Y57.341
X14.580 Y57.120
X14.603 Y56.899
X14.672 Y56.687
X14.783 Y56.494
X14.932 Y56.329
X15.112 Y56.198
X15.316 Y56.108
X15.533 Y56.061
X15.756 Y56.061
X15.974 Y56.108
X16.177 Y56.198
X16.357 Y56.329
X16.506 Y56.494
X16.617 Y56.687
X16.686 Y56.899
X16.709 Y57.120
X16.686 Y57.341
X16.617 Y57.553
X16.506 Y57.746
X16.357 Y57.911
X16.177 Y58.042
X15.974 Y58.133
X15.866 Y58.155
X15.866 Y59.131
X16.020 Y59.200
X16.200 Y59.331
X16.349 Y59.496
X16.460 Y59.689
X16.529 Y59.901
X16.552 Y60.122
X16.529 Y60.343
X16.460 Y60.555
X16.349 Y60.748
X16.200 Y60.913
X16.020 Y61.044
X15.817 Y61.134
X15.599 Y61.181
X15.376 Y61.181
G0 Z3.000
G0  X23.149 Y61.181
G0  Z3.000
G01 F400 Z0
G01 F400 Z-0.100
G01F400X22.931 Y61.134
X22.728 Y61.044
X22.548 Y60.913
X22.399 Y60.748
X22.287 Y60.555
X22.219 Y60.343
X22.195 Y60.122
X22.219 Y59.901
X22.287 Y59.689
X22.399 Y59.496
X22.548 Y59.331
X22.728 Y59.200
X22.882 Y59.131
X22.882 Y58.108
X22.732 Y58.042
X22.552 Y57.911
X22.403 Y57.746
X22.292 Y57.553
X22.223 Y57.341
X22.200 Y57.120
X22.223 Y56.899
X22.292 Y56.687
X22.403 Y56.494
X22.552 Y56.329
X22.732 Y56.198
X22.936 Y56.108
X23.153 Y56.061
X23.376 Y56.061
X23.594 Y56.108
X23.797 Y56.198
X23.977 Y56.329
X24.126 Y56.494
X24.237 Y56.687
X24.306 Y56.899
X24.329 Y57.120
X24.306 Y57.341
X24.237 Y57.553
X24.126 Y57.746
X23.977 Y57.911
X23.797 Y58.042
X23.638 Y58.113
X23.638 Y59.131
X23.792 Y59.200
X23.972 Y59.331
X24.121 Y59.496
X24.232 Y59.689
X24.301 Y59.901
X24.325 Y60.122
X24.301 Y60.343
X24.232 Y60.555
X24.121 Y60.748
X23.972 Y60.913
X23.792 Y61.044
X23.589 Y61.134
X23.371 Y61.181
X23.149 Y61.181
G0 Z3.000
G0  X20.558 Y61.181
G0  Z3.000
G01 F400 Z0
G01 F400 Z-0.100
G01F400X20.340 Y61.134
X20.137 Y61.044
X19.957 Y60.913
X19.808 Y60.748
X19.697 Y60.555
X19.628 Y60.343
X19.605 Y60.122
X19.628 Y59.901
X19.697 Y59.689
X19.808 Y59.496
X19.957 Y59.331
X20.137 Y59.200
X20.291 Y59.131
X20.291 Y58.086
X20.192 Y58.042
X20.012 Y57.911
X19.863 Y57.746
X19.752 Y57.553
X19.683 Y57.341
X19.660 Y57.120
X19.683 Y56.899
X19.752 Y56.687
X19.863 Y56.494
X20.012 Y56.329
X20.192 Y56.198
X20.396 Y56.108
X20.613 Y56.061
X20.836 Y56.061
X21.054 Y56.108
X21.257 Y56.198
X21.437 Y56.329
X21.586 Y56.494
X21.697 Y56.687
X21.766 Y56.899
X21.789 Y57.120
X21.766 Y57.341
X21.697 Y57.553
X21.586 Y57.746
X21.437 Y57.911
X21.257 Y58.042
X21.054 Y58.133
X21.047 Y58.134
X21.047 Y59.131
X21.201 Y59.200
X21.381 Y59.331
X21.530 Y59.496
X21.642 Y59.689
X21.710 Y59.901
X21.734 Y60.122
X21.710 Y60.343
X21.642 Y60.555
X21.530 Y60.748
X21.381 Y60.913
X21.201 Y61.044
X20.998 Y61.134
X20.780 Y61.181
X20.558 Y61.181
G0 Z3.000
G0  X7.604 Y61.181
G0  Z3.000
G01 F400 Z0
G01 F400 Z-0.100
G01F400X7.386 Y61.134
X7.183 Y61.044
X7.003 Y60.913
X6.854 Y60.748
X6.743 Y60.555
X6.674 Y60.343
X6.651 Y60.122
X6.674 Y59.901
X6.743 Y59.689
X6.854 Y59.496
X7.003 Y59.331
X7.183 Y59.200
X7.337 Y59.131
X7.337 Y57.929
X7.312 Y57.911
X7.163 Y57.746
X7.052 Y57.553
X6.983 Y57.341
X6.960 Y57.120
X6.983 Y56.899
X7.052 Y56.687
X7.163 Y56.494
X7.312 Y56.329
X7.492 Y56.198
X7.696 Y56.108
X7.913 Y56.061
X8.136 Y56.061
X8.354 Y56.108
X8.557 Y56.198
X8.737 Y56.329
X8.886 Y56.494
X8.997 Y56.687
X9.066 Y56.899
X9.089 Y57.120
X9.066 Y57.341
X8.997 Y57.553
X8.886 Y57.746
X8.737 Y57.911
X8.557 Y58.042
X8.354 Y58.133
X8.136 Y58.179
X8.093 Y58.179
X8.093 Y59.131
X8.247 Y59.200
X8.427 Y59.331
X8.576 Y59.496
X8.688 Y59.689
X8.756 Y59.901
X8.780 Y60.122
X8.756 Y60.343
X8.688 Y60.555
X8.576 Y60.748
X8.427 Y60.913
X8.247 Y61.044
X8.044 Y61.134
X7.826 Y61.181
X7.604 Y61.181
G0 Z3.000
G0  X12.785 Y61.181
G0  Z3.000
G01 F400 Z0
G01 F400 Z-0.100
G01F400X12.568 Y61.134
X12.364 Y61.044
X12.184 Y60.913
X12.035 Y60.748
X11.924 Y60.555
X11.855 Y60.343
X11.832 Y60.122
X11.855 Y59.901
X11.924 Y59.689
X12.035 Y59.496
X12.184 Y59.331
X12.364 Y59.200
X12.568 Y59.109
X12.727 Y59.076
X12.727 Y58.111
X12.572 Y58.042
X12.392 Y57.911
X12.243 Y57.746
X12.132 Y57.553
X12.063 Y57.341
X12.040 Y57.120
X12.063 Y56.899
X12.132 Y56.687
X12.243 Y56.494
X12.392 Y56.329
X12.572 Y56.198
X12.776 Y56.108
X12.993 Y56.061
X13.216 Y56.061
X13.434 Y56.108
X13.637 Y56.198
X13.817 Y56.329
X13.966 Y56.494
X14.077 Y56.687
X14.146 Y56.899
X14.169 Y57.120
X14.146 Y57.341
X14.077 Y57.553
X13.966 Y57.746
X13.817 Y57.911
X13.637 Y58.042
X13.483 Y58.110
X13.490 Y59.244
X13.609 Y59.331
X13.758 Y59.496
X13.869 Y59.689
X13.938 Y59.901
X13.961 Y60.122
X13.938 Y60.343
X13.869 Y60.555
X13.758 Y60.748
X13.609 Y60.913
X13.429 Y61.044
X13.226 Y61.134
X13.008 Y61.181
X12.785 Y61.181
G0 Z3.000
G0  X10.195 Y61.181
G0  Z3.000
G01 F400 Z0
G01 F400 Z-0.100
G01F400X9.977 Y61.134
X9.774 Y61.044
X9.594 Y60.913
X9.445 Y60.748
X9.333 Y60.555
X9.265 Y60.343
X9.241 Y60.122
X9.265 Y59.901
X9.333 Y59.689
X9.445 Y59.496
X9.594 Y59.331
X9.774 Y59.200
X9.977 Y59.109
X10.187 Y59.065
X10.187 Y58.111
X10.032 Y58.042
X9.852 Y57.911
X9.703 Y57.746
X9.592 Y57.553
X9.523 Y57.341
X9.500 Y57.120
X9.523 Y56.899
X9.592 Y56.687
X9.703 Y56.494
X9.852 Y56.329
X10.032 Y56.198
X10.236 Y56.108
X10.453 Y56.061
X10.676 Y56.061
X10.894 Y56.108
X11.097 Y56.198
X11.277 Y56.329
X11.426 Y56.494
X11.537 Y56.687
X11.606 Y56.899
X11.629 Y57.120
X11.606 Y57.341
X11.537 Y57.553
X11.426 Y57.746
X11.277 Y57.911
X11.097 Y58.042
X10.943 Y58.111
X10.943 Y59.276
X11.018 Y59.331
X11.167 Y59.496
X11.278 Y59.689
X11.347 Y59.901
X11.370 Y60.122
X11.347 Y60.343
X11.278 Y60.555
X11.167 Y60.748
X11.018 Y60.913
X10.838 Y61.044
X10.635 Y61.134
X10.417 Y61.181
X10.195 Y61.181
G0 Z3.000
G0  X50.123 Y58.209
G0  Z3.000
G01 F400 Z0
G01 F400 Z-0.100
G01F400X49.906 Y58.163
X49.702 Y58.072
X49.522 Y57.941
X49.373 Y57.776
X49.262 Y57.583
X49.193 Y57.371
X49.170 Y57.150
X49.193 Y56.929
X49.262 Y56.717
X49.373 Y56.524
X49.522 Y56.359
X49.702 Y56.228
X49.906 Y56.138
X50.123 Y56.091
X50.346 Y56.091
X50.564 Y56.138
X50.767 Y56.228
X50.947 Y56.359
X51.096 Y56.524
X51.207 Y56.717
X51.276 Y56.929
X51.299 Y57.150
X51.276 Y57.371
X51.207 Y57.583
X51.096 Y57.776
X50.947 Y57.941
X50.767 Y58.072
X50.564 Y58.163
X50.346 Y58.209
X50.123 Y58.209
G0 Z3.000
G0  X46.313 Y58.209
G0  Z3.000
G01 F400 Z0
G01 F400 Z-0.100
G01F400X46.096 Y58.163
X45.892 Y58.072
X45.712 Y57.941
X45.563 Y57.776
X45.452 Y57.583
X45.383 Y57.371
X45.360 Y57.150
X45.383 Y56.929
X45.452 Y56.717
X45.563 Y56.524
X45.712 Y56.359
X45.892 Y56.228
X46.096 Y56.138
X46.313 Y56.091
X46.536 Y56.091
X46.754 Y56.138
X46.957 Y56.228
X47.137 Y56.359
X47.286 Y56.524
X47.397 Y56.717
X47.466 Y56.929
X47.489 Y57.150
X47.466 Y57.371
X47.397 Y57.583
X47.286 Y57.776
X47.137 Y57.941
X46.957 Y58.072
X46.754 Y58.163
X46.536 Y58.209
X46.313 Y58.209
G0 Z3.000
G0  X53.933 Y58.209
G0  Z3.000
G01 F400 Z0
G01 F400 Z-0.100
G01F400X53.716 Y58.163
X53.512 Y58.072
X53.332 Y57.941
X53.183 Y57.776
X53.072 Y57.583
X53.003 Y57.371
X52.980 Y57.150
X53.003 Y56.929
X53.072 Y56.717
X53.183 Y56.524
X53.332 Y56.359
X53.512 Y56.228
X53.716 Y56.138
X53.933 Y56.091
X54.156 Y56.091
X54.374 Y56.138
X54.577 Y56.228
X54.757 Y56.359
X54.906 Y56.524
X55.017 Y56.717
X55.086 Y56.929
X55.109 Y57.150
X55.086 Y57.371
X55.017 Y57.583
X54.906 Y57.776
X54.757 Y57.941
X54.577 Y58.072
X54.374 Y58.163
X54.156 Y58.209
X53.933 Y58.209
G0 Z3.000
G0  X33.313 Y58.179
G0  Z3.000
G01 F400 Z0
G01 F400 Z-0.100
G01F400X33.096 Y58.133
X32.892 Y58.042
X32.712 Y57.911
X32.563 Y57.746
X32.452 Y57.553
X32.383 Y57.341
X32.360 Y57.120
X32.383 Y56.899
X32.452 Y56.687
X32.563 Y56.494
X32.712 Y56.329
X32.892 Y56.198
X33.096 Y56.108
X33.313 Y56.061
X33.536 Y56.061
X33.754 Y56.108
X33.957 Y56.198
X34.137 Y56.329
X34.286 Y56.494
X34.397 Y56.687
X34.466 Y56.899
X34.489 Y57.120
X34.466 Y57.341
X34.397 Y57.553
X34.286 Y57.746
X34.137 Y57.911
X33.957 Y58.042
X33.754 Y58.133
X33.536 Y58.179
X33.313 Y58.179
G0 Z3.000
G0  X5.373 Y58.179
G0  Z3.000
G01 F400 Z0
G01 F400 Z-0.100
G01F400X5.156 Y58.133
X4.952 Y58.042
X4.772 Y57.911
X4.623 Y57.746
X4.512 Y57.553
X4.443 Y57.341
X4.420 Y57.120
X4.443 Y56.899
X4.512 Y56.687
X4.623 Y56.494
X4.772 Y56.329
X4.952 Y56.198
X5.156 Y56.108
X5.373 Y56.061
X5.596 Y56.061
X5.814 Y56.108
X6.017 Y56.198
X6.197 Y56.329
X6.346 Y56.494
X6.457 Y56.687
X6.526 Y56.899
X6.549 Y57.120
X6.526 Y57.341
X6.457 Y57.553
X6.346 Y57.746
X6.197 Y57.911
X6.017 Y58.042
X5.814 Y58.133
X5.596 Y58.179
X5.373 Y58.179
G0 Z3.000
G0  X35.853 Y58.179
G0  Z3.000
G01 F400 Z0
G01 F400 Z-0.100
G01F400X35.636 Y58.133
X35.432 Y58.042
X35.252 Y57.911
X35.103 Y57.746
X34.992 Y57.553
X34.923 Y57.341
X34.900 Y57.120
X34.923 Y56.899
X34.992 Y56.687
X35.103 Y56.494
X35.252 Y56.329
X35.432 Y56.198
X35.636 Y56.108
X35.853 Y56.061
X36.076 Y56.061
X36.294 Y56.108
X36.497 Y56.198
X36.677 Y56.329
X36.826 Y56.494
X36.937 Y56.687
X37.006 Y56.899
X37.029 Y57.120
X37.006 Y57.341
X36.937 Y57.553
X36.826 Y57.746
X36.677 Y57.911
X36.497 Y58.042
X36.294 Y58.133
X36.076 Y58.179
X35.853 Y58.179
G0 Z3.000
G0  X38.393 Y58.179
G0  Z3.000
G01 F400 Z0
G01 F400 Z-0.100
G01F400X38.176 Y58.133
X37.972 Y58.042
X37.792 Y57.911
X37.643 Y57.746
X37.532 Y57.553
X37.463 Y57.341
X37.440 Y57.120
X37.463 Y56.899
X37.532 Y56.687
X37.643 Y56.494
X37.792 Y56.329
X37.972 Y56.198
X38.176 Y56.108
X38.393 Y56.061
X38.616 Y56.061
X38.834 Y56.108
X39.037 Y56.198
X39.217 Y56.329
X39.366 Y56.494
X39.477 Y56.687
X39.546 Y56.899
X39.569 Y57.120
X39.546 Y57.341
X39.477 Y57.553
X39.366 Y57.746
X39.217 Y57.911
X39.037 Y58.042
X38.834 Y58.133
X38.616 Y58.179
X38.393 Y58.179
G0 Z3.000
G0  X38.393 Y55.639
G0  Z3.000
G01 F400 Z0
G01 F400 Z-0.100
G01F400X38.176 Y55.593
X37.972 Y55.502
X37.792 Y55.371
X37.643 Y55.206
X37.532 Y55.013
X37.463 Y54.801
X37.440 Y54.580
X37.463 Y54.359
X37.532 Y54.147
X37.643 Y53.954
X37.792 Y53.789
X37.972 Y53.658
X38.176 Y53.568
X38.393 Y53.521
X38.616 Y53.521
X38.834 Y53.568
X39.037 Y53.658
X39.217 Y53.789
X39.366 Y53.954
X39.477 Y54.147
X39.546 Y54.359
X39.569 Y54.580
X39.546 Y54.801
X39.477 Y55.013
X39.366 Y55.206
X39.217 Y55.371
X39.037 Y55.502
X38.834 Y55.593
X38.616 Y55.639
X38.393 Y55.639
G0 Z3.000
G0  X53.933 Y54.399
G0  Z3.000
G01 F400 Z0
G01 F400 Z-0.100
G01F400X53.716 Y54.352
X53.512 Y54.262
X53.332 Y54.131
X53.183 Y53.966
X53.072 Y53.773
X53.003 Y53.561
X52.980 Y53.340
X53.003 Y53.119
X53.072 Y52.907
X53.183 Y52.714
X53.332 Y52.549
X53.512 Y52.418
X53.716 Y52.328
X53.933 Y52.281
X54.156 Y52.281
X54.374 Y52.328
X54.577 Y52.418
X54.757 Y52.549
X54.906 Y52.714
X55.017 Y52.907
X55.086 Y53.119
X55.109 Y53.340
X55.086 Y53.561
X55.017 Y53.773
X54.906 Y53.966
X54.757 Y54.131
X54.577 Y54.262
X54.374 Y54.352
X54.156 Y54.399
X53.933 Y54.399
G0 Z3.000
G0  X50.123 Y54.399
G0  Z3.000
G01 F400 Z0
G01 F400 Z-0.100
G01F400X49.906 Y54.352
X49.702 Y54.262
X49.522 Y54.131
X49.373 Y53.966
X49.262 Y53.773
X49.193 Y53.561
X49.170 Y53.340
X49.193 Y53.119
X49.262 Y52.907
X49.373 Y52.714
X49.522 Y52.549
X49.702 Y52.418
X49.906 Y52.328
X50.123 Y52.281
X50.346 Y52.281
X50.564 Y52.328
X50.767 Y52.418
X50.947 Y52.549
X51.096 Y52.714
X51.207 Y52.907
X51.276 Y53.119
X51.299 Y53.340
X51.276 Y53.561
X51.207 Y53.773
X51.096 Y53.966
X50.947 Y54.131
X50.767 Y54.262
X50.564 Y54.352
X50.346 Y54.399
X50.123 Y54.399
G0 Z3.000
G0  X46.313 Y54.399
G0  Z3.000
G01 F400 Z0
G01 F400 Z-0.100
G01F400X46.096 Y54.352
X45.892 Y54.262
X45.712 Y54.131
X45.563 Y53.966
X45.452 Y53.773
X45.383 Y53.561
X45.360 Y53.340
X45.383 Y53.119
X45.452 Y52.907
X45.563 Y52.714
X45.712 Y52.549
X45.892 Y52.418
X46.096 Y52.328
X46.313 Y52.281
X46.536 Y52.281
X46.754 Y52.328
X46.957 Y52.418
X47.137 Y52.549
X47.286 Y52.714
X47.397 Y52.907
X47.466 Y53.119
X47.489 Y53.340
X47.466 Y53.561
X47.397 Y53.773
X47.286 Y53.966
X47.137 Y54.131
X46.957 Y54.262
X46.754 Y54.352
X46.536 Y54.399
X46.313 Y54.399
G0 Z3.000
G0  X38.393 Y53.099
G0  Z3.000
G01 F400 Z0
G01 F400 Z-0.100
G01F400X38.176 Y53.053
X37.972 Y52.962
X37.792 Y52.831
X37.643 Y52.666
X37.532 Y52.473
X37.463 Y52.261
X37.440 Y52.040
X37.463 Y51.819
X37.532 Y51.607
X37.643 Y51.414
X37.792 Y51.249
X37.972 Y51.118
X38.176 Y51.028
X38.393 Y50.981
X38.616 Y50.981
X38.834 Y51.028
X39.037 Y51.118
X39.217 Y51.249
X39.366 Y51.414
X39.477 Y51.607
X39.546 Y51.819
X39.569 Y52.040
X39.546 Y52.261
X39.477 Y52.473
X39.366 Y52.666
X39.217 Y52.831
X39.037 Y52.962
X38.834 Y53.053
X38.616 Y53.099
X38.393 Y53.099
G0 Z3.000
G0  X50.123 Y50.589
G0  Z3.000
G01 F400 Z0
G01 F400 Z-0.100
G01F400X49.906 Y50.543
X49.702 Y50.452
X49.522 Y50.321
X49.373 Y50.156
X49.262 Y49.963
X49.193 Y49.751
X49.170 Y49.530
X49.193 Y49.309
X49.262 Y49.097
X49.373 Y48.904
X49.522 Y48.739
X49.702 Y48.608
X49.906 Y48.518
X50.123 Y48.471
X50.346 Y48.471
X50.564 Y48.518
X50.767 Y48.608
X50.947 Y48.739
X51.096 Y48.904
X51.207 Y49.097
X51.276 Y49.309
X51.299 Y49.530
X51.276 Y49.751
X51.207 Y49.963
X51.096 Y50.156
X50.947 Y50.321
X50.767 Y50.452
X50.564 Y50.543
X50.346 Y50.589
X50.123 Y50.589
G0 Z3.000
G0  X46.313 Y50.589
G0  Z3.000
G01 F400 Z0
G01 F400 Z-0.100
G01F400X46.096 Y50.543
X45.892 Y50.452
X45.712 Y50.321
X45.563 Y50.156
X45.452 Y49.963
X45.383 Y49.751
X45.360 Y49.530
X45.383 Y49.309
X45.452 Y49.097
X45.563 Y48.904
X45.712 Y48.739
X45.892 Y48.608
X46.096 Y48.518
X46.313 Y48.471
X46.536 Y48.471
X46.754 Y48.518
X46.957 Y48.608
X47.137 Y48.739
X47.286 Y48.904
X47.397 Y49.097
X47.466 Y49.309
X47.489 Y49.530
X47.466 Y49.751
X47.397 Y49.963
X47.286 Y50.156
X47.137 Y50.321
X46.957 Y50.452
X46.754 Y50.543
X46.536 Y50.589
X46.313 Y50.589
G0 Z3.000
G0  X53.933 Y50.589
G0  Z3.000
G01 F400 Z0
G01 F400 Z-0.100
G01F400X53.716 Y50.543
X53.512 Y50.452
X53.332 Y50.321
X53.183 Y50.156
X53.072 Y49.963
X53.003 Y49.751
X52.980 Y49.530
X53.003 Y49.309
X53.072 Y49.097
X53.183 Y48.904
X53.332 Y48.739
X53.512 Y48.608
X53.716 Y48.518
X53.933 Y48.471
X54.156 Y48.471
X54.374 Y48.518
X54.577 Y48.608
X54.757 Y48.739
X54.906 Y48.904
X55.017 Y49.097
X55.086 Y49.309
X55.109 Y49.530
X55.086 Y49.751
X55.017 Y49.963
X54.906 Y50.156
X54.757 Y50.321
X54.577 Y50.452
X54.374 Y50.543
X54.156 Y50.589
X53.933 Y50.589
G0 Z3.000
G0  X38.393 Y50.559
G0  Z3.000
G01 F400 Z0
G01 F400 Z-0.100
G01F400X38.176 Y50.513
X37.972 Y50.422
X37.792 Y50.291
X37.643 Y50.126
X37.532 Y49.933
X37.463 Y49.721
X37.440 Y49.500
X37.463 Y49.279
X37.532 Y49.067
X37.643 Y48.874
X37.792 Y48.709
X37.972 Y48.578
X38.176 Y48.488
X38.393 Y48.441
X38.616 Y48.441
X38.834 Y48.488
X39.037 Y48.578
X39.217 Y48.709
X39.366 Y48.874
X39.477 Y49.067
X39.546 Y49.279
X39.569 Y49.500
X39.546 Y49.721
X39.477 Y49.933
X39.366 Y50.126
X39.217 Y50.291
X39.037 Y50.422
X38.834 Y50.513
X38.616 Y50.559
X38.393 Y50.559
G0 Z3.000
G0  X38.393 Y48.019
G0  Z3.000
G01 F400 Z0
G01 F400 Z-0.100
G01F400X38.176 Y47.973
X37.972 Y47.882
X37.792 Y47.751
X37.643 Y47.586
X37.532 Y47.393
X37.463 Y47.181
X37.440 Y46.960
X37.463 Y46.739
X37.532 Y46.527
X37.643 Y46.334
X37.792 Y46.169
X37.972 Y46.038
X38.176 Y45.948
X38.393 Y45.901
X38.616 Y45.901
X38.834 Y45.948
X39.037 Y46.038
X39.217 Y46.169
X39.366 Y46.334
X39.477 Y46.527
X39.546 Y46.739
X39.569 Y46.960
X39.546 Y47.181
X39.477 Y47.393
X39.366 Y47.586
X39.217 Y47.751
X39.037 Y47.882
X38.834 Y47.973
X38.616 Y48.019
X38.393 Y48.019
G0 Z3.000
G0  X53.933 Y46.779
G0  Z3.000
G01 F400 Z0
G01 F400 Z-0.100
G01F400X53.716 Y46.733
X53.512 Y46.642
X53.332 Y46.511
X53.183 Y46.346
X53.072 Y46.153
X53.003 Y45.941
X52.980 Y45.720
X53.003 Y45.499
X53.072 Y45.287
X53.183 Y45.094
X53.332 Y44.929
X53.512 Y44.798
X53.716 Y44.708
X53.933 Y44.661
X54.156 Y44.661
X54.374 Y44.708
X54.577 Y44.798
X54.757 Y44.929
X54.906 Y45.094
X55.017 Y45.287
X55.086 Y45.499
X55.109 Y45.720
X55.086 Y45.941
X55.017 Y46.153
X54.906 Y46.346
X54.757 Y46.511
X54.577 Y46.642
X54.374 Y46.733
X54.156 Y46.779
X53.933 Y46.779
G0 Z3.000
G0  X50.123 Y46.779
G0  Z3.000
G01 F400 Z0
G01 F400 Z-0.100
G01F400X49.906 Y46.733
X49.702 Y46.642
X49.522 Y46.511
X49.373 Y46.346
X49.262 Y46.153
X49.193 Y45.941
X49.170 Y45.720
X49.193 Y45.499
X49.262 Y45.287
X49.373 Y45.094
X49.522 Y44.929
X49.702 Y44.798
X49.906 Y44.708
X50.123 Y44.661
X50.346 Y44.661
X50.564 Y44.708
X50.767 Y44.798
X50.947 Y44.929
X51.096 Y45.094
X51.207 Y45.287
X51.276 Y45.499
X51.299 Y45.720
X51.276 Y45.941
X51.207 Y46.153
X51.096 Y46.346
X50.947 Y46.511
X50.767 Y46.642
X50.564 Y46.733
X50.346 Y46.779
X50.123 Y46.779
G0 Z3.000
G0  X46.313 Y46.779
G0  Z3.000
G01 F400 Z0
G01 F400 Z-0.100
G01F400X46.096 Y46.733
X45.892 Y46.642
X45.712 Y46.511
X45.563 Y46.346
X45.452 Y46.153
X45.383 Y45.941
X45.360 Y45.720
X45.383 Y45.499
X45.452 Y45.287
X45.563 Y45.094
X45.712 Y44.929
X45.892 Y44.798
X46.096 Y44.708
X46.313 Y44.661
X46.536 Y44.661
X46.754 Y44.708
X46.957 Y44.798
X47.137 Y44.929
X47.286 Y45.094
X47.397 Y45.287
X47.466 Y45.499
X47.489 Y45.720
X47.466 Y45.941
X47.397 Y46.153
X47.286 Y46.346
X47.137 Y46.511
X46.957 Y46.642
X46.754 Y46.733
X46.536 Y46.779
X46.313 Y46.779
G0 Z3.000
G0  X38.393 Y45.479
G0  Z3.000
G01 F400 Z0
G01 F400 Z-0.100
G01F400X38.176 Y45.433
X37.972 Y45.342
X37.792 Y45.211
X37.643 Y45.046
X37.532 Y44.853
X37.463 Y44.641
X37.440 Y44.420
X37.463 Y44.199
X37.532 Y43.987
X37.643 Y43.794
X37.792 Y43.629
X37.972 Y43.498
X38.176 Y43.407
X38.393 Y43.361
X38.616 Y43.361
X38.834 Y43.407
X39.037 Y43.498
X39.217 Y43.629
X39.366 Y43.794
X39.477 Y43.987
X39.546 Y44.199
X39.569 Y44.420
X39.546 Y44.641
X39.477 Y44.853
X39.366 Y45.046
X39.217 Y45.211
X39.037 Y45.342
X38.834 Y45.433
X38.616 Y45.479
X38.393 Y45.479
G0 Z3.000
G0  X7.913 Y45.479
G0  Z3.000
G01 F400 Z0
G01 F400 Z-0.100
G01F400X7.696 Y45.433
X7.492 Y45.342
X7.312 Y45.211
X7.163 Y45.046
X7.052 Y44.853
X6.983 Y44.641
X6.960 Y44.420
X6.983 Y44.199
X7.052 Y43.987
X7.163 Y43.794
X7.312 Y43.629
X7.492 Y43.498
X7.696 Y43.407
X7.913 Y43.361
X8.136 Y43.361
X8.354 Y43.407
X8.557 Y43.498
X8.737 Y43.629
X8.886 Y43.794
X8.997 Y43.987
X9.066 Y44.199
X9.089 Y44.420
X9.066 Y44.641
X8.997 Y44.853
X8.886 Y45.046
X8.737 Y45.211
X8.557 Y45.342
X8.354 Y45.433
X8.136 Y45.479
X7.913 Y45.479
G0 Z3.000
G0  X18.073 Y45.479
G0  Z3.000
G01 F400 Z0
G01 F400 Z-0.100
G01F400X17.856 Y45.433
X17.652 Y45.342
X17.472 Y45.211
X17.323 Y45.046
X17.212 Y44.853
X17.143 Y44.641
X17.120 Y44.420
X17.143 Y44.199
X17.212 Y43.987
X17.323 Y43.794
X17.472 Y43.629
X17.652 Y43.498
X17.856 Y43.407
X18.073 Y43.361
X18.296 Y43.361
X18.514 Y43.407
X18.717 Y43.498
X18.897 Y43.629
X19.046 Y43.794
X19.157 Y43.987
X19.226 Y44.199
X19.249 Y44.420
X19.226 Y44.641
X19.157 Y44.853
X19.046 Y45.046
X18.897 Y45.211
X18.717 Y45.342
X18.514 Y45.433
X18.296 Y45.479
X18.073 Y45.479
G0 Z3.000
G0  X12.993 Y45.479
G0  Z3.000
G01 F400 Z0
G01 F400 Z-0.100
G01F400X12.776 Y45.433
X12.572 Y45.342
X12.392 Y45.211
X12.243 Y45.046
X12.132 Y44.853
X12.063 Y44.641
X12.040 Y44.420
X12.063 Y44.199
X12.132 Y43.987
X12.243 Y43.794
X12.392 Y43.629
X12.572 Y43.498
X12.776 Y43.407
X12.993 Y43.361
X13.216 Y43.361
X13.434 Y43.407
X13.637 Y43.498
X13.817 Y43.629
X13.966 Y43.794
X14.077 Y43.987
X14.146 Y44.199
X14.169 Y44.420
X14.146 Y44.641
X14.077 Y44.853
X13.966 Y45.046
X13.817 Y45.211
X13.637 Y45.342
X13.434 Y45.433
X13.216 Y45.479
X12.993 Y45.479
G0 Z3.000
G0  X15.533 Y45.479
G0  Z3.000
G01 F400 Z0
G01 F400 Z-0.100
G01F400X15.316 Y45.433
X15.112 Y45.342
X14.932 Y45.211
X14.783 Y45.046
X14.672 Y44.853
X14.603 Y44.641
X14.580 Y44.420
X14.603 Y44.199
X14.672 Y43.987
X14.783 Y43.794
X14.932 Y43.629
X15.112 Y43.498
X15.316 Y43.407
X15.533 Y43.361
X15.756 Y43.361
X15.974 Y43.407
X16.177 Y43.498
X16.357 Y43.629
X16.506 Y43.794
X16.617 Y43.987
X16.686 Y44.199
X16.709 Y44.420
X16.686 Y44.641
X16.617 Y44.853
X16.506 Y45.046
X16.357 Y45.211
X16.177 Y45.342
X15.974 Y45.433
X15.756 Y45.479
X15.533 Y45.479
G0 Z3.000
G0  X46.313 Y42.969
G0  Z3.000
G01 F400 Z0
G01 F400 Z-0.100
G01F400X46.096 Y42.922
X45.892 Y42.832
X45.712 Y42.701
X45.563 Y42.536
X45.452 Y42.343
X45.383 Y42.131
X45.360 Y41.910
X45.383 Y41.689
X45.452 Y41.477
X45.563 Y41.284
X45.712 Y41.119
X45.892 Y40.988
X46.096 Y40.898
X46.313 Y40.851
X46.536 Y40.851
X46.754 Y40.898
X46.957 Y40.988
X47.137 Y41.119
X47.286 Y41.284
X47.397 Y41.477
X47.466 Y41.689
X47.489 Y41.910
X47.466 Y42.131
X47.397 Y42.343
X47.286 Y42.536
X47.137 Y42.701
X46.957 Y42.832
X46.754 Y42.922
X46.536 Y42.969
X46.313 Y42.969
G0 Z3.000
G0  X53.933 Y42.969
G0  Z3.000
G01 F400 Z0
G01 F400 Z-0.100
G01F400X53.716 Y42.922
X53.512 Y42.832
X53.332 Y42.701
X53.183 Y42.536
X53.072 Y42.343
X53.003 Y42.131
X52.980 Y41.910
X53.003 Y41.689
X53.072 Y41.477
X53.183 Y41.284
X53.332 Y41.119
X53.512 Y40.988
X53.716 Y40.898
X53.933 Y40.851
X54.156 Y40.851
X54.374 Y40.898
X54.577 Y40.988
X54.757 Y41.119
X54.906 Y41.284
X55.017 Y41.477
X55.086 Y41.689
X55.109 Y41.910
X55.086 Y42.131
X55.017 Y42.343
X54.906 Y42.536
X54.757 Y42.701
X54.577 Y42.832
X54.374 Y42.922
X54.156 Y42.969
X53.933 Y42.969
G0 Z3.000
G0  X50.123 Y42.969
G0  Z3.000
G01 F400 Z0
G01 F400 Z-0.100
G01F400X49.906 Y42.922
X49.702 Y42.832
X49.522 Y42.701
X49.373 Y42.536
X49.262 Y42.343
X49.193 Y42.131
X49.170 Y41.910
X49.193 Y41.689
X49.262 Y41.477
X49.373 Y41.284
X49.522 Y41.119
X49.702 Y40.988
X49.906 Y40.898
X50.123 Y40.851
X50.346 Y40.851
X50.564 Y40.898
X50.767 Y40.988
X50.947 Y41.119
X51.096 Y41.284
X51.207 Y41.477
X51.276 Y41.689
X51.299 Y41.910
X51.276 Y42.131
X51.207 Y42.343
X51.096 Y42.536
X50.947 Y42.701
X50.767 Y42.832
X50.564 Y42.922
X50.346 Y42.969
X50.123 Y42.969
G0 Z3.000
G0  X25.693 Y42.939
G0  Z3.000
G01 F400 Z0
G01 F400 Z-0.100
G01F400X25.476 Y42.893
X25.272 Y42.802
X25.092 Y42.671
X24.943 Y42.506
X24.832 Y42.313
X24.763 Y42.101
X24.740 Y41.880
X24.763 Y41.659
X24.832 Y41.447
X24.914 Y41.306
X19.832 Y36.224
X16.589 Y36.224
X16.515 Y36.216
X16.442 Y36.174
X8.346 Y28.078
X8.300 Y28.015
X8.283 Y27.936
X8.283 Y19.541
X8.300 Y19.461
X8.346 Y19.399
X8.361 Y19.384
X8.361 Y17.987
X8.377 Y17.908
X8.423 Y17.845
X10.446 Y15.822
X10.548 Y15.777
X46.491 Y15.777
X48.361 Y13.907
X48.361 Y5.922
X47.967 Y5.820
X47.567 Y5.143
X47.764 Y4.382
X48.442 Y3.983
X49.203 Y4.180
X49.602 Y4.857
X49.405 Y5.618
X48.809 Y5.970
X48.807 Y14.054
X48.751 Y14.151
X46.751 Y16.149
X46.698 Y16.197
X46.615 Y16.224
X10.678 Y16.224
X8.809 Y18.088
X8.807 Y19.357
X9.442 Y18.983
X10.203 Y19.180
X10.602 Y19.857
X10.405 Y20.618
X9.809 Y20.970
X9.807 Y26.905
X17.676 Y34.776
X21.502 Y34.776
X21.603 Y34.822
X27.769 Y40.989
X27.812 Y40.958
X28.016 Y40.867
X28.233 Y40.821
X28.456 Y40.821
X28.674 Y40.867
X28.877 Y40.958
X29.057 Y41.089
X29.206 Y41.254
X29.317 Y41.447
X29.386 Y41.659
X29.409 Y41.880
X29.386 Y42.101
X29.317 Y42.313
X29.206 Y42.506
X29.057 Y42.671
X28.877 Y42.802
X28.674 Y42.893
X28.456 Y42.939
X28.233 Y42.939
X28.016 Y42.893
X27.812 Y42.802
X27.632 Y42.671
X27.483 Y42.506
X27.372 Y42.313
X27.303 Y42.101
X27.280 Y41.880
X27.303 Y41.659
X27.372 Y41.447
X27.454 Y41.306
X21.372 Y35.224
X17.589 Y35.224
X17.515 Y35.216
X17.442 Y35.174
X9.423 Y27.155
X9.378 Y27.092
X9.361 Y27.013
X9.361 Y20.922
X8.966 Y20.820
X8.731 Y20.421
X8.729 Y27.828
X16.676 Y35.776
X19.962 Y35.776
X20.063 Y35.822
X25.229 Y40.989
X25.272 Y40.958
X25.476 Y40.867
X25.693 Y40.821
X25.916 Y40.821
X26.134 Y40.867
X26.337 Y40.958
X26.517 Y41.089
X26.666 Y41.254
X26.777 Y41.447
X26.846 Y41.659
X26.869 Y41.880
X26.846 Y42.101
X26.777 Y42.313
X26.666 Y42.506
X26.517 Y42.671
X26.337 Y42.802
X26.134 Y42.893
X25.916 Y42.939
X25.693 Y42.939
G0 Z3.000
G0  X20.613 Y42.939
G0  Z3.000
G01 F400 Z0
G01 F400 Z-0.100
G01F400X20.396 Y42.893
X20.192 Y42.802
X20.012 Y42.671
X19.863 Y42.506
X19.752 Y42.313
X19.683 Y42.101
X19.660 Y41.880
X19.683 Y41.659
X19.752 Y41.447
X19.834 Y41.306
X16.751 Y38.224
X14.589 Y38.224
X14.515 Y38.216
X14.442 Y38.174
X5.492 Y29.224
X3.589 Y29.224
X3.515 Y29.216
X3.442 Y29.174
X2.539 Y28.271
X2.493 Y28.208
X2.476 Y28.129
X2.476 Y27.000
X2.476 Y25.208
X2.423 Y25.155
X2.377 Y25.092
X2.358 Y25.000
X2.377 Y24.908
X2.423 Y24.845
X4.361 Y22.907
X4.361 Y16.987
X4.377 Y16.908
X4.423 Y16.845
X7.446 Y13.822
X7.548 Y13.777
X21.491 Y13.777
X22.361 Y12.907
X22.361 Y5.922
X21.966 Y5.820
X21.567 Y5.143
X21.764 Y4.382
X22.442 Y3.983
X23.203 Y4.180
X23.602 Y4.857
X23.405 Y5.618
X22.809 Y5.970
X22.807 Y13.054
X22.751 Y13.151
X21.751 Y14.149
X21.698 Y14.197
X21.615 Y14.224
X7.678 Y14.224
X4.809 Y17.088
X4.807 Y23.054
X4.751 Y23.151
X2.894 Y25.003
X2.924 Y25.096
X2.924 Y27.000
X2.922 Y28.021
X3.677 Y28.777
X5.622 Y28.777
X5.723 Y28.822
X14.676 Y37.776
X16.881 Y37.776
X16.983 Y37.822
X20.149 Y40.989
X20.192 Y40.958
X20.396 Y40.867
X20.613 Y40.821
X20.836 Y40.821
X21.054 Y40.867
X21.257 Y40.958
X21.437 Y41.089
X21.586 Y41.254
X21.697 Y41.447
X21.766 Y41.659
X21.789 Y41.880
X21.766 Y42.101
X21.697 Y42.313
X21.586 Y42.506
X21.437 Y42.671
X21.257 Y42.802
X21.054 Y42.893
X20.836 Y42.939
X20.613 Y42.939
G0 Z3.000
G0  X23.153 Y42.939
G0  Z3.000
G01 F400 Z0
G01 F400 Z-0.100
G01F400X22.936 Y42.893
X22.732 Y42.802
X22.552 Y42.671
X22.403 Y42.506
X22.292 Y42.313
X22.223 Y42.101
X22.200 Y41.880
X22.223 Y41.659
X22.292 Y41.447
X22.374 Y41.306
X18.423 Y37.355
X18.378 Y37.292
X18.363 Y37.224
X15.589 Y37.224
X15.515 Y37.216
X15.442 Y37.174
X7.423 Y29.155
X7.378 Y29.092
X7.361 Y29.013
X7.361 Y25.093
X5.423 Y23.155
X5.378 Y23.092
X5.361 Y23.013
X5.361 Y16.987
X5.377 Y16.908
X5.423 Y16.845
X7.446 Y14.822
X7.548 Y14.777
X34.491 Y14.777
X35.361 Y13.907
X35.361 Y5.922
X34.967 Y5.820
X34.567 Y5.143
X34.764 Y4.382
X35.442 Y3.983
X36.203 Y4.180
X36.602 Y4.857
X36.405 Y5.618
X35.809 Y5.970
X35.807 Y14.054
X35.751 Y14.151
X34.751 Y15.149
X34.698 Y15.197
X34.615 Y15.224
X7.678 Y15.224
X5.809 Y17.088
X5.807 Y22.905
X7.774 Y24.875
X7.809 Y24.980
X7.807 Y28.905
X15.676 Y36.776
X18.615 Y36.776
X18.698 Y36.803
X18.773 Y36.871
X18.809 Y36.981
X18.808 Y37.106
X22.689 Y40.989
X22.732 Y40.958
X22.936 Y40.867
X23.153 Y40.821
X23.376 Y40.821
X23.594 Y40.867
X23.797 Y40.958
X23.977 Y41.089
X24.126 Y41.254
X24.237 Y41.447
X24.306 Y41.659
X24.329 Y41.880
X24.306 Y42.101
X24.237 Y42.313
X24.126 Y42.506
X23.977 Y42.671
X23.797 Y42.802
X23.594 Y42.893
X23.376 Y42.939
X23.153 Y42.939
G0 Z3.000
G0  X35.853 Y42.939
G0  Z3.000
G01 F400 Z0
G01 F400 Z-0.100
G01F400X35.636 Y42.893
X35.432 Y42.802
X35.252 Y42.671
X35.103 Y42.506
X34.992 Y42.313
X34.923 Y42.101
X34.900 Y41.880
X34.923 Y41.659
X34.992 Y41.447
X35.103 Y41.254
X35.252 Y41.089
X35.432 Y40.958
X35.636 Y40.867
X35.741 Y40.845
X35.741 Y40.622
X35.757 Y40.543
X35.803 Y40.480
X36.511 Y39.773
X36.511 Y26.797
X36.527 Y26.717
X36.573 Y26.654
X40.718 Y22.509
X40.791 Y22.467
X40.866 Y22.459
X46.941 Y22.459
X48.361 Y21.040
X48.361 Y20.922
X47.967 Y20.820
X47.567 Y20.143
X47.764 Y19.382
X48.442 Y18.983
X49.203 Y19.180
X49.602 Y19.857
X49.405 Y20.618
X48.807 Y20.971
X48.807 Y21.186
X48.751 Y21.283
X47.201 Y22.832
X47.148 Y22.879
X47.064 Y22.906
X40.959 Y22.902
X36.959 Y26.898
X36.957 Y39.919
X36.901 Y40.016
X36.189 Y40.724
X36.188 Y40.845
X36.294 Y40.867
X36.497 Y40.958
X36.677 Y41.089
X36.826 Y41.254
X36.937 Y41.447
X37.006 Y41.659
X37.029 Y41.880
X37.006 Y42.101
X36.937 Y42.313
X36.826 Y42.506
X36.677 Y42.671
X36.497 Y42.802
X36.294 Y42.893
X36.076 Y42.939
X35.853 Y42.939
G0 Z3.000
G0  X38.393 Y42.939
G0  Z3.000
G01 F400 Z0
G01 F400 Z-0.100
G01F400X38.176 Y42.893
X37.972 Y42.802
X37.792 Y42.671
X37.643 Y42.506
X37.532 Y42.313
X37.463 Y42.101
X37.440 Y41.880
X37.463 Y41.659
X37.532 Y41.447
X37.643 Y41.254
X37.792 Y41.089
X37.972 Y40.958
X38.176 Y40.867
X38.393 Y40.821
X38.616 Y40.821
X38.834 Y40.867
X39.037 Y40.958
X39.217 Y41.089
X39.366 Y41.254
X39.477 Y41.447
X39.546 Y41.659
X39.569 Y41.880
X39.546 Y42.101
X39.477 Y42.313
X39.366 Y42.506
X39.217 Y42.671
X39.037 Y42.802
X38.834 Y42.893
X38.616 Y42.939
X38.393 Y42.939
G0 Z3.000
G0  X30.773 Y42.939
G0  Z3.000
G01 F400 Z0
G01 F400 Z-0.100
G01F400X30.556 Y42.893
X30.352 Y42.802
X30.172 Y42.671
X30.023 Y42.506
X29.912 Y42.313
X29.843 Y42.101
X29.820 Y41.880
X29.843 Y41.659
X29.912 Y41.447
X29.994 Y41.306
X22.423 Y33.735
X22.377 Y33.672
X22.361 Y33.593
X22.361 Y20.922
X21.966 Y20.820
X21.567 Y20.143
X21.764 Y19.382
X22.442 Y18.983
X23.203 Y19.180
X23.602 Y19.857
X23.405 Y20.618
X22.809 Y20.970
X22.807 Y33.485
X30.309 Y40.989
X30.352 Y40.958
X30.556 Y40.867
X30.773 Y40.821
X30.996 Y40.821
X31.214 Y40.867
X31.417 Y40.958
X31.597 Y41.089
X31.746 Y41.254
X31.857 Y41.447
X31.926 Y41.659
X31.949 Y41.880
X31.926 Y42.101
X31.857 Y42.313
X31.746 Y42.506
X31.597 Y42.671
X31.417 Y42.802
X31.214 Y42.893
X30.996 Y42.939
X30.773 Y42.939
G0 Z3.000
G0  X33.313 Y42.939
G0  Z3.000
G01 F400 Z0
G01 F400 Z-0.100
G01F400X33.096 Y42.893
X32.892 Y42.802
X32.712 Y42.671
X32.563 Y42.506
X32.452 Y42.313
X32.383 Y42.101
X32.360 Y41.880
X32.383 Y41.659
X32.452 Y41.447
X32.563 Y41.254
X32.712 Y41.089
X32.892 Y40.958
X33.096 Y40.867
X33.313 Y40.821
X33.536 Y40.821
X33.754 Y40.867
X33.957 Y40.958
X33.999 Y40.989
X35.361 Y39.627
X35.361 Y20.922
X34.967 Y20.820
X34.567 Y20.143
X34.764 Y19.382
X35.442 Y18.983
X36.203 Y19.180
X36.602 Y19.857
X36.405 Y20.618
X35.809 Y20.970
X35.807 Y39.774
X35.751 Y39.871
X34.315 Y41.304
X34.397 Y41.447
X34.466 Y41.659
X34.489 Y41.880
X34.466 Y42.101
X34.397 Y42.313
X34.286 Y42.506
X34.137 Y42.671
X33.957 Y42.802
X33.754 Y42.893
X33.536 Y42.939
X33.313 Y42.939
G0 Z3.000
G0  X5.373 Y42.939
G0  Z3.000
G01 F400 Z0
G01 F400 Z-0.100
G01F400X5.156 Y42.893
X4.952 Y42.802
X4.772 Y42.671
X4.623 Y42.506
X4.512 Y42.313
X4.443 Y42.101
X4.420 Y41.880
X4.443 Y41.659
X4.512 Y41.447
X4.623 Y41.254
X4.772 Y41.089
X4.952 Y40.958
X5.156 Y40.867
X5.373 Y40.821
X5.596 Y40.821
X5.814 Y40.867
X6.017 Y40.958
X6.197 Y41.089
X6.346 Y41.254
X6.457 Y41.447
X6.526 Y41.659
X6.549 Y41.880
X6.526 Y42.101
X6.457 Y42.313
X6.346 Y42.506
X6.197 Y42.671
X6.017 Y42.802
X5.814 Y42.893
X5.596 Y42.939
X5.373 Y42.939
G0 Z3.000
G0  X7.913 Y42.939
G0  Z3.000
G01 F400 Z0
G01 F400 Z-0.100
G01F400X7.696 Y42.893
X7.492 Y42.802
X7.312 Y42.671
X7.163 Y42.506
X7.052 Y42.313
X6.983 Y42.101
X6.960 Y41.880
X6.983 Y41.659
X7.052 Y41.447
X7.163 Y41.254
X7.312 Y41.089
X7.492 Y40.958
X7.696 Y40.867
X7.913 Y40.821
X8.136 Y40.821
X8.354 Y40.867
X8.557 Y40.958
X8.737 Y41.089
X8.886 Y41.254
X8.997 Y41.447
X9.066 Y41.659
X9.089 Y41.880
X9.066 Y42.101
X8.997 Y42.313
X8.886 Y42.506
X8.737 Y42.671
X8.557 Y42.802
X8.354 Y42.893
X8.136 Y42.939
X7.913 Y42.939
G0 Z3.000
G0  X15.533 Y42.939
G0  Z3.000
G01 F400 Z0
G01 F400 Z-0.100
G01F400X15.316 Y42.893
X15.112 Y42.802
X14.932 Y42.671
X14.783 Y42.506
X14.672 Y42.313
X14.603 Y42.101
X14.580 Y41.880
X14.603 Y41.659
X14.672 Y41.447
X14.783 Y41.254
X14.932 Y41.089
X15.112 Y40.958
X15.316 Y40.867
X15.533 Y40.821
X15.756 Y40.821
X15.974 Y40.867
X16.177 Y40.958
X16.357 Y41.089
X16.506 Y41.254
X16.617 Y41.447
X16.686 Y41.659
X16.709 Y41.880
X16.686 Y42.101
X16.617 Y42.313
X16.506 Y42.506
X16.357 Y42.671
X16.177 Y42.802
X15.974 Y42.893
X15.756 Y42.939
X15.533 Y42.939
G0 Z3.000
G0  X18.073 Y42.939
G0  Z3.000
G01 F400 Z0
G01 F400 Z-0.100
G01F400X17.856 Y42.893
X17.652 Y42.802
X17.472 Y42.671
X17.323 Y42.506
X17.212 Y42.313
X17.143 Y42.101
X17.120 Y41.880
X17.143 Y41.659
X17.212 Y41.447
X17.323 Y41.254
X17.472 Y41.089
X17.652 Y40.958
X17.856 Y40.867
X17.961 Y40.845
X17.961 Y40.693
X16.492 Y39.224
X13.589 Y39.224
X13.515 Y39.216
X13.442 Y39.174
X5.492 Y31.224
X3.589 Y31.224
X3.515 Y31.216
X3.433 Y31.169
X3.377 Y31.092
X3.361 Y31.013
X3.361 Y30.977
X1.539 Y29.155
X1.493 Y29.092
X1.476 Y29.013
X1.476 Y23.872
X1.493 Y23.792
X1.539 Y23.729
X3.361 Y21.907
X3.361 Y16.047
X3.377 Y15.968
X3.423 Y15.905
X5.827 Y13.502
X5.605 Y13.600
X5.261 Y13.674
X4.909 Y13.674
X4.565 Y13.600
X4.243 Y13.457
X3.959 Y13.251
X3.723 Y12.989
X3.547 Y12.684
X3.439 Y12.350
X3.402 Y12.000
X3.439 Y11.650
X3.547 Y11.316
X3.723 Y11.011
X3.959 Y10.750
X4.243 Y10.543
X4.565 Y10.400
X4.909 Y10.326
X5.261 Y10.326
X5.605 Y10.400
X5.926 Y10.543
X6.211 Y10.750
X6.446 Y11.011
X6.622 Y11.316
X6.731 Y11.650
X6.768 Y12.000
X6.731 Y12.350
X6.622 Y12.684
X6.555 Y12.800
X6.608 Y12.777
X8.491 Y12.777
X9.361 Y11.907
X9.361 Y5.922
X8.966 Y5.820
X8.567 Y5.143
X8.764 Y4.382
X9.442 Y3.983
X10.203 Y4.180
X10.602 Y4.857
X10.405 Y5.618
X9.809 Y5.970
X9.807 Y12.054
X9.751 Y12.151
X8.751 Y13.149
X8.698 Y13.197
X8.615 Y13.224
X6.738 Y13.224
X3.809 Y16.149
X3.807 Y22.054
X3.751 Y22.151
X1.924 Y23.973
X1.922 Y28.905
X3.770 Y30.754
X3.780 Y30.777
X5.622 Y30.777
X5.723 Y30.822
X13.676 Y38.776
X16.622 Y38.776
X16.723 Y38.822
X18.374 Y40.475
X18.409 Y40.581
X18.408 Y40.845
X18.514 Y40.867
X18.717 Y40.958
X18.897 Y41.089
X19.046 Y41.254
X19.157 Y41.447
X19.226 Y41.659
X19.249 Y41.880
X19.226 Y42.101
X19.157 Y42.313
X19.046 Y42.506
X18.897 Y42.671
X18.717 Y42.802
X18.514 Y42.893
X18.296 Y42.939
X18.073 Y42.939
G0 Z3.000
G0  X10.453 Y42.939
G0  Z3.000
G01 F400 Z0
G01 F400 Z-0.100
G01F400X10.236 Y42.893
X10.032 Y42.802
X9.852 Y42.671
X9.703 Y42.506
X9.592 Y42.313
X9.523 Y42.101
X9.500 Y41.880
X9.523 Y41.659
X9.592 Y41.447
X9.703 Y41.254
X9.852 Y41.089
X10.032 Y40.958
X10.236 Y40.867
X10.453 Y40.821
X10.676 Y40.821
X10.894 Y40.867
X11.097 Y40.958
X11.277 Y41.089
X11.426 Y41.254
X11.537 Y41.447
X11.606 Y41.659
X11.629 Y41.880
X11.606 Y42.101
X11.537 Y42.313
X11.426 Y42.506
X11.277 Y42.671
X11.097 Y42.802
X10.894 Y42.893
X10.676 Y42.939
X10.453 Y42.939
G0 Z3.000
G0  X12.993 Y42.939
G0  Z3.000
G01 F400 Z0
G01 F400 Z-0.100
G01F400X12.776 Y42.893
X12.572 Y42.802
X12.392 Y42.671
X12.243 Y42.506
X12.132 Y42.313
X12.063 Y42.101
X12.040 Y41.880
X12.063 Y41.659
X12.132 Y41.447
X12.243 Y41.254
X12.392 Y41.089
X12.572 Y40.958
X12.776 Y40.867
X12.993 Y40.821
X13.216 Y40.821
X13.434 Y40.867
X13.637 Y40.958
X13.817 Y41.089
X13.966 Y41.254
X14.077 Y41.447
X14.146 Y41.659
X14.169 Y41.880
X14.146 Y42.101
X14.077 Y42.313
X13.966 Y42.506
X13.817 Y42.671
X13.637 Y42.802
X13.434 Y42.893
X13.216 Y42.939
X12.993 Y42.939
G0 Z3.000
G0  X4.909 Y28.674
G0  Z3.000
G01 F400 Z0
G01 F400 Z-0.100
G01F400X4.565 Y28.600
X4.243 Y28.457
X3.959 Y28.251
X3.723 Y27.989
X3.547 Y27.684
X3.439 Y27.350
X3.402 Y27.000
X3.439 Y26.650
X3.547 Y26.316
X3.723 Y26.011
X3.959 Y25.750
X4.243 Y25.543
X4.565 Y25.400
X4.909 Y25.326
X5.261 Y25.326
X5.605 Y25.400
X5.926 Y25.543
X6.211 Y25.750
X6.446 Y26.011
X6.622 Y26.316
X6.731 Y26.650
X6.768 Y27.000
X6.731 Y27.350
X6.622 Y27.684
X6.446 Y27.989
X6.211 Y28.251
X5.926 Y28.457
X5.605 Y28.600
X5.261 Y28.674
X4.909 Y28.674
G0 Z3.000
G0  X26.909 Y28.674
G0  Z3.000
G01 F400 Z0
G01 F400 Z-0.100
G01F400X26.565 Y28.600
X26.243 Y28.457
X25.959 Y28.251
X25.723 Y27.989
X25.547 Y27.684
X25.439 Y27.350
X25.402 Y27.000
X25.439 Y26.650
X25.547 Y26.316
X25.723 Y26.011
X25.959 Y25.750
X26.243 Y25.543
X26.565 Y25.400
X26.909 Y25.326
X27.261 Y25.326
X27.605 Y25.400
X27.926 Y25.543
X28.211 Y25.750
X28.446 Y26.011
X28.622 Y26.316
X28.731 Y26.650
X28.768 Y27.000
X28.731 Y27.350
X28.622 Y27.684
X28.446 Y27.989
X28.211 Y28.251
X27.926 Y28.457
X27.605 Y28.600
X27.261 Y28.674
X26.909 Y28.674
G0 Z3.000
G0  X17.909 Y28.674
G0  Z3.000
G01 F400 Z0
G01 F400 Z-0.100
G01F400X17.565 Y28.600
X17.243 Y28.457
X16.959 Y28.251
X16.723 Y27.989
X16.547 Y27.684
X16.439 Y27.350
X16.402 Y27.000
X16.439 Y26.650
X16.547 Y26.316
X16.723 Y26.011
X16.959 Y25.750
X17.243 Y25.543
X17.565 Y25.400
X17.909 Y25.326
X18.261 Y25.326
X18.605 Y25.400
X18.926 Y25.543
X19.211 Y25.750
X19.446 Y26.011
X19.622 Y26.316
X19.731 Y26.650
X19.768 Y27.000
X19.731 Y27.350
X19.622 Y27.684
X19.446 Y27.989
X19.211 Y28.251
X18.926 Y28.457
X18.605 Y28.600
X18.261 Y28.674
X17.909 Y28.674
G0 Z3.000
G0  X13.909 Y28.674
G0  Z3.000
G01 F400 Z0
G01 F400 Z-0.100
G01F400X13.565 Y28.600
X13.243 Y28.457
X12.959 Y28.251
X12.723 Y27.989
X12.547 Y27.684
X12.439 Y27.350
X12.402 Y27.000
X12.439 Y26.650
X12.547 Y26.316
X12.723 Y26.011
X12.959 Y25.750
X13.243 Y25.543
X13.565 Y25.400
X13.909 Y25.326
X14.261 Y25.326
X14.605 Y25.400
X14.926 Y25.543
X15.211 Y25.750
X15.446 Y26.011
X15.622 Y26.316
X15.731 Y26.650
X15.768 Y27.000
X15.731 Y27.350
X15.622 Y27.684
X15.446 Y27.989
X15.211 Y28.251
X14.926 Y28.457
X14.605 Y28.600
X14.261 Y28.674
X13.909 Y28.674
G0 Z3.000
G0  X30.909 Y28.674
G0  Z3.000
G01 F400 Z0
G01 F400 Z-0.100
G01F400X30.565 Y28.600
X30.243 Y28.457
X29.959 Y28.251
X29.723 Y27.989
X29.547 Y27.684
X29.439 Y27.350
X29.402 Y27.000
X29.439 Y26.650
X29.547 Y26.316
X29.723 Y26.011
X29.959 Y25.750
X30.243 Y25.543
X30.565 Y25.400
X30.909 Y25.326
X31.261 Y25.326
X31.605 Y25.400
X31.926 Y25.543
X32.211 Y25.750
X32.446 Y26.011
X32.622 Y26.316
X32.731 Y26.650
X32.767 Y27.000
X32.731 Y27.350
X32.622 Y27.684
X32.446 Y27.989
X32.211 Y28.251
X31.926 Y28.457
X31.605 Y28.600
X31.261 Y28.674
X30.909 Y28.674
G0 Z3.000
G0  X39.909 Y28.674
G0  Z3.000
G01 F400 Z0
G01 F400 Z-0.100
G01F400X39.565 Y28.600
X39.243 Y28.457
X38.959 Y28.251
X38.723 Y27.989
X38.547 Y27.684
X38.439 Y27.350
X38.402 Y27.000
X38.439 Y26.650
X38.547 Y26.316
X38.723 Y26.011
X38.959 Y25.750
X39.243 Y25.543
X39.565 Y25.400
X39.909 Y25.326
X40.261 Y25.326
X40.605 Y25.400
X40.926 Y25.543
X41.211 Y25.750
X41.446 Y26.011
X41.622 Y26.316
X41.731 Y26.650
X41.768 Y27.000
X41.731 Y27.350
X41.622 Y27.684
X41.446 Y27.989
X41.211 Y28.251
X40.926 Y28.457
X40.605 Y28.600
X40.261 Y28.674
X39.909 Y28.674
G0 Z3.000
G0  X52.909 Y28.674
G0  Z3.000
G01 F400 Z0
G01 F400 Z-0.100
G01F400X52.565 Y28.600
X52.243 Y28.457
X51.959 Y28.251
X51.723 Y27.989
X51.547 Y27.684
X51.439 Y27.350
X51.402 Y27.000
X51.439 Y26.650
X51.547 Y26.316
X51.723 Y26.011
X51.959 Y25.750
X52.243 Y25.543
X52.565 Y25.400
X52.909 Y25.326
X53.261 Y25.326
X53.605 Y25.400
X53.926 Y25.543
X54.211 Y25.750
X54.446 Y26.011
X54.622 Y26.316
X54.731 Y26.650
X54.768 Y27.000
X54.731 Y27.350
X54.622 Y27.684
X54.446 Y27.989
X54.211 Y28.251
X53.926 Y28.457
X53.605 Y28.600
X53.261 Y28.674
X52.909 Y28.674
G0 Z3.000
G0  X43.909 Y28.674
G0  Z3.000
G01 F400 Z0
G01 F400 Z-0.100
G01F400X43.565 Y28.600
X43.243 Y28.457
X42.959 Y28.251
X42.723 Y27.989
X42.547 Y27.684
X42.439 Y27.350
X42.402 Y27.000
X42.439 Y26.650
X42.547 Y26.316
X42.723 Y26.011
X42.959 Y25.750
X43.243 Y25.543
X43.565 Y25.400
X43.909 Y25.326
X44.261 Y25.326
X44.605 Y25.400
X44.926 Y25.543
X45.211 Y25.750
X45.446 Y26.011
X45.622 Y26.316
X45.731 Y26.650
X45.768 Y27.000
X45.731 Y27.350
X45.622 Y27.684
X45.446 Y27.989
X45.211 Y28.251
X44.926 Y28.457
X44.605 Y28.600
X44.261 Y28.674
X43.909 Y28.674
G0 Z3.000
G0  X7.228 Y21.017
G0  Z3.000
G01 F400 Z0
G01 F400 Z-0.100
G01F400X6.466 Y20.820
X6.067 Y20.143
X6.264 Y19.382
X6.942 Y18.983
X7.703 Y19.180
X8.102 Y19.857
X7.905 Y20.618
X7.228 Y21.017
G0 Z3.000
G0  X20.228 Y21.017
G0  Z3.000
G01 F400 Z0
G01 F400 Z-0.100
G01F400X19.466 Y20.820
X19.067 Y20.143
X19.264 Y19.382
X19.942 Y18.983
X20.703 Y19.180
X21.102 Y19.857
X20.905 Y20.618
X20.228 Y21.017
G0 Z3.000
G0  X46.228 Y21.017
G0  Z3.000
G01 F400 Z0
G01 F400 Z-0.100
G01F400X45.467 Y20.820
X45.067 Y20.143
X45.264 Y19.382
X45.942 Y18.983
X46.703 Y19.180
X47.102 Y19.857
X46.905 Y20.618
X46.228 Y21.017
G0 Z3.000
G0  X33.228 Y21.017
G0  Z3.000
G01 F400 Z0
G01 F400 Z-0.100
G01F400X32.467 Y20.820
X32.067 Y20.143
X32.264 Y19.382
X32.942 Y18.983
X33.703 Y19.180
X34.102 Y19.857
X33.905 Y20.618
X33.228 Y21.017
G0 Z3.000
G0  X11.136 Y20.949
G0  Z3.000
G01 F400 Z0
G01 F400 Z-0.100
G01F400X11.136 Y19.051
X13.034 Y19.051
X13.034 Y20.949
X11.136 Y20.949
G0 Z3.000
G0  X50.136 Y20.949
G0  Z3.000
G01 F400 Z0
G01 F400 Z-0.100
G01F400X50.136 Y19.051
X52.034 Y19.051
X52.034 Y20.949
X50.136 Y20.949
G0 Z3.000
G0  X24.136 Y20.949
G0  Z3.000
G01 F400 Z0
G01 F400 Z-0.100
G01F400X24.136 Y19.051
X26.034 Y19.051
X26.034 Y20.949
X24.136 Y20.949
G0 Z3.000
G0  X37.136 Y20.949
G0  Z3.000
G01 F400 Z0
G01 F400 Z-0.100
G01F400X37.136 Y19.051
X39.034 Y19.051
X39.034 Y20.949
X37.136 Y20.949
G0 Z3.000
G0  X26.909 Y13.674
G0  Z3.000
G01 F400 Z0
G01 F400 Z-0.100
G01F400X26.565 Y13.600
X26.243 Y13.457
X25.959 Y13.251
X25.723 Y12.989
X25.547 Y12.684
X25.439 Y12.350
X25.402 Y12.000
X25.439 Y11.650
X25.547 Y11.316
X25.723 Y11.011
X25.959 Y10.750
X26.243 Y10.543
X26.565 Y10.400
X26.909 Y10.326
X27.261 Y10.326
X27.605 Y10.400
X27.926 Y10.543
X28.211 Y10.750
X28.446 Y11.011
X28.622 Y11.316
X28.731 Y11.650
X28.768 Y12.000
X28.731 Y12.350
X28.622 Y12.684
X28.446 Y12.989
X28.211 Y13.251
X27.926 Y13.457
X27.605 Y13.600
X27.261 Y13.674
X26.909 Y13.674
G0 Z3.000
G0  X17.909 Y13.674
G0  Z3.000
G01 F400 Z0
G01 F400 Z-0.100
G01F400X17.565 Y13.600
X17.243 Y13.457
X16.959 Y13.251
X16.723 Y12.989
X16.547 Y12.684
X16.439 Y12.350
X16.402 Y12.000
X16.439 Y11.650
X16.547 Y11.316
X16.723 Y11.011
X16.959 Y10.750
X17.243 Y10.543
X17.565 Y10.400
X17.909 Y10.326
X18.261 Y10.326
X18.605 Y10.400
X18.926 Y10.543
X19.211 Y10.750
X19.446 Y11.011
X19.622 Y11.316
X19.731 Y11.650
X19.768 Y12.000
X19.731 Y12.350
X19.622 Y12.684
X19.446 Y12.989
X19.211 Y13.251
X18.926 Y13.457
X18.605 Y13.600
X18.261 Y13.674
X17.909 Y13.674
G0 Z3.000
G0  X30.909 Y13.674
G0  Z3.000
G01 F400 Z0
G01 F400 Z-0.100
G01F400X30.565 Y13.600
X30.243 Y13.457
X29.959 Y13.251
X29.723 Y12.989
X29.547 Y12.684
X29.439 Y12.350
X29.402 Y12.000
X29.439 Y11.650
X29.547 Y11.316
X29.723 Y11.011
X29.959 Y10.750
X30.243 Y10.543
X30.565 Y10.400
X30.909 Y10.326
X31.261 Y10.326
X31.605 Y10.400
X31.926 Y10.543
X32.211 Y10.750
X32.446 Y11.011
X32.622 Y11.316
X32.731 Y11.650
X32.767 Y12.000
X32.731 Y12.350
X32.622 Y12.684
X32.446 Y12.989
X32.211 Y13.251
X31.926 Y13.457
X31.605 Y13.600
X31.261 Y13.674
X30.909 Y13.674
G0 Z3.000
G0  X39.909 Y13.674
G0  Z3.000
G01 F400 Z0
G01 F400 Z-0.100
G01F400X39.565 Y13.600
X39.243 Y13.457
X38.959 Y13.251
X38.723 Y12.989
X38.547 Y12.684
X38.439 Y12.350
X38.402 Y12.000
X38.439 Y11.650
X38.547 Y11.316
X38.723 Y11.011
X38.959 Y10.750
X39.243 Y10.543
X39.565 Y10.400
X39.909 Y10.326
X40.261 Y10.326
X40.605 Y10.400
X40.926 Y10.543
X41.211 Y10.750
X41.446 Y11.011
X41.622 Y11.316
X41.731 Y11.650
X41.768 Y12.000
X41.731 Y12.350
X41.622 Y12.684
X41.446 Y12.989
X41.211 Y13.251
X40.926 Y13.457
X40.605 Y13.600
X40.261 Y13.674
X39.909 Y13.674
G0 Z3.000
G0  X13.909 Y13.674
G0  Z3.000
G01 F400 Z0
G01 F400 Z-0.100
G01F400X13.565 Y13.600
X13.243 Y13.457
X12.959 Y13.251
X12.723 Y12.989
X12.547 Y12.684
X12.439 Y12.350
X12.402 Y12.000
X12.439 Y11.650
X12.547 Y11.316
X12.723 Y11.011
X12.959 Y10.750
X13.243 Y10.543
X13.565 Y10.400
X13.909 Y10.326
X14.261 Y10.326
X14.605 Y10.400
X14.926 Y10.543
X15.211 Y10.750
X15.446 Y11.011
X15.622 Y11.316
X15.731 Y11.650
X15.768 Y12.000
X15.731 Y12.350
X15.622 Y12.684
X15.446 Y12.989
X15.211 Y13.251
X14.926 Y13.457
X14.605 Y13.600
X14.261 Y13.674
X13.909 Y13.674
G0 Z3.000
G0  X52.909 Y13.674
G0  Z3.000
G01 F400 Z0
G01 F400 Z-0.100
G01F400X52.565 Y13.600
X52.243 Y13.457
X51.959 Y13.251
X51.723 Y12.989
X51.547 Y12.684
X51.439 Y12.350
X51.402 Y12.000
X51.439 Y11.650
X51.547 Y11.316
X51.723 Y11.011
X51.959 Y10.750
X52.243 Y10.543
X52.565 Y10.400
X52.909 Y10.326
X53.261 Y10.326
X53.605 Y10.400
X53.926 Y10.543
X54.211 Y10.750
X54.446 Y11.011
X54.622 Y11.316
X54.731 Y11.650
X54.768 Y12.000
X54.731 Y12.350
X54.622 Y12.684
X54.446 Y12.989
X54.211 Y13.251
X53.926 Y13.457
X53.605 Y13.600
X53.261 Y13.674
X52.909 Y13.674
G0 Z3.000
G0  X43.909 Y13.674
G0  Z3.000
G01 F400 Z0
G01 F400 Z-0.100
G01F400X43.565 Y13.600
X43.243 Y13.457
X42.959 Y13.251
X42.723 Y12.989
X42.547 Y12.684
X42.439 Y12.350
X42.402 Y12.000
X42.439 Y11.650
X42.547 Y11.316
X42.723 Y11.011
X42.959 Y10.750
X43.243 Y10.543
X43.565 Y10.400
X43.909 Y10.326
X44.261 Y10.326
X44.605 Y10.400
X44.926 Y10.543
X45.211 Y10.750
X45.446 Y11.011
X45.622 Y11.316
X45.731 Y11.650
X45.768 Y12.000
X45.731 Y12.350
X45.622 Y12.684
X45.446 Y12.989
X45.211 Y13.251
X44.926 Y13.457
X44.605 Y13.600
X44.261 Y13.674
X43.909 Y13.674
G0 Z3.000
G0  X20.228 Y6.017
G0  Z3.000
G01 F400 Z0
G01 F400 Z-0.100
G01F400X19.466 Y5.820
X19.067 Y5.143
X19.264 Y4.382
X19.942 Y3.983
X20.703 Y4.180
X21.102 Y4.857
X20.905 Y5.618
X20.228 Y6.017
G0 Z3.000
G0  X33.228 Y6.017
G0  Z3.000
G01 F400 Z0
G01 F400 Z-0.100
G01F400X32.467 Y5.820
X32.067 Y5.143
X32.264 Y4.382
X32.942 Y3.983
X33.703 Y4.180
X34.102 Y4.857
X33.905 Y5.618
X33.228 Y6.017
G0 Z3.000
G0  X7.228 Y6.017
G0  Z3.000
G01 F400 Z0
G01 F400 Z-0.100
G01F400X6.466 Y5.820
X6.067 Y5.143
X6.264 Y4.382
X6.942 Y3.983
X7.703 Y4.180
X8.102 Y4.857
X7.905 Y5.618
X7.228 Y6.017
G0 Z3.000
G0  X46.228 Y6.017
G0  Z3.000
G01 F400 Z0
G01 F400 Z-0.100
G01F400X45.467 Y5.820
X45.067 Y5.143
X45.264 Y4.382
X45.942 Y3.983
X46.703 Y4.180
X47.102 Y4.857
X46.905 Y5.618
X46.228 Y6.017
G0 Z3.000
G0  X24.136 Y5.949
G0  Z3.000
G01 F400 Z0
G01 F400 Z-0.100
G01F400X24.136 Y4.051
X26.034 Y4.051
X26.034 Y5.949
X24.136 Y5.949
G0 Z3.000
G0  X11.136 Y5.949
G0  Z3.000
G01 F400 Z0
G01 F400 Z-0.100
G01F400X11.136 Y4.051
X13.034 Y4.051
X13.034 Y5.949
X11.136 Y5.949
G0 Z3.000
G0  X37.136 Y5.949
G0  Z3.000
G01 F400 Z0
G01 F400 Z-0.100
G01F400X37.136 Y4.051
X39.034 Y4.051
X39.034 Y5.949
X37.136 Y5.949
G0 Z3.000
G0  X50.136 Y5.949
G0  Z3.000
G01 F400 Z0
G01 F400 Z-0.100
G01F400X50.136 Y4.051
X52.034 Y4.051
X52.034 Y5.949
X50.136 Y5.949
G0 Z3.000
G0  X28.231 Y61.556
G0  Z3.000
G01 F400 Z0
G01 F400 Z-0.100
G01F400X27.967 Y61.500
X27.721 Y61.391
X27.503 Y61.232
X27.322 Y61.032
X27.188 Y60.799
X27.104 Y60.542
X27.100 Y60.502
X27.028 Y60.722
X26.894 Y60.956
X26.713 Y61.156
X26.495 Y61.315
X26.249 Y61.424
X25.985 Y61.480
X25.716 Y61.480
X25.452 Y61.424
X25.206 Y61.315
X24.988 Y61.156
X24.808 Y60.956
X24.673 Y60.722
X24.590 Y60.466
X24.562 Y60.198
X24.590 Y59.930
X24.673 Y59.674
X24.808 Y59.440
X24.988 Y59.240
X25.206 Y59.082
X25.249 Y59.062
X25.249 Y58.276
X25.160 Y58.236
X24.942 Y58.078
X24.762 Y57.878
X24.627 Y57.644
X24.544 Y57.388
X24.535 Y57.303
X24.526 Y57.388
X24.442 Y57.644
X24.308 Y57.878
X24.127 Y58.078
X23.909 Y58.236
X23.861 Y58.258
X23.861 Y58.986
X23.905 Y59.005
X24.123 Y59.164
X24.303 Y59.364
X24.438 Y59.598
X24.521 Y59.854
X24.549 Y60.122
X24.521 Y60.390
X24.438 Y60.646
X24.303 Y60.880
X24.123 Y61.080
X23.905 Y61.238
X23.658 Y61.348
X23.395 Y61.404
X23.125 Y61.404
X22.861 Y61.348
X22.615 Y61.238
X22.397 Y61.080
X22.217 Y60.880
X22.082 Y60.646
X21.999 Y60.390
X21.971 Y60.122
X21.999 Y59.854
X22.082 Y59.598
X22.217 Y59.364
X22.397 Y59.164
X22.615 Y59.005
X22.658 Y58.986
X22.658 Y58.254
X22.620 Y58.236
X22.402 Y58.078
X22.222 Y57.878
X22.087 Y57.644
X22.004 Y57.388
X21.995 Y57.303
X21.986 Y57.388
X21.902 Y57.644
X21.768 Y57.878
X21.587 Y58.078
X21.369 Y58.236
X21.271 Y58.281
X21.271 Y58.986
X21.314 Y59.005
X21.532 Y59.164
X21.712 Y59.364
X21.847 Y59.598
X21.930 Y59.854
X21.958 Y60.122
X21.930 Y60.390
X21.847 Y60.646
X21.712 Y60.880
X21.532 Y61.080
X21.314 Y61.238
X21.068 Y61.348
X20.804 Y61.404
X20.534 Y61.404
X20.271 Y61.348
X20.024 Y61.238
X19.806 Y61.080
X19.626 Y60.880
X19.491 Y60.646
X19.408 Y60.390
X19.380 Y60.122
X19.408 Y59.854
X19.491 Y59.598
X19.626 Y59.364
X19.806 Y59.164
X20.024 Y59.005
X20.068 Y58.986
X20.068 Y58.227
X19.862 Y58.078
X19.682 Y57.878
X19.547 Y57.644
X19.464 Y57.388
X19.455 Y57.303
X19.446 Y57.388
X19.362 Y57.644
X19.228 Y57.878
X19.047 Y58.078
X18.829 Y58.236
X18.680 Y58.303
X18.680 Y58.986
X18.723 Y59.005
X18.941 Y59.164
X19.121 Y59.364
X19.256 Y59.598
X19.339 Y59.854
X19.367 Y60.122
X19.339 Y60.390
X19.256 Y60.646
X19.121 Y60.880
X18.941 Y61.080
X18.723 Y61.238
X18.477 Y61.348
X18.213 Y61.404
X17.944 Y61.404
X17.680 Y61.348
X17.434 Y61.238
X17.216 Y61.080
X17.035 Y60.880
X16.901 Y60.646
X16.817 Y60.390
X16.789 Y60.122
X16.817 Y59.854
X16.901 Y59.598
X17.035 Y59.364
X17.216 Y59.164
X17.434 Y59.005
X17.477 Y58.986
X17.477 Y58.191
X17.322 Y58.078
X17.142 Y57.878
X17.007 Y57.644
X16.924 Y57.388
X16.915 Y57.303
X16.906 Y57.388
X16.822 Y57.644
X16.688 Y57.878
X16.507 Y58.078
X16.289 Y58.236
X16.089 Y58.326
X16.089 Y58.986
X16.132 Y59.005
X16.350 Y59.164
X16.530 Y59.364
X16.665 Y59.598
X16.748 Y59.854
X16.777 Y60.122
X16.748 Y60.390
X16.665 Y60.646
X16.530 Y60.880
X16.350 Y61.080
X16.132 Y61.238
X15.886 Y61.348
X15.622 Y61.404
X15.353 Y61.404
X15.089 Y61.348
X14.843 Y61.238
X14.625 Y61.080
X14.445 Y60.880
X14.310 Y60.646
X14.227 Y60.390
X14.198 Y60.122
X14.227 Y59.854
X14.310 Y59.598
X14.445 Y59.364
X14.625 Y59.164
X14.843 Y59.005
X14.886 Y58.986
X14.886 Y58.154
X14.782 Y58.078
X14.602 Y57.878
X14.467 Y57.644
X14.384 Y57.388
X14.375 Y57.303
X14.366 Y57.388
X14.282 Y57.644
X14.148 Y57.878
X13.967 Y58.078
X13.749 Y58.236
X13.708 Y58.255
X13.713 Y59.130
X13.759 Y59.164
X13.940 Y59.364
X14.074 Y59.598
X14.158 Y59.854
X14.186 Y60.122
X14.158 Y60.390
X14.074 Y60.646
X13.940 Y60.880
X13.759 Y61.080
X13.541 Y61.238
X13.295 Y61.348
X13.031 Y61.404
X12.762 Y61.404
X12.498 Y61.348
X12.252 Y61.238
X12.034 Y61.080
X11.854 Y60.880
X11.719 Y60.646
X11.636 Y60.390
X11.607 Y60.122
X11.636 Y59.854
X11.719 Y59.598
X11.854 Y59.364
X12.034 Y59.164
X12.252 Y59.005
X12.498 Y58.896
X12.503 Y58.895
X12.503 Y58.256
X12.460 Y58.236
X12.242 Y58.078
X12.062 Y57.878
X11.927 Y57.644
X11.844 Y57.388
X11.835 Y57.303
X11.826 Y57.388
X11.742 Y57.644
X11.608 Y57.878
X11.427 Y58.078
X11.209 Y58.236
X11.166 Y58.256
X11.166 Y59.162
X11.168 Y59.164
X11.349 Y59.364
X11.484 Y59.598
X11.567 Y59.854
X11.595 Y60.122
X11.567 Y60.390
X11.484 Y60.646
X11.349 Y60.880
X11.168 Y61.080
X10.950 Y61.238
X10.704 Y61.348
X10.441 Y61.404
X10.171 Y61.404
X9.908 Y61.348
X9.661 Y61.238
X9.443 Y61.080
X9.263 Y60.880
X9.128 Y60.646
X9.045 Y60.390
X9.017 Y60.122
X9.045 Y59.854
X9.128 Y59.598
X9.263 Y59.364
X9.443 Y59.164
X9.661 Y59.005
X9.908 Y58.896
X9.963 Y58.884
X9.963 Y58.256
X9.920 Y58.236
X9.702 Y58.078
X9.522 Y57.878
X9.387 Y57.644
X9.304 Y57.388
X9.295 Y57.303
X9.286 Y57.388
X9.202 Y57.644
X9.068 Y57.878
X8.887 Y58.078
X8.669 Y58.236
X8.423 Y58.346
X8.317 Y58.369
X8.317 Y58.986
X8.360 Y59.005
X8.578 Y59.164
X8.758 Y59.364
X8.893 Y59.598
X8.976 Y59.854
X9.004 Y60.122
X8.976 Y60.390
X8.893 Y60.646
X8.758 Y60.880
X8.578 Y61.080
X8.360 Y61.238
X8.114 Y61.348
X7.850 Y61.404
X7.580 Y61.404
X7.317 Y61.348
X7.071 Y61.238
X6.853 Y61.080
X6.672 Y60.880
X6.537 Y60.646
X6.454 Y60.390
X6.426 Y60.122
X6.454 Y59.854
X6.537 Y59.598
X6.672 Y59.364
X6.853 Y59.164
X7.071 Y59.005
X7.114 Y58.986
X7.114 Y58.024
X6.982 Y57.878
X6.847 Y57.644
X6.764 Y57.388
X6.755 Y57.303
X6.746 Y57.388
X6.662 Y57.644
X6.528 Y57.878
X6.347 Y58.078
X6.129 Y58.236
X5.883 Y58.346
X5.619 Y58.402
X5.350 Y58.402
X5.086 Y58.346
X4.840 Y58.236
X4.622 Y58.078
X4.442 Y57.878
X4.307 Y57.644
X4.224 Y57.388
X4.196 Y57.120
X4.224 Y56.852
X4.307 Y56.596
X4.442 Y56.362
X4.622 Y56.162
X4.840 Y56.004
X5.086 Y55.894
X5.350 Y55.838
X5.619 Y55.838
X5.883 Y55.894
X6.129 Y56.004
X6.347 Y56.162
X6.528 Y56.362
X6.662 Y56.596
X6.746 Y56.852
X6.755 Y56.938
X6.764 Y56.852
X6.847 Y56.596
X6.982 Y56.362
X7.162 Y56.162
X7.380 Y56.004
X7.626 Y55.894
X7.890 Y55.838
X8.159 Y55.838
X8.423 Y55.894
X8.669 Y56.004
X8.887 Y56.162
X9.068 Y56.362
X9.202 Y56.596
X9.286 Y56.852
X9.295 Y56.938
X9.304 Y56.852
X9.387 Y56.596
X9.522 Y56.362
X9.702 Y56.162
X9.920 Y56.004
X10.166 Y55.894
X10.430 Y55.838
X10.699 Y55.838
X10.963 Y55.894
X11.209 Y56.004
X11.427 Y56.162
X11.608 Y56.362
X11.742 Y56.596
X11.826 Y56.852
X11.835 Y56.938
X11.844 Y56.852
X11.927 Y56.596
X12.062 Y56.362
X12.242 Y56.162
X12.460 Y56.004
X12.706 Y55.894
X12.970 Y55.838
X13.239 Y55.838
X13.503 Y55.894
X13.749 Y56.004
X13.967 Y56.162
X14.148 Y56.362
X14.282 Y56.596
X14.366 Y56.852
X14.375 Y56.938
X14.384 Y56.852
X14.467 Y56.596
X14.602 Y56.362
X14.782 Y56.162
X15.000 Y56.004
X15.246 Y55.894
X15.510 Y55.838
X15.779 Y55.838
X16.043 Y55.894
X16.289 Y56.004
X16.507 Y56.162
X16.688 Y56.362
X16.822 Y56.596
X16.906 Y56.852
X16.915 Y56.938
X16.924 Y56.852
X17.007 Y56.596
X17.142 Y56.362
X17.322 Y56.162
X17.540 Y56.004
X17.786 Y55.894
X18.050 Y55.838
X18.319 Y55.838
X18.583 Y55.894
X18.829 Y56.004
X19.047 Y56.162
X19.228 Y56.362
X19.362 Y56.596
X19.446 Y56.852
X19.455 Y56.938
X19.464 Y56.852
X19.547 Y56.596
X19.682 Y56.362
X19.862 Y56.162
X20.080 Y56.004
X20.326 Y55.894
X20.590 Y55.838
X20.859 Y55.838
X21.123 Y55.894
X21.369 Y56.004
X21.587 Y56.162
X21.768 Y56.362
X21.902 Y56.596
X21.986 Y56.852
X21.995 Y56.938
X22.004 Y56.852
X22.087 Y56.596
X22.222 Y56.362
X22.402 Y56.162
X22.620 Y56.004
X22.866 Y55.894
X23.130 Y55.838
X23.399 Y55.838
X23.663 Y55.894
X23.909 Y56.004
X24.127 Y56.162
X24.308 Y56.362
X24.442 Y56.596
X24.526 Y56.852
X24.535 Y56.938
X24.544 Y56.852
X24.627 Y56.596
X24.762 Y56.362
X24.942 Y56.162
X25.160 Y56.004
X25.406 Y55.894
X25.670 Y55.838
X25.939 Y55.838
X26.203 Y55.894
X26.449 Y56.004
X26.667 Y56.162
X26.848 Y56.362
X26.982 Y56.596
X27.066 Y56.852
X27.075 Y56.938
X27.084 Y56.852
X27.167 Y56.596
X27.302 Y56.362
X27.482 Y56.162
X27.700 Y56.004
X27.946 Y55.894
X28.210 Y55.838
X28.479 Y55.838
X28.743 Y55.894
X28.989 Y56.004
X29.207 Y56.162
X29.388 Y56.362
X29.522 Y56.596
X29.606 Y56.852
X29.615 Y56.938
X29.624 Y56.852
X29.707 Y56.596
X29.842 Y56.362
X30.022 Y56.162
X30.240 Y56.004
X30.486 Y55.894
X30.750 Y55.838
X31.019 Y55.838
X31.283 Y55.894
X31.529 Y56.004
X31.747 Y56.162
X31.928 Y56.362
X32.062 Y56.596
X32.146 Y56.852
X32.155 Y56.938
X32.164 Y56.852
X32.247 Y56.596
X32.382 Y56.362
X32.562 Y56.162
X32.780 Y56.004
X33.026 Y55.894
X33.290 Y55.838
X33.559 Y55.838
X33.823 Y55.894
X34.069 Y56.004
X34.287 Y56.162
X34.468 Y56.362
X34.602 Y56.596
X34.686 Y56.852
X34.695 Y56.938
X34.704 Y56.852
X34.787 Y56.596
X34.922 Y56.362
X35.102 Y56.162
X35.320 Y56.004
X35.566 Y55.894
X35.830 Y55.838
X36.099 Y55.838
X36.363 Y55.894
X36.609 Y56.004
X36.827 Y56.162
X37.008 Y56.362
X37.142 Y56.596
X37.226 Y56.852
X37.235 Y56.938
X37.244 Y56.852
X37.327 Y56.596
X37.462 Y56.362
X37.642 Y56.162
X37.860 Y56.004
X38.106 Y55.894
X38.313 Y55.850
X38.106 Y55.806
X37.860 Y55.697
X37.642 Y55.538
X37.462 Y55.338
X37.327 Y55.104
X37.244 Y54.848
X37.215 Y54.580
X37.244 Y54.312
X37.327 Y54.056
X37.462 Y53.822
X37.642 Y53.622
X37.860 Y53.464
X38.106 Y53.354
X38.313 Y53.310
X38.106 Y53.266
X37.860 Y53.157
X37.642 Y52.998
X37.462 Y52.798
X37.327 Y52.564
X37.244 Y52.308
X37.215 Y52.040
X37.244 Y51.772
X37.327 Y51.516
X37.462 Y51.282
X37.642 Y51.082
X37.860 Y50.924
X38.106 Y50.814
X38.313 Y50.770
X38.106 Y50.726
X37.860 Y50.617
X37.642 Y50.458
X37.462 Y50.258
X37.327 Y50.024
X37.244 Y49.768
X37.215 Y49.500
X37.244 Y49.232
X37.327 Y48.976
X37.462 Y48.742
X37.642 Y48.542
X37.860 Y48.384
X38.106 Y48.274
X38.313 Y48.230
X38.106 Y48.186
X37.860 Y48.077
X37.642 Y47.918
X37.462 Y47.718
X37.327 Y47.484
X37.244 Y47.228
X37.215 Y46.960
X37.244 Y46.692
X37.327 Y46.436
X37.462 Y46.202
X37.642 Y46.002
X37.860 Y45.843
X38.106 Y45.734
X38.313 Y45.690
X38.106 Y45.646
X37.860 Y45.537
X37.642 Y45.378
X37.462 Y45.178
X37.327 Y44.944
X37.244 Y44.688
X37.215 Y44.420
X37.244 Y44.152
X37.327 Y43.896
X37.462 Y43.662
X37.642 Y43.462
X37.860 Y43.303
X38.106 Y43.194
X38.313 Y43.150
X38.106 Y43.106
X37.860 Y42.997
X37.642 Y42.838
X37.462 Y42.638
X37.327 Y42.404
X37.244 Y42.148
X37.235 Y42.063
X37.226 Y42.148
X37.142 Y42.404
X37.008 Y42.638
X36.827 Y42.838
X36.609 Y42.997
X36.363 Y43.106
X36.099 Y43.162
X35.830 Y43.162
X35.566 Y43.106
X35.320 Y42.997
X35.102 Y42.838
X34.922 Y42.638
X34.787 Y42.404
X34.704 Y42.148
X34.695 Y42.063
X34.686 Y42.148
X34.602 Y42.404
X34.468 Y42.638
X34.287 Y42.838
X34.069 Y42.997
X33.823 Y43.106
X33.559 Y43.162
X33.290 Y43.162
X33.026 Y43.106
X32.780 Y42.997
X32.562 Y42.838
X32.382 Y42.638
X32.247 Y42.404
X32.164 Y42.148
X32.155 Y42.063
X32.146 Y42.148
X32.062 Y42.404
X31.928 Y42.638
X31.747 Y42.838
X31.529 Y42.997
X31.283 Y43.106
X31.019 Y43.162
X30.750 Y43.162
X30.486 Y43.106
X30.240 Y42.997
X30.022 Y42.838
X29.842 Y42.638
X29.707 Y42.404
X29.624 Y42.148
X29.615 Y42.063
X29.606 Y42.148
X29.522 Y42.404
X29.388 Y42.638
X29.207 Y42.838
X28.989 Y42.997
X28.743 Y43.106
X28.479 Y43.162
X28.210 Y43.162
X27.946 Y43.106
X27.700 Y42.997
X27.482 Y42.838
X27.302 Y42.638
X27.167 Y42.404
X27.084 Y42.148
X27.075 Y42.063
X27.066 Y42.148
X26.982 Y42.404
X26.848 Y42.638
X26.667 Y42.838
X26.449 Y42.997
X26.203 Y43.106
X25.939 Y43.162
X25.670 Y43.162
X25.406 Y43.106
X25.160 Y42.997
X24.942 Y42.838
X24.762 Y42.638
X24.627 Y42.404
X24.544 Y42.148
X24.535 Y42.063
X24.526 Y42.148
X24.442 Y42.404
X24.308 Y42.638
X24.127 Y42.838
X23.909 Y42.997
X23.663 Y43.106
X23.399 Y43.162
X23.130 Y43.162
X22.866 Y43.106
X22.620 Y42.997
X22.402 Y42.838
X22.222 Y42.638
X22.087 Y42.404
X22.004 Y42.148
X21.995 Y42.063
X21.986 Y42.148
X21.902 Y42.404
X21.768 Y42.638
X21.587 Y42.838
X21.369 Y42.997
X21.123 Y43.106
X20.859 Y43.162
X20.590 Y43.162
X20.326 Y43.106
X20.080 Y42.997
X19.862 Y42.838
X19.682 Y42.638
X19.547 Y42.404
X19.464 Y42.148
X19.455 Y42.063
X19.446 Y42.148
X19.362 Y42.404
X19.228 Y42.638
X19.047 Y42.838
X18.829 Y42.997
X18.583 Y43.106
X18.376 Y43.150
X18.583 Y43.194
X18.829 Y43.303
X19.047 Y43.462
X19.228 Y43.662
X19.362 Y43.896
X19.446 Y44.152
X19.474 Y44.420
X19.446 Y44.688
X19.362 Y44.944
X19.228 Y45.178
X19.047 Y45.378
X18.829 Y45.537
X18.583 Y45.646
X18.319 Y45.702
X18.050 Y45.702
X17.786 Y45.646
X17.540 Y45.537
X17.322 Y45.378
X17.142 Y45.178
X17.007 Y44.944
X16.924 Y44.688
X16.915 Y44.602
X16.906 Y44.688
X16.822 Y44.944
X16.688 Y45.178
X16.507 Y45.378
X16.289 Y45.537
X16.043 Y45.646
X15.779 Y45.702
X15.510 Y45.702
X15.246 Y45.646
X15.000 Y45.537
X14.782 Y45.378
X14.602 Y45.178
X14.467 Y44.944
X14.384 Y44.688
X14.375 Y44.602
X14.366 Y44.688
X14.282 Y44.944
X14.148 Y45.178
X13.967 Y45.378
X13.749 Y45.537
X13.503 Y45.646
X13.239 Y45.702
X12.970 Y45.702
X12.706 Y45.646
X12.460 Y45.537
X12.242 Y45.378
X12.062 Y45.178
X11.927 Y44.944
X11.844 Y44.688
X11.816 Y44.420
X11.844 Y44.152
X11.927 Y43.896
X12.062 Y43.662
X12.242 Y43.462
X12.460 Y43.303
X12.706 Y43.194
X12.913 Y43.150
X12.706 Y43.106
X12.460 Y42.997
X12.242 Y42.838
X12.062 Y42.638
X11.927 Y42.404
X11.844 Y42.148
X11.835 Y42.063
X11.826 Y42.148
X11.742 Y42.404
X11.608 Y42.638
X11.427 Y42.838
X11.209 Y42.997
X10.963 Y43.106
X10.699 Y43.162
X10.430 Y43.162
X10.166 Y43.106
X9.920 Y42.997
X9.702 Y42.838
X9.522 Y42.638
X9.387 Y42.404
X9.304 Y42.148
X9.295 Y42.063
X9.286 Y42.148
X9.202 Y42.404
X9.068 Y42.638
X8.887 Y42.838
X8.669 Y42.997
X8.423 Y43.106
X8.216 Y43.150
X8.423 Y43.194
X8.669 Y43.303
X8.887 Y43.462
X9.068 Y43.662
X9.202 Y43.896
X9.286 Y44.152
X9.314 Y44.420
X9.286 Y44.688
X9.202 Y44.944
X9.068 Y45.178
X8.887 Y45.378
X8.669 Y45.537
X8.423 Y45.646
X8.159 Y45.702
X7.890 Y45.702
X7.626 Y45.646
X7.380 Y45.537
X7.162 Y45.378
X6.982 Y45.178
X6.847 Y44.944
X6.764 Y44.688
X6.736 Y44.420
X6.764 Y44.152
X6.847 Y43.896
X6.982 Y43.662
X7.162 Y43.462
X7.380 Y43.303
X7.626 Y43.194
X7.833 Y43.150
X7.626 Y43.106
X7.380 Y42.997
X7.162 Y42.838
X6.982 Y42.638
X6.847 Y42.404
X6.764 Y42.148
X6.755 Y42.063
X6.746 Y42.148
X6.662 Y42.404
X6.528 Y42.638
X6.347 Y42.838
X6.129 Y42.997
X5.883 Y43.106
X5.619 Y43.162
X5.350 Y43.162
X5.086 Y43.106
X4.840 Y42.997
X4.622 Y42.838
X4.442 Y42.638
X4.307 Y42.404
X4.224 Y42.148
X4.196 Y41.880
X4.224 Y41.612
X4.307 Y41.356
X4.442 Y41.122
X4.622 Y40.922
X4.840 Y40.764
X5.086 Y40.654
X5.350 Y40.598
X5.619 Y40.598
X5.883 Y40.654
X6.129 Y40.764
X6.347 Y40.922
X6.528 Y41.122
X6.662 Y41.356
X6.746 Y41.612
X6.755 Y41.698
X6.764 Y41.612
X6.847 Y41.356
X6.982 Y41.122
X7.162 Y40.922
X7.380 Y40.764
X7.626 Y40.654
X7.890 Y40.598
X8.159 Y40.598
X8.423 Y40.654
X8.669 Y40.764
X8.887 Y40.922
X9.068 Y41.122
X9.202 Y41.356
X9.286 Y41.612
X9.295 Y41.698
X9.304 Y41.612
X9.387 Y41.356
X9.522 Y41.122
X9.702 Y40.922
X9.920 Y40.764
X10.166 Y40.654
X10.430 Y40.598
X10.699 Y40.598
X10.963 Y40.654
X11.209 Y40.764
X11.427 Y40.922
X11.608 Y41.122
X11.742 Y41.356
X11.826 Y41.612
X11.835 Y41.698
X11.844 Y41.612
X11.927 Y41.356
X12.062 Y41.122
X12.242 Y40.922
X12.460 Y40.764
X12.706 Y40.654
X12.970 Y40.598
X13.239 Y40.598
X13.503 Y40.654
X13.749 Y40.764
X13.967 Y40.922
X14.148 Y41.122
X14.282 Y41.356
X14.366 Y41.612
X14.375 Y41.698
X14.384 Y41.612
X14.467 Y41.356
X14.602 Y41.122
X14.782 Y40.922
X15.000 Y40.764
X15.246 Y40.654
X15.510 Y40.598
X15.779 Y40.598
X16.043 Y40.654
X16.289 Y40.764
X16.507 Y40.922
X16.688 Y41.122
X16.822 Y41.356
X16.906 Y41.612
X16.915 Y41.698
X16.924 Y41.612
X17.007 Y41.356
X17.142 Y41.122
X17.322 Y40.922
X17.540 Y40.764
X17.662 Y40.709
X16.399 Y39.447
X13.577 Y39.447
X13.444 Y39.433
X13.304 Y39.352
X5.399 Y31.447
X3.577 Y31.447
X3.444 Y31.433
X3.280 Y31.338
X3.169 Y31.185
X3.146 Y31.079
X1.368 Y29.301
X1.284 Y29.185
X1.253 Y29.036
X1.253 Y23.848
X1.284 Y23.699
X1.368 Y23.584
X3.137 Y21.815
X3.137 Y16.024
X3.169 Y15.875
X3.253 Y15.760
X5.115 Y13.897
X4.885 Y13.897
X4.495 Y13.814
X4.131 Y13.652
X3.808 Y13.417
X3.542 Y13.121
X3.342 Y12.776
X3.219 Y12.397
X3.177 Y12.000
X3.219 Y11.603
X3.342 Y11.224
X3.542 Y10.879
X3.808 Y10.583
X4.131 Y10.348
X4.495 Y10.186
X4.885 Y10.103
X5.284 Y10.103
X5.674 Y10.186
X6.038 Y10.348
X6.361 Y10.583
X6.628 Y10.879
X6.827 Y11.224
X6.950 Y11.603
X6.992 Y12.000
X6.950 Y12.397
X6.900 Y12.553
X8.399 Y12.553
X9.137 Y11.815
X9.137 Y6.095
X8.821 Y6.014
X8.328 Y5.177
X8.571 Y4.236
X9.408 Y3.743
X10.348 Y3.987
X10.841 Y4.823
X10.598 Y5.764
X10.032 Y6.097
X10.030 Y12.114
X9.930 Y12.288
X8.905 Y13.311
X8.812 Y13.394
X8.650 Y13.447
X6.831 Y13.447
X4.032 Y16.241
X4.030 Y22.114
X3.930 Y22.288
X2.148 Y24.065
X2.147 Y24.916
X2.169 Y24.815
X2.253 Y24.699
X4.137 Y22.815
X4.137 Y16.964
X4.169 Y16.815
X4.253 Y16.699
X7.318 Y13.635
X7.501 Y13.553
X12.995 Y13.553
X12.808 Y13.417
X12.542 Y13.121
X12.342 Y12.776
X12.219 Y12.397
X12.177 Y12.000
X12.219 Y11.603
X12.342 Y11.224
X12.542 Y10.879
X12.808 Y10.583
X13.131 Y10.348
X13.495 Y10.186
X13.885 Y10.103
X14.284 Y10.103
X14.674 Y10.186
X15.038 Y10.348
X15.361 Y10.583
X15.628 Y10.879
X15.827 Y11.224
X15.950 Y11.603
X15.992 Y12.000
X15.950 Y12.397
X15.827 Y12.776
X15.628 Y13.121
X15.361 Y13.417
X15.174 Y13.553
X16.995 Y13.553
X16.808 Y13.417
X16.542 Y13.121
X16.342 Y12.776
X16.219 Y12.397
X16.177 Y12.000
X16.219 Y11.603
X16.342 Y11.224
X16.542 Y10.879
X16.808 Y10.583
X17.131 Y10.348
X17.495 Y10.186
X17.885 Y10.103
X18.284 Y10.103
X18.674 Y10.186
X19.038 Y10.348
X19.361 Y10.583
X19.628 Y10.879
X19.827 Y11.224
X19.950 Y11.603
X19.992 Y12.000
X19.950 Y12.397
X19.827 Y12.776
X19.628 Y13.121
X19.361 Y13.417
X19.174 Y13.553
X21.399 Y13.553
X22.137 Y12.815
X22.137 Y6.095
X21.821 Y6.014
X21.328 Y5.177
X21.571 Y4.236
X22.408 Y3.743
X23.348 Y3.987
X23.841 Y4.823
X23.598 Y5.764
X23.032 Y6.097
X23.030 Y13.114
X22.930 Y13.288
X21.905 Y14.311
X21.812 Y14.394
X21.650 Y14.447
X7.770 Y14.447
X7.664 Y14.553
X34.399 Y14.553
X35.137 Y13.815
X35.137 Y6.095
X34.821 Y6.014
X34.328 Y5.177
X34.571 Y4.236
X35.408 Y3.743
X36.348 Y3.987
X36.841 Y4.823
X36.598 Y5.764
X36.032 Y6.097
X36.030 Y14.114
X35.930 Y14.288
X34.905 Y15.311
X34.812 Y15.394
X34.650 Y15.447
X7.770 Y15.447
X6.032 Y17.181
X6.031 Y19.390
X6.071 Y19.236
X6.908 Y18.743
X7.848 Y18.986
X8.087 Y19.391
X8.091 Y19.369
X8.137 Y19.305
X8.137 Y17.964
X8.169 Y17.815
X8.253 Y17.699
X10.318 Y15.635
X10.501 Y15.553
X46.399 Y15.553
X48.137 Y13.815
X48.137 Y6.095
X47.821 Y6.014
X47.328 Y5.177
X47.571 Y4.236
X48.408 Y3.743
X49.348 Y3.987
X49.841 Y4.823
X49.598 Y5.764
X49.032 Y6.097
X49.030 Y14.114
X48.930 Y14.288
X46.905 Y16.311
X46.812 Y16.394
X46.650 Y16.447
X10.770 Y16.447
X9.032 Y18.181
X9.031 Y18.966
X9.408 Y18.743
X10.348 Y18.986
X10.841 Y19.823
X10.598 Y20.764
X10.032 Y21.097
X10.030 Y26.813
X17.769 Y34.553
X21.549 Y34.553
X21.732 Y34.635
X27.810 Y40.714
X27.946 Y40.654
X28.210 Y40.598
X28.479 Y40.598
X28.743 Y40.654
X28.989 Y40.764
X29.207 Y40.922
X29.388 Y41.122
X29.522 Y41.356
X29.606 Y41.612
X29.615 Y41.698
X29.624 Y41.612
X29.707 Y41.356
X29.715 Y41.342
X22.253 Y33.881
X22.169 Y33.765
X22.137 Y33.616
X22.137 Y21.095
X21.821 Y21.014
X21.328 Y20.177
X21.571 Y19.236
X22.408 Y18.743
X23.348 Y18.986
X23.841 Y19.823
X23.598 Y20.764
X23.032 Y21.097
X23.030 Y33.393
X30.350 Y40.714
X30.486 Y40.654
X30.750 Y40.598
X31.019 Y40.598
X31.283 Y40.654
X31.529 Y40.764
X31.747 Y40.922
X31.928 Y41.122
X32.062 Y41.356
X32.146 Y41.612
X32.155 Y41.698
X32.164 Y41.612
X32.247 Y41.356
X32.382 Y41.122
X32.562 Y40.922
X32.780 Y40.764
X33.026 Y40.654
X33.290 Y40.598
X33.559 Y40.598
X33.823 Y40.654
X33.958 Y40.714
X35.137 Y39.535
X35.137 Y21.095
X34.821 Y21.014
X34.328 Y20.177
X34.571 Y19.236
X35.408 Y18.743
X36.348 Y18.986
X36.841 Y19.823
X36.598 Y20.764
X36.032 Y21.097
X36.030 Y39.834
X35.930 Y40.008
X34.594 Y41.341
X34.602 Y41.356
X34.686 Y41.612
X34.695 Y41.698
X34.704 Y41.612
X34.787 Y41.356
X34.922 Y41.122
X35.102 Y40.922
X35.320 Y40.764
X35.517 Y40.676
X35.517 Y40.599
X35.549 Y40.450
X35.633 Y40.335
X36.287 Y39.680
X36.287 Y26.773
X36.319 Y26.625
X36.403 Y26.509
X40.581 Y22.330
X40.721 Y22.250
X40.854 Y22.236
X46.849 Y22.236
X48.020 Y21.065
X47.821 Y21.014
X47.328 Y20.177
X47.571 Y19.236
X48.408 Y18.743
X49.348 Y18.986
X49.841 Y19.823
X49.598 Y20.764
X49.030 Y21.098
X49.030 Y21.246
X48.930 Y21.420
X47.354 Y22.994
X47.262 Y23.077
X47.100 Y23.130
X41.051 Y23.126
X37.182 Y26.990
X37.180 Y39.979
X37.079 Y40.154
X36.510 Y40.719
X36.609 Y40.764
X36.827 Y40.922
X37.008 Y41.122
X37.142 Y41.356
X37.226 Y41.612
X37.235 Y41.698
X37.244 Y41.612
X37.327 Y41.356
X37.462 Y41.122
X37.642 Y40.922
X37.860 Y40.764
X38.106 Y40.654
X38.370 Y40.598
X38.639 Y40.598
X38.903 Y40.654
X39.149 Y40.764
X39.367 Y40.922
X39.548 Y41.122
X39.682 Y41.356
X39.766 Y41.612
X39.794 Y41.880
X39.766 Y42.148
X39.682 Y42.404
X39.548 Y42.638
X39.367 Y42.838
X39.149 Y42.997
X38.903 Y43.106
X38.696 Y43.150
X38.903 Y43.194
X39.149 Y43.303
X39.367 Y43.462
X39.548 Y43.662
X39.682 Y43.896
X39.766 Y44.152
X39.794 Y44.420
X39.766 Y44.688
X39.682 Y44.944
X39.548 Y45.178
X39.367 Y45.378
X39.149 Y45.537
X38.903 Y45.646
X38.696 Y45.690
X38.903 Y45.734
X39.149 Y45.843
X39.367 Y46.002
X39.548 Y46.202
X39.682 Y46.436
X39.766 Y46.692
X39.794 Y46.960
X39.766 Y47.228
X39.682 Y47.484
X39.548 Y47.718
X39.367 Y47.918
X39.149 Y48.077
X38.903 Y48.186
X38.696 Y48.230
X38.903 Y48.274
X39.149 Y48.384
X39.367 Y48.542
X39.548 Y48.742
X39.682 Y48.976
X39.766 Y49.232
X39.794 Y49.500
X39.766 Y49.768
X39.682 Y50.024
X39.548 Y50.258
X39.367 Y50.458
X39.149 Y50.617
X38.903 Y50.726
X38.696 Y50.770
X38.903 Y50.814
X39.149 Y50.924
X39.367 Y51.082
X39.548 Y51.282
X39.682 Y51.516
X39.766 Y51.772
X39.794 Y52.040
X39.766 Y52.308
X39.682 Y52.564
X39.548 Y52.798
X39.367 Y52.998
X39.149 Y53.157
X38.903 Y53.266
X38.696 Y53.310
X38.903 Y53.354
X39.149 Y53.464
X39.367 Y53.622
X39.548 Y53.822
X39.682 Y54.056
X39.766 Y54.312
X39.794 Y54.580
X39.766 Y54.848
X39.682 Y55.104
X39.548 Y55.338
X39.367 Y55.538
X39.149 Y55.697
X38.903 Y55.806
X38.696 Y55.850
X38.903 Y55.894
X39.149 Y56.004
X39.367 Y56.162
X39.548 Y56.362
X39.682 Y56.596
X39.766 Y56.852
X39.794 Y57.120
X39.766 Y57.388
X39.682 Y57.644
X39.548 Y57.878
X39.367 Y58.078
X39.149 Y58.236
X38.903 Y58.346
X38.639 Y58.402
X38.370 Y58.402
X38.106 Y58.346
X37.860 Y58.236
X37.642 Y58.078
X37.462 Y57.878
X37.327 Y57.644
X37.244 Y57.388
X37.235 Y57.303
X37.226 Y57.388
X37.142 Y57.644
X37.008 Y57.878
X36.827 Y58.078
X36.609 Y58.236
X36.363 Y58.346
X36.099 Y58.402
X35.830 Y58.402
X35.566 Y58.346
X35.320 Y58.236
X35.102 Y58.078
X34.922 Y57.878
X34.787 Y57.644
X34.704 Y57.388
X34.695 Y57.303
X34.686 Y57.388
X34.602 Y57.644
X34.468 Y57.878
X34.287 Y58.078
X34.069 Y58.236
X33.823 Y58.346
X33.559 Y58.402
X33.290 Y58.402
X33.026 Y58.346
X32.780 Y58.236
X32.562 Y58.078
X32.382 Y57.878
X32.247 Y57.644
X32.164 Y57.388
X32.155 Y57.303
X32.146 Y57.388
X32.062 Y57.644
X31.928 Y57.878
X31.747 Y58.078
X31.659 Y58.142
X31.659 Y59.062
X31.702 Y59.082
X31.920 Y59.240
X32.101 Y59.440
X32.235 Y59.674
X32.319 Y59.930
X32.347 Y60.198
X32.319 Y60.466
X32.235 Y60.722
X32.101 Y60.956
X31.920 Y61.156
X31.702 Y61.315
X31.456 Y61.424
X31.192 Y61.480
X30.923 Y61.480
X30.659 Y61.424
X30.413 Y61.315
X30.195 Y61.156
X30.015 Y60.956
X29.880 Y60.722
X29.797 Y60.466
X29.769 Y60.198
X29.797 Y59.930
X29.880 Y59.674
X30.015 Y59.440
X30.195 Y59.240
X30.413 Y59.082
X30.453 Y59.064
X30.443 Y58.327
X30.240 Y58.236
X30.022 Y58.078
X29.842 Y57.878
X29.707 Y57.644
X29.624 Y57.388
X29.615 Y57.303
X29.606 Y57.388
X29.522 Y57.644
X29.388 Y57.878
X29.207 Y58.078
X28.989 Y58.236
X28.946 Y58.256
X28.946 Y59.129
X29.010 Y59.158
X29.228 Y59.316
X29.408 Y59.517
X29.543 Y59.750
X29.626 Y60.006
X29.655 Y60.274
X29.626 Y60.542
X29.543 Y60.799
X29.408 Y61.032
X29.228 Y61.232
X29.010 Y61.391
X28.764 Y61.500
X28.500 Y61.556
X28.231 Y61.556
G0 Z3.000
G0  X27.116 Y59.970
G0  Z3.000
G01 F400 Z0
G01 F400 Z-0.100
G01F400X27.188 Y59.750
X27.322 Y59.517
X27.503 Y59.316
X27.723 Y59.156
X27.743 Y59.148
X27.743 Y58.256
X27.700 Y58.236
X27.482 Y58.078
X27.302 Y57.878
X27.167 Y57.644
X27.084 Y57.388
X27.075 Y57.303
X27.066 Y57.388
X26.982 Y57.644
X26.848 Y57.878
X26.667 Y58.078
X26.452 Y58.234
X26.452 Y59.062
X26.495 Y59.082
X26.713 Y59.240
X26.894 Y59.440
X27.028 Y59.674
X27.112 Y59.930
X27.116 Y59.970
G0 Z3.000
G0  X53.910 Y58.432
G0  Z3.000
G01 F400 Z0
G01 F400 Z-0.100
G01F400X53.646 Y58.376
X53.400 Y58.267
X53.182 Y58.108
X53.002 Y57.908
X52.867 Y57.674
X52.784 Y57.418
X52.756 Y57.150
X52.784 Y56.882
X52.867 Y56.626
X53.002 Y56.392
X53.182 Y56.192
X53.400 Y56.034
X53.646 Y55.924
X53.910 Y55.868
X54.179 Y55.868
X54.443 Y55.924
X54.689 Y56.034
X54.907 Y56.192
X55.088 Y56.392
X55.222 Y56.626
X55.306 Y56.882
X55.334 Y57.150
X55.306 Y57.418
X55.222 Y57.674
X55.088 Y57.908
X54.907 Y58.108
X54.689 Y58.267
X54.443 Y58.376
X54.179 Y58.432
X53.910 Y58.432
G0 Z3.000
G0  X46.290 Y58.432
G0  Z3.000
G01 F400 Z0
G01 F400 Z-0.100
G01F400X46.026 Y58.376
X45.780 Y58.267
X45.562 Y58.108
X45.382 Y57.908
X45.247 Y57.674
X45.164 Y57.418
X45.136 Y57.150
X45.164 Y56.882
X45.247 Y56.626
X45.382 Y56.392
X45.562 Y56.192
X45.780 Y56.034
X46.026 Y55.924
X46.290 Y55.868
X46.559 Y55.868
X46.823 Y55.924
X47.069 Y56.034
X47.287 Y56.192
X47.468 Y56.392
X47.602 Y56.626
X47.686 Y56.882
X47.714 Y57.150
X47.686 Y57.418
X47.602 Y57.674
X47.468 Y57.908
X47.287 Y58.108
X47.069 Y58.267
X46.823 Y58.376
X46.559 Y58.432
X46.290 Y58.432
G0 Z3.000
G0  X50.100 Y58.432
G0  Z3.000
G01 F400 Z0
G01 F400 Z-0.100
G01F400X49.836 Y58.376
X49.590 Y58.267
X49.372 Y58.108
X49.192 Y57.908
X49.057 Y57.674
X48.974 Y57.418
X48.946 Y57.150
X48.974 Y56.882
X49.057 Y56.626
X49.192 Y56.392
X49.372 Y56.192
X49.590 Y56.034
X49.836 Y55.924
X50.100 Y55.868
X50.369 Y55.868
X50.633 Y55.924
X50.879 Y56.034
X51.097 Y56.192
X51.278 Y56.392
X51.412 Y56.626
X51.496 Y56.882
X51.524 Y57.150
X51.496 Y57.418
X51.412 Y57.674
X51.278 Y57.908
X51.097 Y58.108
X50.879 Y58.267
X50.633 Y58.376
X50.369 Y58.432
X50.100 Y58.432
G0 Z3.000
G0  X46.290 Y54.622
G0  Z3.000
G01 F400 Z0
G01 F400 Z-0.100
G01F400X46.026 Y54.566
X45.780 Y54.457
X45.562 Y54.298
X45.382 Y54.098
X45.247 Y53.864
X45.164 Y53.608
X45.136 Y53.340
X45.164 Y53.072
X45.247 Y52.816
X45.382 Y52.582
X45.562 Y52.382
X45.780 Y52.224
X46.026 Y52.114
X46.290 Y52.058
X46.559 Y52.058
X46.823 Y52.114
X47.069 Y52.224
X47.287 Y52.382
X47.468 Y52.582
X47.602 Y52.816
X47.686 Y53.072
X47.714 Y53.340
X47.686 Y53.608
X47.602 Y53.864
X47.468 Y54.098
X47.287 Y54.298
X47.069 Y54.457
X46.823 Y54.566
X46.559 Y54.622
X46.290 Y54.622
G0 Z3.000
G0  X50.100 Y54.622
G0  Z3.000
G01 F400 Z0
G01 F400 Z-0.100
G01F400X49.836 Y54.566
X49.590 Y54.457
X49.372 Y54.298
X49.192 Y54.098
X49.057 Y53.864
X48.974 Y53.608
X48.946 Y53.340
X48.974 Y53.072
X49.057 Y52.816
X49.192 Y52.582
X49.372 Y52.382
X49.590 Y52.224
X49.836 Y52.114
X50.100 Y52.058
X50.369 Y52.058
X50.633 Y52.114
X50.879 Y52.224
X51.097 Y52.382
X51.278 Y52.582
X51.412 Y52.816
X51.496 Y53.072
X51.524 Y53.340
X51.496 Y53.608
X51.412 Y53.864
X51.278 Y54.098
X51.097 Y54.298
X50.879 Y54.457
X50.633 Y54.566
X50.369 Y54.622
X50.100 Y54.622
G0 Z3.000
G0  X53.910 Y54.622
G0  Z3.000
G01 F400 Z0
G01 F400 Z-0.100
G01F400X53.646 Y54.566
X53.400 Y54.457
X53.182 Y54.298
X53.002 Y54.098
X52.867 Y53.864
X52.784 Y53.608
X52.756 Y53.340
X52.784 Y53.072
X52.867 Y52.816
X53.002 Y52.582
X53.182 Y52.382
X53.400 Y52.224
X53.646 Y52.114
X53.910 Y52.058
X54.179 Y52.058
X54.443 Y52.114
X54.689 Y52.224
X54.907 Y52.382
X55.088 Y52.582
X55.222 Y52.816
X55.306 Y53.072
X55.334 Y53.340
X55.306 Y53.608
X55.222 Y53.864
X55.088 Y54.098
X54.907 Y54.298
X54.689 Y54.457
X54.443 Y54.566
X54.179 Y54.622
X53.910 Y54.622
G0 Z3.000
G0  X53.910 Y50.812
G0  Z3.000
G01 F400 Z0
G01 F400 Z-0.100
G01F400X53.646 Y50.756
X53.400 Y50.647
X53.182 Y50.488
X53.002 Y50.288
X52.867 Y50.054
X52.784 Y49.798
X52.756 Y49.530
X52.784 Y49.262
X52.867 Y49.006
X53.002 Y48.772
X53.182 Y48.572
X53.400 Y48.413
X53.646 Y48.304
X53.910 Y48.248
X54.179 Y48.248
X54.443 Y48.304
X54.689 Y48.413
X54.907 Y48.572
X55.088 Y48.772
X55.222 Y49.006
X55.306 Y49.262
X55.334 Y49.530
X55.306 Y49.798
X55.222 Y50.054
X55.088 Y50.288
X54.907 Y50.488
X54.689 Y50.647
X54.443 Y50.756
X54.179 Y50.812
X53.910 Y50.812
G0 Z3.000
G0  X46.290 Y50.812
G0  Z3.000
G01 F400 Z0
G01 F400 Z-0.100
G01F400X46.026 Y50.756
X45.780 Y50.647
X45.562 Y50.488
X45.382 Y50.288
X45.247 Y50.054
X45.164 Y49.798
X45.136 Y49.530
X45.164 Y49.262
X45.247 Y49.006
X45.382 Y48.772
X45.562 Y48.572
X45.780 Y48.413
X46.026 Y48.304
X46.290 Y48.248
X46.559 Y48.248
X46.823 Y48.304
X47.069 Y48.413
X47.287 Y48.572
X47.468 Y48.772
X47.602 Y49.006
X47.686 Y49.262
X47.714 Y49.530
X47.686 Y49.798
X47.602 Y50.054
X47.468 Y50.288
X47.287 Y50.488
X47.069 Y50.647
X46.823 Y50.756
X46.559 Y50.812
X46.290 Y50.812
G0 Z3.000
G0  X50.100 Y50.812
G0  Z3.000
G01 F400 Z0
G01 F400 Z-0.100
G01F400X49.836 Y50.756
X49.590 Y50.647
X49.372 Y50.488
X49.192 Y50.288
X49.057 Y50.054
X48.974 Y49.798
X48.946 Y49.530
X48.974 Y49.262
X49.057 Y49.006
X49.192 Y48.772
X49.372 Y48.572
X49.590 Y48.413
X49.836 Y48.304
X50.100 Y48.248
X50.369 Y48.248
X50.633 Y48.304
X50.879 Y48.413
X51.097 Y48.572
X51.278 Y48.772
X51.412 Y49.006
X51.496 Y49.262
X51.524 Y49.530
X51.496 Y49.798
X51.412 Y50.054
X51.278 Y50.288
X51.097 Y50.488
X50.879 Y50.647
X50.633 Y50.756
X50.369 Y50.812
X50.100 Y50.812
G0 Z3.000
G0  X46.290 Y47.002
G0  Z3.000
G01 F400 Z0
G01 F400 Z-0.100
G01F400X46.026 Y46.946
X45.780 Y46.837
X45.562 Y46.678
X45.382 Y46.478
X45.247 Y46.244
X45.164 Y45.988
X45.136 Y45.720
X45.164 Y45.452
X45.247 Y45.196
X45.382 Y44.962
X45.562 Y44.762
X45.780 Y44.604
X46.026 Y44.494
X46.290 Y44.438
X46.559 Y44.438
X46.823 Y44.494
X47.069 Y44.604
X47.287 Y44.762
X47.468 Y44.962
X47.602 Y45.196
X47.686 Y45.452
X47.714 Y45.720
X47.686 Y45.988
X47.602 Y46.244
X47.468 Y46.478
X47.287 Y46.678
X47.069 Y46.837
X46.823 Y46.946
X46.559 Y47.002
X46.290 Y47.002
G0 Z3.000
G0  X50.100 Y47.002
G0  Z3.000
G01 F400 Z0
G01 F400 Z-0.100
G01F400X49.836 Y46.946
X49.590 Y46.837
X49.372 Y46.678
X49.192 Y46.478
X49.057 Y46.244
X48.974 Y45.988
X48.946 Y45.720
X48.974 Y45.452
X49.057 Y45.196
X49.192 Y44.962
X49.372 Y44.762
X49.590 Y44.604
X49.836 Y44.494
X50.100 Y44.438
X50.369 Y44.438
X50.633 Y44.494
X50.879 Y44.604
X51.097 Y44.762
X51.278 Y44.962
X51.412 Y45.196
X51.496 Y45.452
X51.524 Y45.720
X51.496 Y45.988
X51.412 Y46.244
X51.278 Y46.478
X51.097 Y46.678
X50.879 Y46.837
X50.633 Y46.946
X50.369 Y47.002
X50.100 Y47.002
G0 Z3.000
G0  X53.910 Y47.002
G0  Z3.000
G01 F400 Z0
G01 F400 Z-0.100
G01F400X53.646 Y46.946
X53.400 Y46.837
X53.182 Y46.678
X53.002 Y46.478
X52.867 Y46.244
X52.784 Y45.988
X52.756 Y45.720
X52.784 Y45.452
X52.867 Y45.196
X53.002 Y44.962
X53.182 Y44.762
X53.400 Y44.604
X53.646 Y44.494
X53.910 Y44.438
X54.179 Y44.438
X54.443 Y44.494
X54.689 Y44.604
X54.907 Y44.762
X55.088 Y44.962
X55.222 Y45.196
X55.306 Y45.452
X55.334 Y45.720
X55.306 Y45.988
X55.222 Y46.244
X55.088 Y46.478
X54.907 Y46.678
X54.689 Y46.837
X54.443 Y46.946
X54.179 Y47.002
X53.910 Y47.002
G0 Z3.000
G0  X14.375 Y44.238
G0  Z3.000
G01 F400 Z0
G01 F400 Z-0.100
G01F400X14.384 Y44.152
X14.467 Y43.896
X14.602 Y43.662
X14.782 Y43.462
X15.000 Y43.303
X15.246 Y43.194
X15.453 Y43.150
X15.246 Y43.106
X15.000 Y42.997
X14.782 Y42.838
X14.602 Y42.638
X14.467 Y42.404
X14.384 Y42.148
X14.375 Y42.063
X14.366 Y42.148
X14.282 Y42.404
X14.148 Y42.638
X13.967 Y42.838
X13.749 Y42.997
X13.503 Y43.106
X13.296 Y43.150
X13.503 Y43.194
X13.749 Y43.303
X13.967 Y43.462
X14.148 Y43.662
X14.282 Y43.896
X14.366 Y44.152
X14.375 Y44.238
G0 Z3.000
G0  X16.915 Y44.238
G0  Z3.000
G01 F400 Z0
G01 F400 Z-0.100
G01F400X16.924 Y44.152
X17.007 Y43.896
X17.142 Y43.662
X17.322 Y43.462
X17.540 Y43.303
X17.786 Y43.194
X17.993 Y43.150
X17.786 Y43.106
X17.540 Y42.997
X17.322 Y42.838
X17.142 Y42.638
X17.007 Y42.404
X16.924 Y42.148
X16.915 Y42.063
X16.906 Y42.148
X16.822 Y42.404
X16.688 Y42.638
X16.507 Y42.838
X16.289 Y42.997
X16.043 Y43.106
X15.836 Y43.150
X16.043 Y43.194
X16.289 Y43.303
X16.507 Y43.462
X16.688 Y43.662
X16.822 Y43.896
X16.906 Y44.152
X16.915 Y44.238
G0 Z3.000
G0  X50.100 Y43.192
G0  Z3.000
G01 F400 Z0
G01 F400 Z-0.100
G01F400X49.836 Y43.136
X49.590 Y43.026
X49.372 Y42.868
X49.192 Y42.668
X49.057 Y42.434
X48.974 Y42.178
X48.946 Y41.910
X48.974 Y41.642
X49.057 Y41.386
X49.192 Y41.152
X49.372 Y40.952
X49.590 Y40.794
X49.836 Y40.684
X50.100 Y40.628
X50.369 Y40.628
X50.633 Y40.684
X50.879 Y40.794
X51.097 Y40.952
X51.278 Y41.152
X51.412 Y41.386
X51.496 Y41.642
X51.524 Y41.910
X51.496 Y42.178
X51.412 Y42.434
X51.278 Y42.668
X51.097 Y42.868
X50.879 Y43.026
X50.633 Y43.136
X50.369 Y43.192
X50.100 Y43.192
G0 Z3.000
G0  X53.910 Y43.192
G0  Z3.000
G01 F400 Z0
G01 F400 Z-0.100
G01F400X53.646 Y43.136
X53.400 Y43.026
X53.182 Y42.868
X53.002 Y42.668
X52.867 Y42.434
X52.784 Y42.178
X52.756 Y41.910
X52.784 Y41.642
X52.867 Y41.386
X53.002 Y41.152
X53.182 Y40.952
X53.400 Y40.794
X53.646 Y40.684
X53.910 Y40.628
X54.179 Y40.628
X54.443 Y40.684
X54.689 Y40.794
X54.907 Y40.952
X55.088 Y41.152
X55.222 Y41.386
X55.306 Y41.642
X55.334 Y41.910
X55.306 Y42.178
X55.222 Y42.434
X55.088 Y42.668
X54.907 Y42.868
X54.689 Y43.026
X54.443 Y43.136
X54.179 Y43.192
X53.910 Y43.192
G0 Z3.000
G0  X46.290 Y43.192
G0  Z3.000
G01 F400 Z0
G01 F400 Z-0.100
G01F400X46.026 Y43.136
X45.780 Y43.026
X45.562 Y42.868
X45.382 Y42.668
X45.247 Y42.434
X45.164 Y42.178
X45.136 Y41.910
X45.164 Y41.642
X45.247 Y41.386
X45.382 Y41.152
X45.562 Y40.952
X45.780 Y40.794
X46.026 Y40.684
X46.290 Y40.628
X46.559 Y40.628
X46.823 Y40.684
X47.069 Y40.794
X47.287 Y40.952
X47.468 Y41.152
X47.602 Y41.386
X47.686 Y41.642
X47.714 Y41.910
X47.686 Y42.178
X47.602 Y42.434
X47.468 Y42.668
X47.287 Y42.868
X47.069 Y43.026
X46.823 Y43.136
X46.559 Y43.192
X46.290 Y43.192
G0 Z3.000
G0  X19.455 Y41.698
G0  Z3.000
G01 F400 Z0
G01 F400 Z-0.100
G01F400X19.464 Y41.612
X19.547 Y41.356
X19.555 Y41.343
X18.572 Y40.360
X18.632 Y40.545
X18.632 Y40.676
X18.829 Y40.764
X19.047 Y40.922
X19.228 Y41.122
X19.362 Y41.356
X19.446 Y41.612
X19.455 Y41.698
G0 Z3.000
G0  X21.995 Y41.698
G0  Z3.000
G01 F400 Z0
G01 F400 Z-0.100
G01F400X22.004 Y41.612
X22.087 Y41.356
X22.095 Y41.342
X18.253 Y37.501
X18.214 Y37.447
X15.577 Y37.447
X15.444 Y37.433
X15.304 Y37.352
X7.253 Y29.301
X7.169 Y29.185
X7.137 Y29.037
X7.137 Y25.185
X5.253 Y23.301
X5.169 Y23.185
X5.137 Y23.037
X5.137 Y17.076
X5.032 Y17.181
X5.030 Y23.114
X4.930 Y23.288
X3.148 Y25.066
X3.148 Y27.000
X3.146 Y27.929
X3.769 Y28.553
X3.995 Y28.553
X3.808 Y28.417
X3.542 Y28.121
X3.342 Y27.776
X3.219 Y27.397
X3.177 Y27.000
X3.219 Y26.603
X3.342 Y26.224
X3.542 Y25.879
X3.808 Y25.583
X4.131 Y25.348
X4.495 Y25.186
X4.885 Y25.103
X5.284 Y25.103
X5.674 Y25.186
X6.038 Y25.348
X6.361 Y25.583
X6.628 Y25.879
X6.827 Y26.224
X6.950 Y26.603
X6.992 Y27.000
X6.950 Y27.397
X6.827 Y27.776
X6.628 Y28.121
X6.361 Y28.417
X6.038 Y28.652
X5.921 Y28.704
X14.769 Y37.553
X16.929 Y37.553
X17.112 Y37.635
X20.190 Y40.714
X20.326 Y40.654
X20.590 Y40.598
X20.859 Y40.598
X21.123 Y40.654
X21.369 Y40.764
X21.587 Y40.922
X21.768 Y41.122
X21.902 Y41.356
X21.986 Y41.612
X21.995 Y41.698
G0 Z3.000
G0  X24.535 Y41.698
G0  Z3.000
G01 F400 Z0
G01 F400 Z-0.100
G01F400X24.544 Y41.612
X24.627 Y41.356
X24.635 Y41.342
X19.739 Y36.447
X16.577 Y36.447
X16.444 Y36.433
X16.304 Y36.352
X8.175 Y28.223
X8.091 Y28.108
X8.060 Y27.959
X8.060 Y20.786
X7.261 Y21.257
X6.321 Y21.014
X6.031 Y20.521
X6.030 Y22.813
X7.970 Y24.755
X8.032 Y24.945
X8.030 Y28.813
X15.769 Y36.553
X18.650 Y36.553
X18.812 Y36.606
X18.967 Y36.745
X19.033 Y36.947
X19.032 Y37.015
X22.730 Y40.714
X22.866 Y40.654
X23.130 Y40.598
X23.399 Y40.598
X23.663 Y40.654
X23.909 Y40.764
X24.127 Y40.922
X24.308 Y41.122
X24.442 Y41.356
X24.526 Y41.612
X24.535 Y41.698
G0 Z3.000
G0  X27.075 Y41.698
G0  Z3.000
G01 F400 Z0
G01 F400 Z-0.100
G01F400X27.084 Y41.612
X27.167 Y41.356
X27.175 Y41.342
X21.279 Y35.447
X17.577 Y35.447
X17.444 Y35.433
X17.304 Y35.352
X9.253 Y27.301
X9.169 Y27.185
X9.137 Y27.037
X9.137 Y21.095
X8.954 Y21.048
X8.953 Y27.735
X16.769 Y35.553
X20.009 Y35.553
X20.192 Y35.635
X25.270 Y40.714
X25.406 Y40.654
X25.670 Y40.598
X25.939 Y40.598
X26.203 Y40.654
X26.449 Y40.764
X26.667 Y40.922
X26.848 Y41.122
X26.982 Y41.356
X27.066 Y41.612
X27.075 Y41.698
G0 Z3.000
G0  X16.842 Y38.630
G0  Z3.000
G01 F400 Z0
G01 F400 Z-0.100
G01F400X16.659 Y38.447
X14.577 Y38.447
X14.444 Y38.433
X14.304 Y38.352
X5.399 Y29.447
X3.577 Y29.447
X3.444 Y29.433
X3.304 Y29.352
X2.368 Y28.416
X2.284 Y28.301
X2.253 Y28.152
X2.253 Y27.000
X2.253 Y25.300
X2.169 Y25.185
X2.147 Y25.084
X2.146 Y28.813
X3.884 Y30.553
X5.669 Y30.553
X5.852 Y30.635
X13.769 Y38.553
X16.669 Y38.553
X16.842 Y38.630
G0 Z3.000
G0  X43.885 Y28.897
G0  Z3.000
G01 F400 Z0
G01 F400 Z-0.100
G01F400X43.495 Y28.814
X43.131 Y28.652
X42.808 Y28.417
X42.542 Y28.121
X42.342 Y27.776
X42.219 Y27.397
X42.177 Y27.000
X42.219 Y26.603
X42.342 Y26.224
X42.542 Y25.879
X42.808 Y25.583
X43.131 Y25.348
X43.495 Y25.186
X43.885 Y25.103
X44.284 Y25.103
X44.674 Y25.186
X45.038 Y25.348
X45.361 Y25.583
X45.628 Y25.879
X45.827 Y26.224
X45.950 Y26.603
X45.992 Y27.000
X45.950 Y27.397
X45.827 Y27.776
X45.628 Y28.121
X45.361 Y28.417
X45.038 Y28.652
X44.674 Y28.814
X44.284 Y28.897
X43.885 Y28.897
G0 Z3.000
G0  X52.885 Y28.897
G0  Z3.000
G01 F400 Z0
G01 F400 Z-0.100
G01F400X52.495 Y28.814
X52.131 Y28.652
X51.808 Y28.417
X51.542 Y28.121
X51.342 Y27.776
X51.219 Y27.397
X51.177 Y27.000
X51.219 Y26.603
X51.342 Y26.224
X51.542 Y25.879
X51.808 Y25.583
X52.131 Y25.348
X52.495 Y25.186
X52.885 Y25.103
X53.284 Y25.103
X53.674 Y25.186
X54.038 Y25.348
X54.361 Y25.583
X54.628 Y25.879
X54.827 Y26.224
X54.950 Y26.603
X54.992 Y27.000
X54.950 Y27.397
X54.827 Y27.776
X54.628 Y28.121
X54.361 Y28.417
X54.038 Y28.652
X53.674 Y28.814
X53.284 Y28.897
X52.885 Y28.897
G0 Z3.000
G0  X39.885 Y28.897
G0  Z3.000
G01 F400 Z0
G01 F400 Z-0.100
G01F400X39.495 Y28.814
X39.131 Y28.652
X38.808 Y28.417
X38.542 Y28.121
X38.342 Y27.776
X38.219 Y27.397
X38.177 Y27.000
X38.219 Y26.603
X38.342 Y26.224
X38.542 Y25.879
X38.808 Y25.583
X39.131 Y25.348
X39.495 Y25.186
X39.885 Y25.103
X40.284 Y25.103
X40.674 Y25.186
X41.038 Y25.348
X41.361 Y25.583
X41.628 Y25.879
X41.827 Y26.224
X41.950 Y26.603
X41.992 Y27.000
X41.950 Y27.397
X41.827 Y27.776
X41.628 Y28.121
X41.361 Y28.417
X41.038 Y28.652
X40.674 Y28.814
X40.284 Y28.897
X39.885 Y28.897
G0 Z3.000
G0  X30.885 Y28.897
G0  Z3.000
G01 F400 Z0
G01 F400 Z-0.100
G01F400X30.495 Y28.814
X30.131 Y28.652
X29.808 Y28.417
X29.542 Y28.121
X29.342 Y27.776
X29.219 Y27.397
X29.177 Y27.000
X29.219 Y26.603
X29.342 Y26.224
X29.542 Y25.879
X29.808 Y25.583
X30.131 Y25.348
X30.495 Y25.186
X30.885 Y25.103
X31.284 Y25.103
X31.674 Y25.186
X32.038 Y25.348
X32.361 Y25.583
X32.628 Y25.879
X32.827 Y26.224
X32.950 Y26.603
X32.992 Y27.000
X32.950 Y27.397
X32.827 Y27.776
X32.628 Y28.121
X32.361 Y28.417
X32.038 Y28.652
X31.674 Y28.814
X31.284 Y28.897
X30.885 Y28.897
G0 Z3.000
G0  X13.885 Y28.897
G0  Z3.000
G01 F400 Z0
G01 F400 Z-0.100
G01F400X13.495 Y28.814
X13.131 Y28.652
X12.808 Y28.417
X12.542 Y28.121
X12.342 Y27.776
X12.219 Y27.397
X12.177 Y27.000
X12.219 Y26.603
X12.342 Y26.224
X12.542 Y25.879
X12.808 Y25.583
X13.131 Y25.348
X13.495 Y25.186
X13.885 Y25.103
X14.284 Y25.103
X14.674 Y25.186
X15.038 Y25.348
X15.361 Y25.583
X15.628 Y25.879
X15.827 Y26.224
X15.950 Y26.603
X15.992 Y27.000
X15.950 Y27.397
X15.827 Y27.776
X15.628 Y28.121
X15.361 Y28.417
X15.038 Y28.652
X14.674 Y28.814
X14.284 Y28.897
X13.885 Y28.897
G0 Z3.000
G0  X17.885 Y28.897
G0  Z3.000
G01 F400 Z0
G01 F400 Z-0.100
G01F400X17.495 Y28.814
X17.131 Y28.652
X16.808 Y28.417
X16.542 Y28.121
X16.342 Y27.776
X16.219 Y27.397
X16.177 Y27.000
X16.219 Y26.603
X16.342 Y26.224
X16.542 Y25.879
X16.808 Y25.583
X17.131 Y25.348
X17.495 Y25.186
X17.885 Y25.103
X18.284 Y25.103
X18.674 Y25.186
X19.038 Y25.348
X19.361 Y25.583
X19.628 Y25.879
X19.827 Y26.224
X19.950 Y26.603
X19.992 Y27.000
X19.950 Y27.397
X19.827 Y27.776
X19.628 Y28.121
X19.361 Y28.417
X19.038 Y28.652
X18.674 Y28.814
X18.284 Y28.897
X17.885 Y28.897
G0 Z3.000
G0  X26.885 Y28.897
G0  Z3.000
G01 F400 Z0
G01 F400 Z-0.100
G01F400X26.495 Y28.814
X26.131 Y28.652
X25.808 Y28.417
X25.542 Y28.121
X25.342 Y27.776
X25.219 Y27.397
X25.177 Y27.000
X25.219 Y26.603
X25.342 Y26.224
X25.542 Y25.879
X25.808 Y25.583
X26.131 Y25.348
X26.495 Y25.186
X26.885 Y25.103
X27.284 Y25.103
X27.674 Y25.186
X28.038 Y25.348
X28.361 Y25.583
X28.628 Y25.879
X28.827 Y26.224
X28.950 Y26.603
X28.992 Y27.000
X28.950 Y27.397
X28.827 Y27.776
X28.628 Y28.121
X28.361 Y28.417
X28.038 Y28.652
X27.674 Y28.814
X27.284 Y28.897
X26.885 Y28.897
G0 Z3.000
G0  X33.261 Y21.257
G0  Z3.000
G01 F400 Z0
G01 F400 Z-0.100
G01F400X32.321 Y21.014
X31.828 Y20.177
X32.071 Y19.236
X32.908 Y18.743
X33.848 Y18.986
X34.341 Y19.823
X34.098 Y20.764
X33.261 Y21.257
G0 Z3.000
G0  X46.261 Y21.257
G0  Z3.000
G01 F400 Z0
G01 F400 Z-0.100
G01F400X45.321 Y21.014
X44.828 Y20.177
X45.071 Y19.236
X45.908 Y18.743
X46.848 Y18.986
X47.341 Y19.823
X47.098 Y20.764
X46.261 Y21.257
G0 Z3.000
G0  X20.261 Y21.257
G0  Z3.000
G01 F400 Z0
G01 F400 Z-0.100
G01F400X19.321 Y21.014
X18.828 Y20.177
X19.071 Y19.236
X19.908 Y18.743
X20.848 Y18.986
X21.341 Y19.823
X21.098 Y20.764
X20.261 Y21.257
G0 Z3.000
G0  X36.912 Y21.172
G0  Z3.000
G01 F400 Z0
G01 F400 Z-0.100
G01F400X36.912 Y18.828
X39.257 Y18.828
X39.257 Y21.172
X36.912 Y21.172
G0 Z3.000
G0  X23.912 Y21.172
G0  Z3.000
G01 F400 Z0
G01 F400 Z-0.100
G01F400X23.912 Y18.828
X26.257 Y18.828
X26.257 Y21.172
X23.912 Y21.172
G0 Z3.000
G0  X49.912 Y21.172
G0  Z3.000
G01 F400 Z0
G01 F400 Z-0.100
G01F400X49.912 Y18.828
X52.257 Y18.828
X52.257 Y21.172
X49.912 Y21.172
G0 Z3.000
G0  X10.912 Y21.172
G0  Z3.000
G01 F400 Z0
G01 F400 Z-0.100
G01F400X10.912 Y18.828
X13.257 Y18.828
X13.257 Y21.172
X10.912 Y21.172
G0 Z3.000
G0  X43.885 Y13.897
G0  Z3.000
G01 F400 Z0
G01 F400 Z-0.100
G01F400X43.495 Y13.814
X43.131 Y13.652
X42.808 Y13.417
X42.542 Y13.121
X42.342 Y12.776
X42.219 Y12.397
X42.177 Y12.000
X42.219 Y11.603
X42.342 Y11.224
X42.542 Y10.879
X42.808 Y10.583
X43.131 Y10.348
X43.495 Y10.186
X43.885 Y10.103
X44.284 Y10.103
X44.674 Y10.186
X45.038 Y10.348
X45.361 Y10.583
X45.628 Y10.879
X45.827 Y11.224
X45.950 Y11.603
X45.992 Y12.000
X45.950 Y12.397
X45.827 Y12.776
X45.628 Y13.121
X45.361 Y13.417
X45.038 Y13.652
X44.674 Y13.814
X44.284 Y13.897
X43.885 Y13.897
G0 Z3.000
G0  X52.885 Y13.897
G0  Z3.000
G01 F400 Z0
G01 F400 Z-0.100
G01F400X52.495 Y13.814
X52.131 Y13.652
X51.808 Y13.417
X51.542 Y13.121
X51.342 Y12.776
X51.219 Y12.397
X51.177 Y12.000
X51.219 Y11.603
X51.342 Y11.224
X51.542 Y10.879
X51.808 Y10.583
X52.131 Y10.348
X52.495 Y10.186
X52.885 Y10.103
X53.284 Y10.103
X53.674 Y10.186
X54.038 Y10.348
X54.361 Y10.583
X54.628 Y10.879
X54.827 Y11.224
X54.950 Y11.603
X54.992 Y12.000
X54.950 Y12.397
X54.827 Y12.776
X54.628 Y13.121
X54.361 Y13.417
X54.038 Y13.652
X53.674 Y13.814
X53.284 Y13.897
X52.885 Y13.897
G0 Z3.000
G0  X39.885 Y13.897
G0  Z3.000
G01 F400 Z0
G01 F400 Z-0.100
G01F400X39.495 Y13.814
X39.131 Y13.652
X38.808 Y13.417
X38.542 Y13.121
X38.342 Y12.776
X38.219 Y12.397
X38.177 Y12.000
X38.219 Y11.603
X38.342 Y11.224
X38.542 Y10.879
X38.808 Y10.583
X39.131 Y10.348
X39.495 Y10.186
X39.885 Y10.103
X40.284 Y10.103
X40.674 Y10.186
X41.038 Y10.348
X41.361 Y10.583
X41.628 Y10.879
X41.827 Y11.224
X41.950 Y11.603
X41.992 Y12.000
X41.950 Y12.397
X41.827 Y12.776
X41.628 Y13.121
X41.361 Y13.417
X41.038 Y13.652
X40.674 Y13.814
X40.284 Y13.897
X39.885 Y13.897
G0 Z3.000
G0  X30.885 Y13.897
G0  Z3.000
G01 F400 Z0
G01 F400 Z-0.100
G01F400X30.495 Y13.814
X30.131 Y13.652
X29.808 Y13.417
X29.542 Y13.121
X29.342 Y12.776
X29.219 Y12.397
X29.177 Y12.000
X29.219 Y11.603
X29.342 Y11.224
X29.542 Y10.879
X29.808 Y10.583
X30.131 Y10.348
X30.495 Y10.186
X30.885 Y10.103
X31.284 Y10.103
X31.674 Y10.186
X32.038 Y10.348
X32.361 Y10.583
X32.628 Y10.879
X32.827 Y11.224
X32.950 Y11.603
X32.992 Y12.000
X32.950 Y12.397
X32.827 Y12.776
X32.628 Y13.121
X32.361 Y13.417
X32.038 Y13.652
X31.674 Y13.814
X31.284 Y13.897
X30.885 Y13.897
G0 Z3.000
G0  X26.885 Y13.897
G0  Z3.000
G01 F400 Z0
G01 F400 Z-0.100
G01F400X26.495 Y13.814
X26.131 Y13.652
X25.808 Y13.417
X25.542 Y13.121
X25.342 Y12.776
X25.219 Y12.397
X25.177 Y12.000
X25.219 Y11.603
X25.342 Y11.224
X25.542 Y10.879
X25.808 Y10.583
X26.131 Y10.348
X26.495 Y10.186
X26.885 Y10.103
X27.284 Y10.103
X27.674 Y10.186
X28.038 Y10.348
X28.361 Y10.583
X28.628 Y10.879
X28.827 Y11.224
X28.950 Y11.603
X28.992 Y12.000
X28.950 Y12.397
X28.827 Y12.776
X28.628 Y13.121
X28.361 Y13.417
X28.038 Y13.652
X27.674 Y13.814
X27.284 Y13.897
X26.885 Y13.897
G0 Z3.000
G0  X46.261 Y6.257
G0  Z3.000
G01 F400 Z0
G01 F400 Z-0.100
G01F400X45.321 Y6.014
X44.828 Y5.177
X45.071 Y4.236
X45.908 Y3.743
X46.848 Y3.987
X47.341 Y4.823
X47.098 Y5.764
X46.261 Y6.257
G0 Z3.000
G0  X7.261 Y6.257
G0  Z3.000
G01 F400 Z0
G01 F400 Z-0.100
G01F400X6.321 Y6.014
X5.828 Y5.177
X6.071 Y4.236
X6.908 Y3.743
X7.848 Y3.987
X8.341 Y4.823
X8.098 Y5.764
X7.261 Y6.257
G0 Z3.000
G0  X33.261 Y6.257
G0  Z3.000
G01 F400 Z0
G01 F400 Z-0.100
G01F400X32.321 Y6.014
X31.828 Y5.177
X32.071 Y4.236
X32.908 Y3.743
X33.848 Y3.987
X34.341 Y4.823
X34.098 Y5.764
X33.261 Y6.257
G0 Z3.000
G0  X20.261 Y6.257
G0  Z3.000
G01 F400 Z0
G01 F400 Z-0.100
G01F400X19.321 Y6.014
X18.828 Y5.177
X19.071 Y4.236
X19.908 Y3.743
X20.848 Y3.987
X21.341 Y4.823
X21.098 Y5.764
X20.261 Y6.257
G0 Z3.000
G0  X49.912 Y6.173
G0  Z3.000
G01 F400 Z0
G01 F400 Z-0.100
G01F400X49.912 Y3.828
X52.257 Y3.828
X52.257 Y6.173
X49.912 Y6.173
G0 Z3.000
G0  X36.912 Y6.173
G0  Z3.000
G01 F400 Z0
G01 F400 Z-0.100
G01F400X36.912 Y3.828
X39.257 Y3.828
X39.257 Y6.173
X36.912 Y6.173
G0 Z3.000
G0  X10.912 Y6.173
G0  Z3.000
G01 F400 Z0
G01 F400 Z-0.100
G01F400X10.912 Y3.828
X13.257 Y3.828
X13.257 Y6.173
X10.912 Y6.173
G0 Z3.000
G0  X23.912 Y6.173
G0  Z3.000
G01 F400 Z0
G01 F400 Z-0.100
G01F400X23.912 Y3.828
X26.257 Y3.828
X26.257 Y6.173
X23.912 Y6.173
G0 Z3.000
G0  X28.207 Y61.780
G0  Z3.000
G01 F400 Z0
G01 F400 Z-0.100
G01F400X27.898 Y61.714
X27.608 Y61.585
X27.352 Y61.399
X27.141 Y61.164
X27.086 Y61.069
X27.075 Y61.088
X26.864 Y61.323
X26.608 Y61.509
X26.319 Y61.638
X26.009 Y61.704
X25.693 Y61.704
X25.383 Y61.638
X25.094 Y61.509
X24.838 Y61.323
X24.626 Y61.088
X24.533 Y60.927
X24.485 Y61.012
X24.273 Y61.247
X24.017 Y61.433
X23.728 Y61.562
X23.418 Y61.627
X23.102 Y61.627
