( Generated by Carbide Copper )
( Material Size )
( X= 58.000, Y= 63.000, Z= 1.580 )
()
G17
G21
G54
G90
M05
(  )
T501 M06
( Contour )
M03 S10000
G0  X26.370 Y61.333
G0  Z3.000
G01 F400 Z0
G01 F400 Z-0.100
G01F400X26.152 Y61.287
X25.949 Y61.196
X25.768 Y61.065
X25.620 Y60.900
X25.508 Y60.707
X25.440 Y60.495
X25.416 Y60.274
X25.440 Y60.053
X25.508 Y59.841
X25.620 Y59.649
X25.768 Y59.483
X25.949 Y59.352
X26.152 Y59.262
X26.370 Y59.216
X26.592 Y59.216
X26.810 Y59.262
X27.013 Y59.352
X27.193 Y59.483
X27.342 Y59.649
X27.453 Y59.841
X27.522 Y60.053
X27.545 Y60.274
X27.522 Y60.495
X27.453 Y60.707
X27.342 Y60.900
X27.193 Y61.065
X27.013 Y61.196
X26.810 Y61.287
X26.592 Y61.333
X26.370 Y61.333
G0 Z3.000
G0  X23.855 Y61.257
G0  Z3.000
G01 F400 Z0
G01 F400 Z-0.100
G01F400X23.637 Y61.211
X23.434 Y61.120
X23.254 Y60.989
X23.105 Y60.824
X22.994 Y60.631
X22.925 Y60.419
X22.902 Y60.198
X22.925 Y59.977
X22.994 Y59.765
X23.105 Y59.572
X23.254 Y59.407
X23.434 Y59.276
X23.637 Y59.186
X23.855 Y59.139
X24.078 Y59.139
X24.295 Y59.186
X24.498 Y59.276
X24.678 Y59.407
X24.828 Y59.572
X24.939 Y59.765
X25.008 Y59.977
X25.031 Y60.198
X25.008 Y60.419
X24.939 Y60.631
X24.828 Y60.824
X24.678 Y60.989
X24.498 Y61.120
X24.295 Y61.211
X24.078 Y61.257
X23.855 Y61.257
G0 Z3.000
G0  X29.062 Y61.257
G0  Z3.000
G01 F400 Z0
G01 F400 Z-0.100
G01F400X28.844 Y61.211
X28.641 Y61.120
X28.461 Y60.989
X28.312 Y60.824
X28.201 Y60.631
X28.132 Y60.419
X28.109 Y60.198
X28.132 Y59.977
X28.201 Y59.765
X28.312 Y59.572
X28.461 Y59.407
X28.641 Y59.276
X28.844 Y59.186
X29.062 Y59.139
X29.285 Y59.139
X29.502 Y59.186
X29.706 Y59.276
X29.886 Y59.407
X30.035 Y59.572
X30.146 Y59.765
X30.215 Y59.977
X30.238 Y60.198
X30.215 Y60.419
X30.146 Y60.631
X30.035 Y60.824
X29.886 Y60.989
X29.706 Y61.120
X29.502 Y61.211
X29.285 Y61.257
X29.062 Y61.257
G0 Z3.000
G0  X16.082 Y61.181
G0  Z3.000
G01 F400 Z0
G01 F400 Z-0.100
G01F400X15.865 Y61.134
X15.662 Y61.044
X15.482 Y60.913
X15.333 Y60.748
X15.221 Y60.555
X15.152 Y60.343
X15.129 Y60.122
X15.152 Y59.901
X15.221 Y59.689
X15.333 Y59.496
X15.482 Y59.331
X15.662 Y59.200
X15.865 Y59.109
X16.082 Y59.063
X16.305 Y59.063
X16.523 Y59.109
X16.726 Y59.200
X16.906 Y59.331
X17.055 Y59.496
X17.166 Y59.689
X17.235 Y59.901
X17.258 Y60.122
X17.235 Y60.343
X17.166 Y60.555
X17.055 Y60.748
X16.906 Y60.913
X16.726 Y61.044
X16.523 Y61.134
X16.305 Y61.181
X16.082 Y61.181
G0 Z3.000
G0  X13.492 Y61.181
G0  Z3.000
G01 F400 Z0
G01 F400 Z-0.100
G01F400X13.274 Y61.134
X13.071 Y61.044
X12.891 Y60.913
X12.742 Y60.748
X12.631 Y60.555
X12.562 Y60.343
X12.538 Y60.122
X12.562 Y59.901
X12.631 Y59.689
X12.742 Y59.496
X12.891 Y59.331
X13.071 Y59.200
X13.274 Y59.109
X13.492 Y59.063
X13.714 Y59.063
X13.932 Y59.109
X14.135 Y59.200
X14.315 Y59.331
X14.464 Y59.496
X14.575 Y59.689
X14.644 Y59.901
X14.668 Y60.122
X14.644 Y60.343
X14.575 Y60.555
X14.464 Y60.748
X14.315 Y60.913
X14.135 Y61.044
X13.932 Y61.134
X13.714 Y61.181
X13.492 Y61.181
G0 Z3.000
G0  X21.264 Y61.181
G0  Z3.000
G01 F400 Z0
G01 F400 Z-0.100
G01F400X21.046 Y61.134
X20.843 Y61.044
X20.663 Y60.913
X20.514 Y60.748
X20.403 Y60.555
X20.334 Y60.343
X20.311 Y60.122
X20.334 Y59.901
X20.403 Y59.689
X20.514 Y59.496
X20.663 Y59.331
X20.843 Y59.200
X21.046 Y59.109
X21.264 Y59.063
X21.487 Y59.063
X21.704 Y59.109
X21.908 Y59.200
X22.088 Y59.331
X22.237 Y59.496
X22.348 Y59.689
X22.417 Y59.901
X22.440 Y60.122
X22.417 Y60.343
X22.348 Y60.555
X22.237 Y60.748
X22.088 Y60.913
X21.908 Y61.044
X21.704 Y61.134
X21.487 Y61.181
X21.264 Y61.181
G0 Z3.000
G0  X18.673 Y61.181
G0  Z3.000
G01 F400 Z0
G01 F400 Z-0.100
G01F400X18.456 Y61.134
X18.252 Y61.044
X18.072 Y60.913
X17.923 Y60.748
X17.812 Y60.555
X17.743 Y60.343
X17.720 Y60.122
X17.743 Y59.901
X17.812 Y59.689
X17.923 Y59.496
X18.072 Y59.331
X18.252 Y59.200
X18.456 Y59.109
X18.673 Y59.063
X18.896 Y59.063
X19.114 Y59.109
X19.317 Y59.200
X19.497 Y59.331
X19.646 Y59.496
X19.757 Y59.689
X19.826 Y59.901
X19.849 Y60.122
X19.826 Y60.343
X19.757 Y60.555
X19.646 Y60.748
X19.497 Y60.913
X19.317 Y61.044
X19.114 Y61.134
X18.896 Y61.181
X18.673 Y61.181
G0 Z3.000
G0  X5.719 Y61.181
G0  Z3.000
G01 F400 Z0
G01 F400 Z-0.100
G01F400X5.502 Y61.134
X5.298 Y61.044
X5.118 Y60.913
X4.969 Y60.748
X4.858 Y60.555
X4.789 Y60.343
X4.766 Y60.122
X4.789 Y59.901
X4.858 Y59.689
X4.969 Y59.496
X5.118 Y59.331
X5.298 Y59.200
X5.502 Y59.109
X5.719 Y59.063
X5.942 Y59.063
X6.160 Y59.109
X6.363 Y59.200
X6.543 Y59.331
X6.692 Y59.496
X6.803 Y59.689
X6.872 Y59.901
X6.895 Y60.122
X6.872 Y60.343
X6.803 Y60.555
X6.692 Y60.748
X6.543 Y60.913
X6.363 Y61.044
X6.160 Y61.134
X5.942 Y61.181
X5.719 Y61.181
G0 Z3.000
G0  X10.901 Y61.181
G0  Z3.000
G01 F400 Z0
G01 F400 Z-0.100
G01F400X10.683 Y61.134
X10.480 Y61.044
X10.300 Y60.913
X10.151 Y60.748
X10.040 Y60.555
X9.971 Y60.343
X9.948 Y60.122
X9.971 Y59.901
X10.040 Y59.689
X10.151 Y59.496
X10.300 Y59.331
X10.480 Y59.200
X10.683 Y59.109
X10.901 Y59.063
X11.123 Y59.063
X11.341 Y59.109
X11.545 Y59.200
X11.725 Y59.331
X11.873 Y59.496
X11.985 Y59.689
X12.054 Y59.901
X12.077 Y60.122
X12.054 Y60.343
X11.985 Y60.555
X11.873 Y60.748
X11.725 Y60.913
X11.545 Y61.044
X11.341 Y61.134
X11.123 Y61.181
X10.901 Y61.181
G0 Z3.000
G0  X8.310 Y61.181
G0  Z3.000
G01 F400 Z0
G01 F400 Z-0.100
G01F400X8.092 Y61.134
X7.889 Y61.044
X7.709 Y60.913
X7.560 Y60.748
X7.449 Y60.555
X7.380 Y60.343
X7.357 Y60.122
X7.380 Y59.901
X7.449 Y59.689
X7.560 Y59.496
X7.709 Y59.331
X7.889 Y59.200
X8.092 Y59.109
X8.310 Y59.063
X8.533 Y59.063
X8.750 Y59.109
X8.954 Y59.200
X9.134 Y59.331
X9.283 Y59.496
X9.394 Y59.689
X9.463 Y59.901
X9.486 Y60.122
X9.463 Y60.343
X9.394 Y60.555
X9.283 Y60.748
X9.134 Y60.913
X8.954 Y61.044
X8.750 Y61.134
X8.533 Y61.181
X8.310 Y61.181
G0 Z3.000
G0  X2.150 Y58.669
G0  Z3.000
G01 F400 Z0
G01 F400 Z-0.100
G01F400X2.075 Y58.661
X2.002 Y58.619
X1.539 Y58.155
X1.493 Y58.092
X1.476 Y58.013
X1.476 Y55.987
X1.493 Y55.908
X1.539 Y55.845
X8.476 Y48.908
X8.458 Y42.915
X8.351 Y42.893
X8.148 Y42.802
X7.968 Y42.671
X7.819 Y42.506
X7.708 Y42.313
X7.639 Y42.101
X7.616 Y41.880
X7.639 Y41.659
X7.708 Y41.447
X7.819 Y41.254
X7.968 Y41.089
X8.148 Y40.958
X8.351 Y40.867
X8.569 Y40.821
X8.792 Y40.821
X9.009 Y40.867
X9.213 Y40.958
X9.393 Y41.089
X9.542 Y41.254
X9.653 Y41.447
X9.722 Y41.659
X9.745 Y41.880
X9.722 Y42.101
X9.653 Y42.313
X9.542 Y42.506
X9.393 Y42.671
X9.213 Y42.802
X9.009 Y42.893
X8.924 Y42.911
X8.922 Y49.054
X8.866 Y49.151
X1.924 Y56.088
X1.922 Y57.906
X2.238 Y58.222
X38.376 Y58.222
X40.760 Y55.838
X40.760 Y35.338
X40.777 Y35.259
X40.823 Y35.196
X48.976 Y27.043
X48.976 Y20.949
X48.251 Y20.949
X48.251 Y19.051
X48.976 Y19.051
X48.976 Y18.224
X36.924 Y18.224
X36.923 Y19.051
X37.149 Y19.051
X37.149 Y20.949
X35.251 Y20.949
X35.251 Y19.051
X36.476 Y19.051
X36.476 Y18.224
X22.924 Y18.224
X22.923 Y19.051
X24.149 Y19.051
X24.149 Y20.949
X22.251 Y20.949
X22.251 Y19.051
X22.476 Y19.051
X22.476 Y18.224
X11.793 Y18.224
X10.963 Y19.051
X11.149 Y19.051
X11.149 Y20.949
X9.251 Y20.949
X9.251 Y19.051
X10.333 Y19.051
X11.562 Y17.822
X11.663 Y17.777
X48.976 Y17.777
X48.976 Y5.949
X48.251 Y5.949
X48.251 Y4.368
X47.107 Y3.224
X36.946 Y3.219
X36.946 Y3.224
X36.724 Y3.224
X36.424 Y3.582
X36.424 Y4.051
X37.149 Y4.051
X37.149 Y5.949
X35.251 Y5.949
X35.251 Y4.051
X35.976 Y4.051
X35.976 Y3.487
X35.993 Y3.408
X36.039 Y3.345
X36.160 Y3.224
X23.239 Y3.224
X23.390 Y3.375
X23.424 Y3.480
X23.424 Y4.051
X24.149 Y4.051
X24.149 Y5.949
X22.251 Y5.949
X22.251 Y4.051
X22.976 Y4.051
X22.976 Y3.593
X22.607 Y3.224
X12.222 Y3.219
X11.149 Y4.333
X11.149 Y5.949
X9.251 Y5.949
X9.251 Y4.051
X10.833 Y4.051
X12.057 Y2.826
X12.130 Y2.784
X12.204 Y2.776
X47.237 Y2.776
X47.339 Y2.822
X48.567 Y4.051
X50.149 Y4.051
X50.149 Y5.949
X49.424 Y5.949
X49.424 Y19.051
X50.149 Y19.051
X50.149 Y20.949
X49.424 Y20.949
X49.422 Y27.189
X49.366 Y27.286
X41.208 Y35.439
X41.206 Y55.985
X41.150 Y56.081
X38.636 Y58.594
X38.583 Y58.642
X38.500 Y58.669
X2.150 Y58.669
G0 Z3.000
G0  X48.239 Y58.209
G0  Z3.000
G01 F400 Z0
G01 F400 Z-0.100
G01F400X48.021 Y58.163
X47.818 Y58.072
X47.638 Y57.941
X47.489 Y57.776
X47.378 Y57.583
X47.309 Y57.371
X47.286 Y57.150
X47.309 Y56.929
X47.378 Y56.717
X47.489 Y56.524
X47.638 Y56.359
X47.818 Y56.228
X48.021 Y56.138
X48.239 Y56.091
X48.462 Y56.091
X48.679 Y56.138
X48.883 Y56.228
X49.063 Y56.359
X49.212 Y56.524
X49.323 Y56.717
X49.392 Y56.929
X49.415 Y57.150
X49.392 Y57.371
X49.323 Y57.583
X49.212 Y57.776
X49.063 Y57.941
X48.883 Y58.072
X48.679 Y58.163
X48.462 Y58.209
X48.239 Y58.209
G0 Z3.000
G0  X44.429 Y58.209
G0  Z3.000
G01 F400 Z0
G01 F400 Z-0.100
G01F400X44.211 Y58.163
X44.008 Y58.072
X43.828 Y57.941
X43.679 Y57.776
X43.568 Y57.583
X43.499 Y57.371
X43.476 Y57.150
X43.499 Y56.929
X43.568 Y56.717
X43.679 Y56.524
X43.828 Y56.359
X44.008 Y56.228
X44.211 Y56.138
X44.429 Y56.091
X44.651 Y56.091
X44.869 Y56.138
X45.073 Y56.228
X45.253 Y56.359
X45.401 Y56.524
X45.513 Y56.717
X45.582 Y56.929
X45.605 Y57.150
X45.582 Y57.371
X45.513 Y57.583
X45.401 Y57.776
X45.253 Y57.941
X45.073 Y58.072
X44.869 Y58.163
X44.651 Y58.209
X44.429 Y58.209
G0 Z3.000
G0  X52.049 Y58.209
G0  Z3.000
G01 F400 Z0
G01 F400 Z-0.100
G01F400X51.831 Y58.163
X51.628 Y58.072
X51.448 Y57.941
X51.299 Y57.776
X51.188 Y57.583
X51.119 Y57.371
X51.096 Y57.150
X51.119 Y56.929
X51.188 Y56.717
X51.299 Y56.524
X51.448 Y56.359
X51.628 Y56.228
X51.831 Y56.138
X52.049 Y56.091
X52.272 Y56.091
X52.489 Y56.138
X52.693 Y56.228
X52.873 Y56.359
X53.022 Y56.524
X53.133 Y56.717
X53.202 Y56.929
X53.225 Y57.150
X53.202 Y57.371
X53.133 Y57.583
X53.022 Y57.776
X52.873 Y57.941
X52.693 Y58.072
X52.489 Y58.163
X52.272 Y58.209
X52.049 Y58.209
G0 Z3.000
G0  X18.729 Y58.179
G0  Z3.000
G01 F400 Z0
G01 F400 Z-0.100
G01F400X18.511 Y58.133
X18.308 Y58.042
X18.128 Y57.911
X17.979 Y57.746
X17.868 Y57.553
X17.799 Y57.341
X17.776 Y57.120
X17.799 Y56.899
X17.868 Y56.687
X17.979 Y56.494
X18.128 Y56.329
X18.308 Y56.198
X18.511 Y56.108
X18.729 Y56.061
X18.951 Y56.061
X19.169 Y56.108
X19.373 Y56.198
X19.553 Y56.329
X19.701 Y56.494
X19.813 Y56.687
X19.882 Y56.899
X19.905 Y57.120
X19.882 Y57.341
X19.813 Y57.553
X19.701 Y57.746
X19.553 Y57.911
X19.373 Y58.042
X19.169 Y58.133
X18.951 Y58.179
X18.729 Y58.179
G0 Z3.000
G0  X21.269 Y58.179
G0  Z3.000
G01 F400 Z0
G01 F400 Z-0.100
G01F400X21.051 Y58.133
X20.848 Y58.042
X20.668 Y57.911
X20.519 Y57.746
X20.408 Y57.553
X20.339 Y57.341
X20.316 Y57.120
X20.339 Y56.899
X20.408 Y56.687
X20.519 Y56.494
X20.668 Y56.329
X20.848 Y56.198
X21.051 Y56.108
X21.269 Y56.061
X21.492 Y56.061
X21.709 Y56.108
X21.913 Y56.198
X22.093 Y56.329
X22.242 Y56.494
X22.353 Y56.687
X22.422 Y56.899
X22.445 Y57.120
X22.422 Y57.341
X22.353 Y57.553
X22.242 Y57.746
X22.093 Y57.911
X21.913 Y58.042
X21.709 Y58.133
X21.492 Y58.179
X21.269 Y58.179
G0 Z3.000
G0  X13.649 Y58.179
G0  Z3.000
G01 F400 Z0
G01 F400 Z-0.100
G01F400X13.431 Y58.133
X13.228 Y58.042
X13.048 Y57.911
X12.899 Y57.746
X12.788 Y57.553
X12.719 Y57.341
X12.696 Y57.120
X12.719 Y56.899
X12.788 Y56.687
X12.899 Y56.494
X13.048 Y56.329
X13.228 Y56.198
X13.431 Y56.108
X13.649 Y56.061
X13.872 Y56.061
X14.089 Y56.108
X14.293 Y56.198
X14.473 Y56.329
X14.622 Y56.494
X14.733 Y56.687
X14.802 Y56.899
X14.825 Y57.120
X14.802 Y57.341
X14.733 Y57.553
X14.622 Y57.746
X14.473 Y57.911
X14.293 Y58.042
X14.089 Y58.133
X13.872 Y58.179
X13.649 Y58.179
G0 Z3.000
G0  X16.189 Y58.179
G0  Z3.000
G01 F400 Z0
G01 F400 Z-0.100
G01F400X15.971 Y58.133
X15.768 Y58.042
X15.588 Y57.911
X15.439 Y57.746
X15.328 Y57.553
X15.259 Y57.341
X15.236 Y57.120
X15.259 Y56.899
X15.328 Y56.687
X15.439 Y56.494
X15.588 Y56.329
X15.768 Y56.198
X15.971 Y56.108
X16.189 Y56.061
X16.412 Y56.061
X16.629 Y56.108
X16.832 Y56.198
X17.012 Y56.329
X17.162 Y56.494
X17.273 Y56.687
X17.341 Y56.899
X17.365 Y57.120
X17.341 Y57.341
X17.273 Y57.553
X17.162 Y57.746
X17.012 Y57.911
X16.832 Y58.042
X16.629 Y58.133
X16.412 Y58.179
X16.189 Y58.179
G0 Z3.000
G0  X28.889 Y58.179
G0  Z3.000
G01 F400 Z0
G01 F400 Z-0.100
G01F400X28.671 Y58.133
X28.468 Y58.042
X28.288 Y57.911
X28.139 Y57.746
X28.028 Y57.553
X27.959 Y57.341
X27.936 Y57.120
X27.959 Y56.899
X28.028 Y56.687
X28.139 Y56.494
X28.288 Y56.329
X28.468 Y56.198
X28.671 Y56.108
X28.889 Y56.061
X29.112 Y56.061
X29.329 Y56.108
X29.533 Y56.198
X29.713 Y56.329
X29.862 Y56.494
X29.973 Y56.687
X30.042 Y56.899
X30.065 Y57.120
X30.042 Y57.341
X29.973 Y57.553
X29.862 Y57.746
X29.713 Y57.911
X29.533 Y58.042
X29.329 Y58.133
X29.112 Y58.179
X28.889 Y58.179
G0 Z3.000
G0  X31.429 Y58.179
G0  Z3.000
G01 F400 Z0
G01 F400 Z-0.100
G01F400X31.211 Y58.133
X31.008 Y58.042
X30.828 Y57.911
X30.679 Y57.746
X30.568 Y57.553
X30.499 Y57.341
X30.476 Y57.120
X30.499 Y56.899
X30.568 Y56.687
X30.679 Y56.494
X30.828 Y56.329
X31.008 Y56.198
X31.211 Y56.108
X31.429 Y56.061
X31.652 Y56.061
X31.869 Y56.108
X32.072 Y56.198
X32.253 Y56.329
X32.401 Y56.494
X32.513 Y56.687
X32.581 Y56.899
X32.605 Y57.120
X32.581 Y57.341
X32.513 Y57.553
X32.401 Y57.746
X32.253 Y57.911
X32.072 Y58.042
X31.869 Y58.133
X31.652 Y58.179
X31.429 Y58.179
G0 Z3.000
G0  X23.809 Y58.179
G0  Z3.000
G01 F400 Z0
G01 F400 Z-0.100
G01F400X23.591 Y58.133
X23.388 Y58.042
X23.208 Y57.911
X23.059 Y57.746
X22.948 Y57.553
X22.879 Y57.341
X22.856 Y57.120
X22.879 Y56.899
X22.948 Y56.687
X23.059 Y56.494
X23.208 Y56.329
X23.388 Y56.198
X23.591 Y56.108
X23.809 Y56.061
X24.032 Y56.061
X24.249 Y56.108
X24.453 Y56.198
X24.633 Y56.329
X24.782 Y56.494
X24.893 Y56.687
X24.962 Y56.899
X24.985 Y57.120
X24.962 Y57.341
X24.893 Y57.553
X24.782 Y57.746
X24.633 Y57.911
X24.453 Y58.042
X24.249 Y58.133
X24.032 Y58.179
X23.809 Y58.179
G0 Z3.000
G0  X26.349 Y58.179
G0  Z3.000
G01 F400 Z0
G01 F400 Z-0.100
G01F400X26.131 Y58.133
X25.928 Y58.042
X25.748 Y57.911
X25.599 Y57.746
X25.488 Y57.553
X25.419 Y57.341
X25.396 Y57.120
X25.419 Y56.899
X25.488 Y56.687
X25.599 Y56.494
X25.748 Y56.329
X25.928 Y56.198
X26.131 Y56.108
X26.349 Y56.061
X26.572 Y56.061
X26.789 Y56.108
X26.992 Y56.198
X27.173 Y56.329
X27.322 Y56.494
X27.433 Y56.687
X27.502 Y56.899
X27.525 Y57.120
X27.502 Y57.341
X27.433 Y57.553
X27.322 Y57.746
X27.173 Y57.911
X26.992 Y58.042
X26.789 Y58.133
X26.572 Y58.179
X26.349 Y58.179
G0 Z3.000
G0  X8.569 Y58.179
G0  Z3.000
G01 F400 Z0
G01 F400 Z-0.100
G01F400X8.351 Y58.133
X8.148 Y58.042
X7.968 Y57.911
X7.819 Y57.746
X7.708 Y57.553
X7.639 Y57.341
X7.616 Y57.120
X7.639 Y56.899
X7.708 Y56.687
X7.819 Y56.494
X7.968 Y56.329
X8.148 Y56.198
X8.351 Y56.108
X8.569 Y56.061
X8.792 Y56.061
X9.009 Y56.108
X9.213 Y56.198
X9.393 Y56.329
X9.542 Y56.494
X9.653 Y56.687
X9.722 Y56.899
X9.745 Y57.120
X9.722 Y57.341
X9.653 Y57.553
X9.542 Y57.746
X9.393 Y57.911
X9.213 Y58.042
X9.009 Y58.133
X8.792 Y58.179
X8.569 Y58.179
G0 Z3.000
G0  X11.109 Y58.179
G0  Z3.000
G01 F400 Z0
G01 F400 Z-0.100
G01F400X10.891 Y58.133
X10.688 Y58.042
X10.508 Y57.911
X10.359 Y57.746
X10.248 Y57.553
X10.179 Y57.341
X10.156 Y57.120
X10.179 Y56.899
X10.248 Y56.687
X10.359 Y56.494
X10.508 Y56.329
X10.688 Y56.198
X10.891 Y56.108
X11.109 Y56.061
X11.332 Y56.061
X11.549 Y56.108
X11.753 Y56.198
X11.933 Y56.329
X12.082 Y56.494
X12.193 Y56.687
X12.261 Y56.899
X12.285 Y57.120
X12.261 Y57.341
X12.193 Y57.553
X12.082 Y57.746
X11.933 Y57.911
X11.753 Y58.042
X11.549 Y58.133
X11.332 Y58.179
X11.109 Y58.179
G0 Z3.000
G0  X3.489 Y58.179
G0  Z3.000
G01 F400 Z0
G01 F400 Z-0.100
G01F400X3.271 Y58.133
X3.068 Y58.042
X2.888 Y57.911
X2.739 Y57.746
X2.628 Y57.553
X2.559 Y57.341
X2.536 Y57.120
X2.559 Y56.899
X2.628 Y56.687
X2.739 Y56.494
X2.888 Y56.329
X3.068 Y56.198
X3.271 Y56.108
X3.489 Y56.061
X3.712 Y56.061
X3.929 Y56.108
X4.133 Y56.198
X4.175 Y56.229
X11.077 Y49.326
X11.150 Y49.284
X11.224 Y49.277
X35.580 Y49.277
X35.648 Y49.067
X35.759 Y48.874
X35.908 Y48.709
X36.088 Y48.578
X36.291 Y48.488
X36.509 Y48.441
X36.732 Y48.441
X36.949 Y48.488
X37.153 Y48.578
X37.333 Y48.709
X37.482 Y48.874
X37.593 Y49.067
X37.595 Y49.073
X39.912 Y46.755
X39.912 Y24.051
X39.928 Y23.974
X19.711 Y23.974
X8.886 Y23.969
X8.807 Y23.924
X5.694 Y20.811
X5.343 Y21.017
X4.582 Y20.820
X4.183 Y20.143
X4.380 Y19.382
X4.976 Y19.030
X4.976 Y5.922
X4.582 Y5.820
X4.183 Y5.143
X4.380 Y4.382
X5.057 Y3.983
X5.818 Y4.180
X6.218 Y4.857
X6.021 Y5.618
X5.424 Y5.970
X5.424 Y6.777
X18.160 Y6.777
X18.039 Y6.655
X17.993 Y6.592
X17.976 Y6.513
X17.976 Y5.922
X17.582 Y5.820
X17.183 Y5.143
X17.380 Y4.382
X18.057 Y3.983
X18.818 Y4.180
X19.218 Y4.857
X19.021 Y5.618
X18.423 Y5.970
X18.422 Y6.406
X18.792 Y6.777
X30.607 Y6.777
X30.976 Y6.407
X30.976 Y5.922
X30.582 Y5.820
X30.183 Y5.143
X30.380 Y4.382
X31.057 Y3.983
X31.818 Y4.180
X32.218 Y4.857
X32.021 Y5.618
X31.423 Y5.970
X31.422 Y6.554
X31.366 Y6.651
X31.239 Y6.777
X42.107 Y6.777
X43.390 Y5.494
X43.183 Y5.143
X43.380 Y4.382
X44.057 Y3.983
X44.818 Y4.180
X45.218 Y4.857
X45.021 Y5.618
X44.343 Y6.017
X43.672 Y5.844
X42.367 Y7.149
X42.314 Y7.197
X42.230 Y7.224
X5.424 Y7.224
X5.422 Y19.077
X5.818 Y19.180
X6.218 Y19.857
X6.044 Y20.527
X9.042 Y23.527
X19.160 Y23.527
X18.039 Y22.405
X17.993 Y22.342
X17.976 Y22.263
X17.976 Y20.922
X17.582 Y20.820
X17.183 Y20.143
X17.380 Y19.382
X18.057 Y18.983
X18.818 Y19.180
X19.218 Y19.857
X19.021 Y20.618
X18.423 Y20.970
X18.422 Y22.155
X19.792 Y23.527
X30.607 Y23.527
X30.976 Y23.157
X30.976 Y20.922
X30.582 Y20.820
X30.183 Y20.143
X30.380 Y19.382
X31.057 Y18.983
X31.818 Y19.180
X32.218 Y19.857
X32.021 Y20.618
X31.424 Y20.970
X31.422 Y23.304
X31.366 Y23.401
X31.239 Y23.527
X40.357 Y23.527
X43.390 Y20.494
X43.183 Y20.143
X43.380 Y19.382
X44.057 Y18.983
X44.818 Y19.180
X45.218 Y19.857
X45.021 Y20.618
X44.343 Y21.017
X43.673 Y20.844
X40.605 Y23.912
X40.360 Y24.154
X40.358 Y46.902
X40.302 Y46.998
X37.672 Y49.627
X37.671 Y49.628
X37.662 Y49.721
X37.593 Y49.933
X37.482 Y50.126
X37.333 Y50.291
X37.153 Y50.422
X36.949 Y50.513
X36.732 Y50.559
X36.509 Y50.559
X36.291 Y50.513
X36.088 Y50.422
X35.908 Y50.291
X35.759 Y50.126
X35.648 Y49.933
X35.580 Y49.723
X11.241 Y49.719
X4.487 Y56.538
X4.573 Y56.687
X4.642 Y56.899
X4.665 Y57.120
X4.642 Y57.341
X4.573 Y57.553
X4.462 Y57.746
X4.313 Y57.911
X4.133 Y58.042
X3.929 Y58.133
X3.712 Y58.179
X3.489 Y58.179
G0 Z3.000
G0  X6.029 Y58.179
G0  Z3.000
G01 F400 Z0
G01 F400 Z-0.100
G01F400X5.811 Y58.133
X5.608 Y58.042
X5.428 Y57.911
X5.279 Y57.746
X5.168 Y57.553
X5.099 Y57.341
X5.076 Y57.120
X5.099 Y56.899
X5.168 Y56.687
X5.279 Y56.494
X5.428 Y56.329
X5.608 Y56.198
X5.811 Y56.108
X6.029 Y56.061
X6.252 Y56.061
X6.469 Y56.108
X6.673 Y56.198
X6.853 Y56.329
X7.002 Y56.494
X7.113 Y56.687
X7.182 Y56.899
X7.205 Y57.120
X7.182 Y57.341
X7.113 Y57.553
X7.002 Y57.746
X6.853 Y57.911
X6.673 Y58.042
X6.469 Y58.133
X6.252 Y58.179
X6.029 Y58.179
G0 Z3.000
G0  X33.969 Y58.179
G0  Z3.000
G01 F400 Z0
G01 F400 Z-0.100
G01F400X33.751 Y58.133
X33.548 Y58.042
X33.368 Y57.911
X33.219 Y57.746
X33.108 Y57.553
X33.039 Y57.341
X33.016 Y57.120
X33.039 Y56.899
X33.108 Y56.687
X33.219 Y56.494
X33.368 Y56.329
X33.548 Y56.198
X33.751 Y56.108
X33.969 Y56.061
X34.192 Y56.061
X34.409 Y56.108
X34.613 Y56.198
X34.793 Y56.329
X34.942 Y56.494
X35.053 Y56.687
X35.122 Y56.899
X35.145 Y57.120
X35.122 Y57.341
X35.053 Y57.553
X34.942 Y57.746
X34.793 Y57.911
X34.613 Y58.042
X34.409 Y58.133
X34.192 Y58.179
X33.969 Y58.179
G0 Z3.000
G0  X36.509 Y58.179
G0  Z3.000
G01 F400 Z0
G01 F400 Z-0.100
G01F400X36.291 Y58.133
X36.088 Y58.042
X35.908 Y57.911
X35.759 Y57.746
X35.648 Y57.553
X35.579 Y57.341
X35.556 Y57.120
X35.579 Y56.899
X35.648 Y56.687
X35.759 Y56.494
X35.908 Y56.329
X36.088 Y56.198
X36.291 Y56.108
X36.509 Y56.061
X36.732 Y56.061
X36.949 Y56.108
X37.153 Y56.198
X37.333 Y56.329
X37.482 Y56.494
X37.593 Y56.687
X37.662 Y56.899
X37.685 Y57.120
X37.662 Y57.341
X37.593 Y57.553
X37.482 Y57.746
X37.333 Y57.911
X37.153 Y58.042
X36.949 Y58.133
X36.732 Y58.179
X36.509 Y58.179
G0 Z3.000
G0  X36.509 Y55.639
G0  Z3.000
G01 F400 Z0
G01 F400 Z-0.100
G01F400X36.291 Y55.593
X36.088 Y55.502
X35.908 Y55.371
X35.759 Y55.206
X35.648 Y55.013
X35.579 Y54.801
X35.556 Y54.580
X35.579 Y54.359
X35.648 Y54.147
X35.759 Y53.954
X35.908 Y53.789
X36.088 Y53.658
X36.291 Y53.568
X36.509 Y53.521
X36.732 Y53.521
X36.949 Y53.568
X37.153 Y53.658
X37.333 Y53.789
X37.482 Y53.954
X37.593 Y54.147
X37.662 Y54.359
X37.685 Y54.580
X37.662 Y54.801
X37.593 Y55.013
X37.482 Y55.206
X37.333 Y55.371
X37.153 Y55.502
X36.949 Y55.593
X36.732 Y55.639
X36.509 Y55.639
G0 Z3.000
G0  X52.049 Y54.399
G0  Z3.000
G01 F400 Z0
G01 F400 Z-0.100
G01F400X51.831 Y54.352
X51.628 Y54.262
X51.448 Y54.131
X51.299 Y53.966
X51.188 Y53.773
X51.119 Y53.561
X51.096 Y53.340
X51.119 Y53.119
X51.188 Y52.907
X51.299 Y52.714
X51.448 Y52.549
X51.628 Y52.418
X51.831 Y52.328
X52.049 Y52.281
X52.272 Y52.281
X52.489 Y52.328
X52.693 Y52.418
X52.873 Y52.549
X53.022 Y52.714
X53.133 Y52.907
X53.202 Y53.119
X53.225 Y53.340
X53.202 Y53.561
X53.133 Y53.773
X53.022 Y53.966
X52.873 Y54.131
X52.693 Y54.262
X52.489 Y54.352
X52.272 Y54.399
X52.049 Y54.399
G0 Z3.000
G0  X48.239 Y54.399
G0  Z3.000
G01 F400 Z0
G01 F400 Z-0.100
G01F400X48.021 Y54.352
X47.818 Y54.262
X47.638 Y54.131
X47.489 Y53.966
X47.378 Y53.773
X47.309 Y53.561
X47.286 Y53.340
X47.309 Y53.119
X47.378 Y52.907
X47.489 Y52.714
X47.638 Y52.549
X47.818 Y52.418
X48.021 Y52.328
X48.239 Y52.281
X48.462 Y52.281
X48.679 Y52.328
X48.883 Y52.418
X49.063 Y52.549
X49.212 Y52.714
X49.323 Y52.907
X49.392 Y53.119
X49.415 Y53.340
X49.392 Y53.561
X49.323 Y53.773
X49.212 Y53.966
X49.063 Y54.131
X48.883 Y54.262
X48.679 Y54.352
X48.462 Y54.399
X48.239 Y54.399
G0 Z3.000
G0  X44.429 Y54.399
G0  Z3.000
G01 F400 Z0
G01 F400 Z-0.100
G01F400X44.211 Y54.352
X44.008 Y54.262
X43.828 Y54.131
X43.679 Y53.966
X43.568 Y53.773
X43.499 Y53.561
X43.476 Y53.340
X43.499 Y53.119
X43.568 Y52.907
X43.679 Y52.714
X43.828 Y52.549
X44.008 Y52.418
X44.211 Y52.328
X44.429 Y52.281
X44.651 Y52.281
X44.869 Y52.328
X45.073 Y52.418
X45.253 Y52.549
X45.401 Y52.714
X45.513 Y52.907
X45.582 Y53.119
X45.605 Y53.340
X45.582 Y53.561
X45.513 Y53.773
X45.401 Y53.966
X45.253 Y54.131
X45.073 Y54.262
X44.869 Y54.352
X44.651 Y54.399
X44.429 Y54.399
G0 Z3.000
G0  X36.509 Y53.099
G0  Z3.000
G01 F400 Z0
G01 F400 Z-0.100
G01F400X36.291 Y53.053
X36.088 Y52.962
X35.908 Y52.831
X35.759 Y52.666
X35.648 Y52.473
X35.579 Y52.261
X35.556 Y52.040
X35.579 Y51.819
X35.648 Y51.607
X35.759 Y51.414
X35.908 Y51.249
X36.088 Y51.118
X36.291 Y51.028
X36.509 Y50.981
X36.732 Y50.981
X36.949 Y51.028
X37.153 Y51.118
X37.333 Y51.249
X37.482 Y51.414
X37.593 Y51.607
X37.662 Y51.819
X37.685 Y52.040
X37.662 Y52.261
X37.593 Y52.473
X37.482 Y52.666
X37.333 Y52.831
X37.153 Y52.962
X36.949 Y53.053
X36.732 Y53.099
X36.509 Y53.099
G0 Z3.000
G0  X48.239 Y50.589
G0  Z3.000
G01 F400 Z0
G01 F400 Z-0.100
G01F400X48.021 Y50.543
X47.818 Y50.452
X47.638 Y50.321
X47.489 Y50.156
X47.378 Y49.963
X47.309 Y49.751
X47.286 Y49.530
X47.309 Y49.309
X47.378 Y49.097
X47.489 Y48.904
X47.638 Y48.739
X47.818 Y48.608
X48.021 Y48.518
X48.239 Y48.471
X48.462 Y48.471
X48.679 Y48.518
X48.883 Y48.608
X49.063 Y48.739
X49.212 Y48.904
X49.323 Y49.097
X49.392 Y49.309
X49.415 Y49.530
X49.392 Y49.751
X49.323 Y49.963
X49.212 Y50.156
X49.063 Y50.321
X48.883 Y50.452
X48.679 Y50.543
X48.462 Y50.589
X48.239 Y50.589
G0 Z3.000
G0  X44.429 Y50.589
G0  Z3.000
G01 F400 Z0
G01 F400 Z-0.100
G01F400X44.211 Y50.543
X44.008 Y50.452
X43.828 Y50.321
X43.679 Y50.156
X43.568 Y49.963
X43.499 Y49.751
X43.476 Y49.530
X43.499 Y49.309
X43.568 Y49.097
X43.679 Y48.904
X43.828 Y48.739
X44.008 Y48.608
X44.211 Y48.518
X44.429 Y48.471
X44.651 Y48.471
X44.869 Y48.518
X45.073 Y48.608
X45.253 Y48.739
X45.401 Y48.904
X45.513 Y49.097
X45.582 Y49.309
X45.605 Y49.530
X45.582 Y49.751
X45.513 Y49.963
X45.401 Y50.156
X45.253 Y50.321
X45.073 Y50.452
X44.869 Y50.543
X44.651 Y50.589
X44.429 Y50.589
G0 Z3.000
G0  X52.049 Y50.589
G0  Z3.000
G01 F400 Z0
G01 F400 Z-0.100
G01F400X51.831 Y50.543
X51.628 Y50.452
X51.448 Y50.321
X51.299 Y50.156
X51.188 Y49.963
X51.119 Y49.751
X51.096 Y49.530
X51.119 Y49.309
X51.188 Y49.097
X51.299 Y48.904
X51.448 Y48.739
X51.628 Y48.608
X51.831 Y48.518
X52.049 Y48.471
X52.272 Y48.471
X52.489 Y48.518
X52.693 Y48.608
X52.873 Y48.739
X53.022 Y48.904
X53.133 Y49.097
X53.202 Y49.309
X53.225 Y49.530
X53.202 Y49.751
X53.133 Y49.963
X53.022 Y50.156
X52.873 Y50.321
X52.693 Y50.452
X52.489 Y50.543
X52.272 Y50.589
X52.049 Y50.589
G0 Z3.000
G0  X36.509 Y48.019
G0  Z3.000
G01 F400 Z0
G01 F400 Z-0.100
G01F400X36.291 Y47.973
X36.088 Y47.882
X35.908 Y47.751
X35.759 Y47.586
X35.648 Y47.393
X35.579 Y47.181
X35.556 Y46.960
X35.579 Y46.739
X35.648 Y46.527
X35.759 Y46.334
X35.908 Y46.169
X36.088 Y46.038
X36.291 Y45.948
X36.509 Y45.901
X36.732 Y45.901
X36.949 Y45.948
X37.153 Y46.038
X37.333 Y46.169
X37.482 Y46.334
X37.593 Y46.527
X37.662 Y46.739
X37.685 Y46.960
X37.662 Y47.181
X37.593 Y47.393
X37.482 Y47.586
X37.333 Y47.751
X37.153 Y47.882
X36.949 Y47.973
X36.732 Y48.019
X36.509 Y48.019
G0 Z3.000
G0  X52.049 Y46.779
G0  Z3.000
G01 F400 Z0
G01 F400 Z-0.100
G01F400X51.831 Y46.733
X51.628 Y46.642
X51.448 Y46.511
X51.299 Y46.346
X51.188 Y46.153
X51.119 Y45.941
X51.096 Y45.720
X51.119 Y45.499
X51.188 Y45.287
X51.299 Y45.094
X51.448 Y44.929
X51.628 Y44.798
X51.831 Y44.708
X52.049 Y44.661
X52.272 Y44.661
X52.489 Y44.708
X52.693 Y44.798
X52.873 Y44.929
X53.022 Y45.094
X53.133 Y45.287
X53.202 Y45.499
X53.225 Y45.720
X53.202 Y45.941
X53.133 Y46.153
X53.022 Y46.346
X52.873 Y46.511
X52.693 Y46.642
X52.489 Y46.733
X52.272 Y46.779
X52.049 Y46.779
G0 Z3.000
G0  X48.239 Y46.779
G0  Z3.000
G01 F400 Z0
G01 F400 Z-0.100
G01F400X48.021 Y46.733
X47.818 Y46.642
X47.638 Y46.511
X47.489 Y46.346
X47.378 Y46.153
X47.309 Y45.941
X47.286 Y45.720
X47.309 Y45.499
X47.378 Y45.287
X47.489 Y45.094
X47.638 Y44.929
X47.818 Y44.798
X48.021 Y44.708
X48.239 Y44.661
X48.462 Y44.661
X48.679 Y44.708
X48.883 Y44.798
X49.063 Y44.929
X49.212 Y45.094
X49.323 Y45.287
X49.392 Y45.499
X49.415 Y45.720
X49.392 Y45.941
X49.323 Y46.153
X49.212 Y46.346
X49.063 Y46.511
X48.883 Y46.642
X48.679 Y46.733
X48.462 Y46.779
X48.239 Y46.779
G0 Z3.000
G0  X44.429 Y46.779
G0  Z3.000
G01 F400 Z0
G01 F400 Z-0.100
G01F400X44.211 Y46.733
X44.008 Y46.642
X43.828 Y46.511
X43.679 Y46.346
X43.568 Y46.153
X43.499 Y45.941
X43.476 Y45.720
X43.499 Y45.499
X43.568 Y45.287
X43.679 Y45.094
X43.828 Y44.929
X44.008 Y44.798
X44.211 Y44.708
X44.429 Y44.661
X44.651 Y44.661
X44.869 Y44.708
X45.073 Y44.798
X45.253 Y44.929
X45.401 Y45.094
X45.513 Y45.287
X45.582 Y45.499
X45.605 Y45.720
X45.582 Y45.941
X45.513 Y46.153
X45.401 Y46.346
X45.253 Y46.511
X45.073 Y46.642
X44.869 Y46.733
X44.651 Y46.779
X44.429 Y46.779
G0 Z3.000
G0  X36.509 Y45.479
G0  Z3.000
G01 F400 Z0
G01 F400 Z-0.100
G01F400X36.291 Y45.433
X36.088 Y45.342
X35.908 Y45.211
X35.759 Y45.046
X35.648 Y44.853
X35.579 Y44.641
X35.556 Y44.420
X35.579 Y44.199
X35.648 Y43.987
X35.759 Y43.794
X35.908 Y43.629
X36.088 Y43.498
X36.291 Y43.407
X36.509 Y43.361
X36.732 Y43.361
X36.949 Y43.407
X37.153 Y43.498
X37.333 Y43.629
X37.482 Y43.794
X37.593 Y43.987
X37.662 Y44.199
X37.685 Y44.420
X37.662 Y44.641
X37.593 Y44.853
X37.482 Y45.046
X37.333 Y45.211
X37.153 Y45.342
X36.949 Y45.433
X36.732 Y45.479
X36.509 Y45.479
G0 Z3.000
G0  X6.029 Y45.479
G0  Z3.000
G01 F400 Z0
G01 F400 Z-0.100
G01F400X5.811 Y45.433
X5.608 Y45.342
X5.428 Y45.211
X5.279 Y45.046
X5.168 Y44.853
X5.099 Y44.641
X5.076 Y44.420
X5.099 Y44.199
X5.168 Y43.987
X5.279 Y43.794
X5.428 Y43.629
X5.608 Y43.498
X5.811 Y43.407
X6.029 Y43.361
X6.252 Y43.361
X6.469 Y43.407
X6.673 Y43.498
X6.853 Y43.629
X7.002 Y43.794
X7.113 Y43.987
X7.182 Y44.199
X7.205 Y44.420
X7.182 Y44.641
X7.113 Y44.853
X7.002 Y45.046
X6.853 Y45.211
X6.673 Y45.342
X6.469 Y45.433
X6.252 Y45.479
X6.029 Y45.479
G0 Z3.000
G0  X16.189 Y45.479
G0  Z3.000
G01 F400 Z0
G01 F400 Z-0.100
G01F400X15.971 Y45.433
X15.768 Y45.342
X15.588 Y45.211
X15.439 Y45.046
X15.328 Y44.853
X15.259 Y44.641
X15.236 Y44.420
X15.259 Y44.199
X15.328 Y43.987
X15.439 Y43.794
X15.588 Y43.629
X15.768 Y43.498
X15.971 Y43.407
X16.189 Y43.361
X16.412 Y43.361
X16.629 Y43.407
X16.832 Y43.498
X17.012 Y43.629
X17.162 Y43.794
X17.273 Y43.987
X17.341 Y44.199
X17.365 Y44.420
X17.341 Y44.641
X17.273 Y44.853
X17.162 Y45.046
X17.012 Y45.211
X16.832 Y45.342
X16.629 Y45.433
X16.412 Y45.479
X16.189 Y45.479
G0 Z3.000
G0  X11.109 Y45.479
G0  Z3.000
G01 F400 Z0
G01 F400 Z-0.100
G01F400X10.891 Y45.433
X10.688 Y45.342
X10.508 Y45.211
X10.359 Y45.046
X10.248 Y44.853
X10.179 Y44.641
X10.156 Y44.420
X10.179 Y44.199
X10.248 Y43.987
X10.359 Y43.794
X10.508 Y43.629
X10.688 Y43.498
X10.891 Y43.407
X11.109 Y43.361
X11.332 Y43.361
X11.549 Y43.407
X11.753 Y43.498
X11.933 Y43.629
X12.082 Y43.794
X12.193 Y43.987
X12.261 Y44.199
X12.285 Y44.420
X12.261 Y44.641
X12.193 Y44.853
X12.082 Y45.046
X11.933 Y45.211
X11.753 Y45.342
X11.549 Y45.433
X11.332 Y45.479
X11.109 Y45.479
G0 Z3.000
G0  X13.649 Y45.479
G0  Z3.000
G01 F400 Z0
G01 F400 Z-0.100
G01F400X13.431 Y45.433
X13.228 Y45.342
X13.048 Y45.211
X12.899 Y45.046
X12.788 Y44.853
X12.719 Y44.641
X12.696 Y44.420
X12.719 Y44.199
X12.788 Y43.987
X12.899 Y43.794
X13.048 Y43.629
X13.228 Y43.498
X13.431 Y43.407
X13.649 Y43.361
X13.872 Y43.361
X14.089 Y43.407
X14.293 Y43.498
X14.473 Y43.629
X14.622 Y43.794
X14.733 Y43.987
X14.802 Y44.199
X14.825 Y44.420
X14.802 Y44.641
X14.733 Y44.853
X14.622 Y45.046
X14.473 Y45.211
X14.293 Y45.342
X14.089 Y45.433
X13.872 Y45.479
X13.649 Y45.479
G0 Z3.000
G0  X44.429 Y42.969
G0  Z3.000
G01 F400 Z0
G01 F400 Z-0.100
G01F400X44.211 Y42.922
X44.008 Y42.832
X43.828 Y42.701
X43.679 Y42.536
X43.568 Y42.343
X43.499 Y42.131
X43.476 Y41.910
X43.499 Y41.689
X43.568 Y41.477
X43.679 Y41.284
X43.828 Y41.119
X44.008 Y40.988
X44.211 Y40.898
X44.429 Y40.851
X44.651 Y40.851
X44.869 Y40.898
X45.073 Y40.988
X45.253 Y41.119
X45.401 Y41.284
X45.513 Y41.477
X45.582 Y41.689
X45.605 Y41.910
X45.582 Y42.131
X45.513 Y42.343
X45.401 Y42.536
X45.253 Y42.701
X45.073 Y42.832
X44.869 Y42.922
X44.651 Y42.969
X44.429 Y42.969
G0 Z3.000
G0  X52.049 Y42.969
G0  Z3.000
G01 F400 Z0
G01 F400 Z-0.100
G01F400X51.831 Y42.922
X51.628 Y42.832
X51.448 Y42.701
X51.299 Y42.536
X51.188 Y42.343
X51.119 Y42.131
X51.096 Y41.910
X51.119 Y41.689
X51.188 Y41.477
X51.299 Y41.284
X51.448 Y41.119
X51.628 Y40.988
X51.831 Y40.898
X52.049 Y40.851
X52.272 Y40.851
X52.489 Y40.898
X52.693 Y40.988
X52.873 Y41.119
X53.022 Y41.284
X53.133 Y41.477
X53.202 Y41.689
X53.225 Y41.910
X53.202 Y42.131
X53.133 Y42.343
X53.022 Y42.536
X52.873 Y42.701
X52.693 Y42.832
X52.489 Y42.922
X52.272 Y42.969
X52.049 Y42.969
G0 Z3.000
G0  X48.239 Y42.969
G0  Z3.000
G01 F400 Z0
G01 F400 Z-0.100
G01F400X48.021 Y42.922
X47.818 Y42.832
X47.638 Y42.701
X47.489 Y42.536
X47.378 Y42.343
X47.309 Y42.131
X47.286 Y41.910
X47.309 Y41.689
X47.378 Y41.477
X47.489 Y41.284
X47.638 Y41.119
X47.818 Y40.988
X48.021 Y40.898
X48.239 Y40.851
X48.462 Y40.851
X48.679 Y40.898
X48.883 Y40.988
X49.063 Y41.119
X49.212 Y41.284
X49.323 Y41.477
X49.392 Y41.689
X49.415 Y41.910
X49.392 Y42.131
X49.323 Y42.343
X49.212 Y42.536
X49.063 Y42.701
X48.883 Y42.832
X48.679 Y42.922
X48.462 Y42.969
X48.239 Y42.969
G0 Z3.000
G0  X23.809 Y42.939
G0  Z3.000
G01 F400 Z0
G01 F400 Z-0.100
G01F400X23.591 Y42.893
X23.388 Y42.802
X23.208 Y42.671
X23.059 Y42.506
X22.948 Y42.313
X22.879 Y42.101
X22.856 Y41.880
X22.879 Y41.659
X22.948 Y41.447
X23.059 Y41.254
X23.208 Y41.089
X23.388 Y40.958
X23.591 Y40.867
X23.809 Y40.821
X24.032 Y40.821
X24.249 Y40.867
X24.453 Y40.958
X24.633 Y41.089
X24.782 Y41.254
X24.893 Y41.447
X24.962 Y41.659
X24.985 Y41.880
X24.962 Y42.101
X24.893 Y42.313
X24.782 Y42.506
X24.633 Y42.671
X24.453 Y42.802
X24.249 Y42.893
X24.032 Y42.939
X23.809 Y42.939
G0 Z3.000
G0  X26.349 Y42.939
G0  Z3.000
G01 F400 Z0
G01 F400 Z-0.100
G01F400X26.131 Y42.893
X25.928 Y42.802
X25.748 Y42.671
X25.599 Y42.506
X25.488 Y42.313
X25.419 Y42.101
X25.396 Y41.880
X25.419 Y41.659
X25.488 Y41.447
X25.599 Y41.254
X25.748 Y41.089
X25.928 Y40.958
X26.131 Y40.867
X26.349 Y40.821
X26.572 Y40.821
X26.789 Y40.867
X26.992 Y40.958
X27.173 Y41.089
X27.322 Y41.254
X27.433 Y41.447
X27.502 Y41.659
X27.525 Y41.880
X27.502 Y42.101
X27.433 Y42.313
X27.322 Y42.506
X27.173 Y42.671
X26.992 Y42.802
X26.789 Y42.893
X26.572 Y42.939
X26.349 Y42.939
G0 Z3.000
G0  X18.729 Y42.939
G0  Z3.000
G01 F400 Z0
G01 F400 Z-0.100
G01F400X18.511 Y42.893
X18.308 Y42.802
X18.128 Y42.671
X17.979 Y42.506
X17.868 Y42.313
X17.799 Y42.101
X17.776 Y41.880
X17.799 Y41.659
X17.868 Y41.447
X17.979 Y41.254
X18.128 Y41.089
X18.308 Y40.958
X18.511 Y40.867
X18.729 Y40.821
X18.951 Y40.821
X19.169 Y40.867
X19.373 Y40.958
X19.553 Y41.089
X19.701 Y41.254
X19.813 Y41.447
X19.882 Y41.659
X19.905 Y41.880
X19.882 Y42.101
X19.813 Y42.313
X19.701 Y42.506
X19.553 Y42.671
X19.373 Y42.802
X19.169 Y42.893
X18.951 Y42.939
X18.729 Y42.939
G0 Z3.000
G0  X21.269 Y42.939
G0  Z3.000
G01 F400 Z0
G01 F400 Z-0.100
G01F400X21.051 Y42.893
X20.848 Y42.802
X20.668 Y42.671
X20.519 Y42.506
X20.408 Y42.313
X20.339 Y42.101
X20.316 Y41.880
X20.339 Y41.659
X20.408 Y41.447
X20.519 Y41.254
X20.668 Y41.089
X20.848 Y40.958
X21.051 Y40.867
X21.269 Y40.821
X21.492 Y40.821
X21.709 Y40.867
X21.913 Y40.958
X22.093 Y41.089
X22.242 Y41.254
X22.353 Y41.447
X22.422 Y41.659
X22.445 Y41.880
X22.422 Y42.101
X22.353 Y42.313
X22.242 Y42.506
X22.093 Y42.671
X21.913 Y42.802
X21.709 Y42.893
X21.492 Y42.939
X21.269 Y42.939
G0 Z3.000
G0  X33.969 Y42.939
G0  Z3.000
G01 F400 Z0
G01 F400 Z-0.100
G01F400X33.751 Y42.893
X33.548 Y42.802
X33.368 Y42.671
X33.219 Y42.506
X33.108 Y42.313
X33.039 Y42.101
X33.016 Y41.880
X33.039 Y41.659
X33.108 Y41.447
X33.219 Y41.254
X33.368 Y41.089
X33.548 Y40.958
X33.751 Y40.867
X33.969 Y40.821
X34.192 Y40.821
X34.409 Y40.867
X34.613 Y40.958
X34.793 Y41.089
X34.942 Y41.254
X35.053 Y41.447
X35.122 Y41.659
X35.145 Y41.880
X35.122 Y42.101
X35.053 Y42.313
X34.942 Y42.506
X34.793 Y42.671
X34.613 Y42.802
X34.409 Y42.893
X34.192 Y42.939
X33.969 Y42.939
G0 Z3.000
G0  X36.509 Y42.939
G0  Z3.000
G01 F400 Z0
G01 F400 Z-0.100
G01F400X36.291 Y42.893
X36.088 Y42.802
X35.908 Y42.671
X35.759 Y42.506
X35.648 Y42.313
X35.579 Y42.101
X35.556 Y41.880
X35.579 Y41.659
X35.648 Y41.447
X35.759 Y41.254
X35.908 Y41.089
X36.088 Y40.958
X36.291 Y40.867
X36.509 Y40.821
X36.732 Y40.821
X36.949 Y40.867
X37.153 Y40.958
X37.333 Y41.089
X37.482 Y41.254
X37.593 Y41.447
X37.662 Y41.659
X37.685 Y41.880
X37.662 Y42.101
X37.593 Y42.313
X37.482 Y42.506
X37.333 Y42.671
X37.153 Y42.802
X36.949 Y42.893
X36.732 Y42.939
X36.509 Y42.939
G0 Z3.000
G0  X28.889 Y42.939
G0  Z3.000
G01 F400 Z0
G01 F400 Z-0.100
G01F400X28.671 Y42.893
X28.468 Y42.802
X28.288 Y42.671
X28.139 Y42.506
X28.028 Y42.313
X27.959 Y42.101
X27.936 Y41.880
X27.959 Y41.659
X28.028 Y41.447
X28.139 Y41.254
X28.288 Y41.089
X28.468 Y40.958
X28.671 Y40.867
X28.889 Y40.821
X29.112 Y40.821
X29.329 Y40.867
X29.533 Y40.958
X29.713 Y41.089
X29.862 Y41.254
X29.973 Y41.447
X30.042 Y41.659
X30.065 Y41.880
X30.042 Y42.101
X29.973 Y42.313
X29.862 Y42.506
X29.713 Y42.671
X29.533 Y42.802
X29.329 Y42.893
X29.112 Y42.939
X28.889 Y42.939
G0 Z3.000
G0  X31.429 Y42.939
G0  Z3.000
G01 F400 Z0
G01 F400 Z-0.100
G01F400X31.211 Y42.893
X31.008 Y42.802
X30.828 Y42.671
X30.679 Y42.506
X30.568 Y42.313
X30.499 Y42.101
X30.476 Y41.880
X30.499 Y41.659
X30.568 Y41.447
X30.679 Y41.254
X30.828 Y41.089
X31.008 Y40.958
X31.211 Y40.867
X31.429 Y40.821
X31.652 Y40.821
X31.869 Y40.867
X32.072 Y40.958
X32.253 Y41.089
X32.401 Y41.254
X32.513 Y41.447
X32.581 Y41.659
X32.605 Y41.880
X32.581 Y42.101
X32.513 Y42.313
X32.401 Y42.506
X32.253 Y42.671
X32.072 Y42.802
X31.869 Y42.893
X31.652 Y42.939
X31.429 Y42.939
G0 Z3.000
G0  X3.489 Y42.939
G0  Z3.000
G01 F400 Z0
G01 F400 Z-0.100
G01F400X3.271 Y42.893
X3.068 Y42.802
X2.888 Y42.671
X2.739 Y42.506
X2.628 Y42.313
X2.559 Y42.101
X2.536 Y41.880
X2.559 Y41.659
X2.628 Y41.447
X2.739 Y41.254
X2.888 Y41.089
X3.068 Y40.958
X3.271 Y40.867
X3.489 Y40.821
X3.712 Y40.821
X3.929 Y40.867
X4.133 Y40.958
X4.313 Y41.089
X4.462 Y41.254
X4.573 Y41.447
X4.642 Y41.659
X4.665 Y41.880
X4.642 Y42.101
X4.573 Y42.313
X4.462 Y42.506
X4.313 Y42.671
X4.133 Y42.802
X3.929 Y42.893
X3.712 Y42.939
X3.489 Y42.939
G0 Z3.000
G0  X6.029 Y42.939
G0  Z3.000
G01 F400 Z0
G01 F400 Z-0.100
G01F400X5.811 Y42.893
X5.608 Y42.802
X5.428 Y42.671
X5.279 Y42.506
X5.168 Y42.313
X5.099 Y42.101
X5.076 Y41.880
X5.099 Y41.659
X5.168 Y41.447
X5.279 Y41.254
X5.428 Y41.089
X5.608 Y40.958
X5.811 Y40.867
X6.029 Y40.821
X6.252 Y40.821
X6.469 Y40.867
X6.673 Y40.958
X6.853 Y41.089
X7.002 Y41.254
X7.113 Y41.447
X7.182 Y41.659
X7.205 Y41.880
X7.182 Y42.101
X7.113 Y42.313
X7.002 Y42.506
X6.853 Y42.671
X6.673 Y42.802
X6.469 Y42.893
X6.252 Y42.939
X6.029 Y42.939
G0 Z3.000
G0  X13.649 Y42.939
G0  Z3.000
G01 F400 Z0
G01 F400 Z-0.100
G01F400X13.431 Y42.893
X13.228 Y42.802
X13.048 Y42.671
X12.899 Y42.506
X12.788 Y42.313
X12.719 Y42.101
X12.696 Y41.880
X12.719 Y41.659
X12.788 Y41.447
X12.899 Y41.254
X13.048 Y41.089
X13.228 Y40.958
X13.431 Y40.867
X13.649 Y40.821
X13.872 Y40.821
X14.089 Y40.867
X14.293 Y40.958
X14.473 Y41.089
X14.622 Y41.254
X14.733 Y41.447
X14.802 Y41.659
X14.825 Y41.880
X14.802 Y42.101
X14.733 Y42.313
X14.622 Y42.506
X14.473 Y42.671
X14.293 Y42.802
X14.089 Y42.893
X13.872 Y42.939
X13.649 Y42.939
G0 Z3.000
G0  X16.189 Y42.939
G0  Z3.000
G01 F400 Z0
G01 F400 Z-0.100
G01F400X15.971 Y42.893
X15.768 Y42.802
X15.588 Y42.671
X15.439 Y42.506
X15.328 Y42.313
X15.259 Y42.101
X15.236 Y41.880
X15.259 Y41.659
X15.328 Y41.447
X15.439 Y41.254
X15.588 Y41.089
X15.768 Y40.958
X15.971 Y40.867
X16.189 Y40.821
X16.412 Y40.821
X16.629 Y40.867
X16.832 Y40.958
X17.012 Y41.089
X17.162 Y41.254
X17.273 Y41.447
X17.341 Y41.659
X17.365 Y41.880
X17.341 Y42.101
X17.273 Y42.313
X17.162 Y42.506
X17.012 Y42.671
X16.832 Y42.802
X16.629 Y42.893
X16.412 Y42.939
X16.189 Y42.939
G0 Z3.000
G0  X11.109 Y42.939
G0  Z3.000
G01 F400 Z0
G01 F400 Z-0.100
G01F400X10.891 Y42.893
X10.688 Y42.802
X10.508 Y42.671
X10.359 Y42.506
X10.248 Y42.313
X10.179 Y42.101
X10.156 Y41.880
X10.179 Y41.659
X10.248 Y41.447
X10.359 Y41.254
X10.508 Y41.089
X10.688 Y40.958
X10.891 Y40.867
X11.109 Y40.821
X11.332 Y40.821
X11.549 Y40.867
X11.753 Y40.958
X11.933 Y41.089
X12.082 Y41.254
X12.193 Y41.447
X12.261 Y41.659
X12.285 Y41.880
X12.261 Y42.101
X12.193 Y42.313
X12.082 Y42.506
X11.933 Y42.671
X11.753 Y42.802
X11.549 Y42.893
X11.332 Y42.939
X11.109 Y42.939
G0 Z3.000
G0  X3.024 Y28.674
G0  Z3.000
G01 F400 Z0
G01 F400 Z-0.100
G01F400X2.680 Y28.600
X2.359 Y28.457
X2.074 Y28.251
X1.839 Y27.989
X1.663 Y27.684
X1.554 Y27.350
X1.517 Y27.000
X1.554 Y26.650
X1.663 Y26.316
X1.839 Y26.011
X2.074 Y25.750
X2.359 Y25.543
X2.680 Y25.400
X3.024 Y25.326
X3.376 Y25.326
X3.720 Y25.400
X4.042 Y25.543
X4.326 Y25.750
X4.562 Y26.011
X4.737 Y26.316
X4.846 Y26.650
X4.883 Y27.000
X4.846 Y27.350
X4.737 Y27.684
X4.562 Y27.989
X4.326 Y28.251
X4.042 Y28.457
X3.720 Y28.600
X3.376 Y28.674
X3.024 Y28.674
G0 Z3.000
G0  X25.024 Y28.674
G0  Z3.000
G01 F400 Z0
G01 F400 Z-0.100
G01F400X24.680 Y28.600
X24.359 Y28.457
X24.074 Y28.251
X23.839 Y27.989
X23.663 Y27.684
X23.554 Y27.350
X23.517 Y27.000
X23.554 Y26.650
X23.663 Y26.316
X23.839 Y26.011
X24.074 Y25.750
X24.359 Y25.543
X24.680 Y25.400
X25.024 Y25.326
X25.376 Y25.326
X25.720 Y25.400
X26.042 Y25.543
X26.326 Y25.750
X26.562 Y26.011
X26.738 Y26.316
X26.846 Y26.650
X26.883 Y27.000
X26.846 Y27.350
X26.738 Y27.684
X26.562 Y27.989
X26.326 Y28.251
X26.042 Y28.457
X25.720 Y28.600
X25.376 Y28.674
X25.024 Y28.674
G0 Z3.000
G0  X16.024 Y28.674
G0  Z3.000
G01 F400 Z0
G01 F400 Z-0.100
G01F400X15.680 Y28.600
X15.359 Y28.457
X15.074 Y28.251
X14.839 Y27.989
X14.663 Y27.684
X14.554 Y27.350
X14.517 Y27.000
X14.554 Y26.650
X14.663 Y26.316
X14.839 Y26.011
X15.074 Y25.750
X15.359 Y25.543
X15.680 Y25.400
X16.024 Y25.326
X16.376 Y25.326
X16.720 Y25.400
X17.042 Y25.543
X17.326 Y25.750
X17.562 Y26.011
X17.738 Y26.316
X17.846 Y26.650
X17.883 Y27.000
X17.846 Y27.350
X17.738 Y27.684
X17.562 Y27.989
X17.326 Y28.251
X17.042 Y28.457
X16.720 Y28.600
X16.376 Y28.674
X16.024 Y28.674
G0 Z3.000
G0  X12.024 Y28.674
G0  Z3.000
G01 F400 Z0
G01 F400 Z-0.100
G01F400X11.680 Y28.600
X11.359 Y28.457
X11.074 Y28.251
X10.839 Y27.989
X10.663 Y27.684
X10.554 Y27.350
X10.517 Y27.000
X10.554 Y26.650
X10.663 Y26.316
X10.839 Y26.011
X11.074 Y25.750
X11.359 Y25.543
X11.680 Y25.400
X12.024 Y25.326
X12.376 Y25.326
X12.720 Y25.400
X13.042 Y25.543
X13.326 Y25.750
X13.562 Y26.011
X13.738 Y26.316
X13.846 Y26.650
X13.883 Y27.000
X13.846 Y27.350
X13.738 Y27.684
X13.562 Y27.989
X13.326 Y28.251
X13.042 Y28.457
X12.720 Y28.600
X12.376 Y28.674
X12.024 Y28.674
G0 Z3.000
G0  X29.024 Y28.674
G0  Z3.000
G01 F400 Z0
G01 F400 Z-0.100
G01F400X28.680 Y28.600
X28.359 Y28.457
X28.074 Y28.251
X27.839 Y27.989
X27.663 Y27.684
X27.554 Y27.350
X27.517 Y27.000
X27.554 Y26.650
X27.663 Y26.316
X27.839 Y26.011
X28.074 Y25.750
X28.359 Y25.543
X28.680 Y25.400
X29.024 Y25.326
X29.376 Y25.326
X29.720 Y25.400
X30.042 Y25.543
X30.326 Y25.750
X30.562 Y26.011
X30.738 Y26.316
X30.846 Y26.650
X30.883 Y27.000
X30.846 Y27.350
X30.738 Y27.684
X30.562 Y27.989
X30.326 Y28.251
X30.042 Y28.457
X29.720 Y28.600
X29.376 Y28.674
X29.024 Y28.674
G0 Z3.000
G0  X38.024 Y28.674
G0  Z3.000
G01 F400 Z0
G01 F400 Z-0.100
G01F400X37.680 Y28.600
X37.359 Y28.457
X37.074 Y28.251
X36.839 Y27.989
X36.663 Y27.684
X36.554 Y27.350
X36.517 Y27.000
X36.554 Y26.650
X36.663 Y26.316
X36.839 Y26.011
X37.074 Y25.750
X37.359 Y25.543
X37.680 Y25.400
X38.024 Y25.326
X38.376 Y25.326
X38.720 Y25.400
X39.042 Y25.543
X39.326 Y25.750
X39.562 Y26.011
X39.738 Y26.316
X39.846 Y26.650
X39.883 Y27.000
X39.846 Y27.350
X39.738 Y27.684
X39.562 Y27.989
X39.326 Y28.251
X39.042 Y28.457
X38.720 Y28.600
X38.376 Y28.674
X38.024 Y28.674
G0 Z3.000
G0  X51.024 Y28.674
G0  Z3.000
G01 F400 Z0
G01 F400 Z-0.100
G01F400X50.680 Y28.600
X50.359 Y28.457
X50.074 Y28.251
X49.839 Y27.989
X49.663 Y27.684
X49.554 Y27.350
X49.517 Y27.000
X49.554 Y26.650
X49.663 Y26.316
X49.839 Y26.011
X50.074 Y25.750
X50.359 Y25.543
X50.680 Y25.400
X51.024 Y25.326
X51.376 Y25.326
X51.720 Y25.400
X52.042 Y25.543
X52.326 Y25.750
X52.562 Y26.011
X52.738 Y26.316
X52.846 Y26.650
X52.883 Y27.000
X52.846 Y27.350
X52.738 Y27.684
X52.562 Y27.989
X52.326 Y28.251
X52.042 Y28.457
X51.720 Y28.600
X51.376 Y28.674
X51.024 Y28.674
G0 Z3.000
G0  X42.024 Y28.674
G0  Z3.000
G01 F400 Z0
G01 F400 Z-0.100
G01F400X41.680 Y28.600
X41.359 Y28.457
X41.074 Y28.251
X40.839 Y27.989
X40.663 Y27.684
X40.554 Y27.350
X40.517 Y27.000
X40.554 Y26.650
X40.663 Y26.316
X40.839 Y26.011
X41.074 Y25.750
X41.359 Y25.543
X41.680 Y25.400
X42.024 Y25.326
X42.376 Y25.326
X42.720 Y25.400
X43.042 Y25.543
X43.326 Y25.750
X43.562 Y26.011
X43.738 Y26.316
X43.846 Y26.650
X43.883 Y27.000
X43.846 Y27.350
X43.738 Y27.684
X43.562 Y27.989
X43.326 Y28.251
X43.042 Y28.457
X42.720 Y28.600
X42.376 Y28.674
X42.024 Y28.674
G0 Z3.000
G0  X7.843 Y21.017
G0  Z3.000
G01 F400 Z0
G01 F400 Z-0.100
G01F400X7.082 Y20.820
X6.683 Y20.143
X6.880 Y19.382
X7.557 Y18.983
X8.318 Y19.180
X8.718 Y19.857
X8.521 Y20.618
X7.843 Y21.017
G0 Z3.000
G0  X20.843 Y21.017
G0  Z3.000
G01 F400 Z0
G01 F400 Z-0.100
G01F400X20.082 Y20.820
X19.683 Y20.143
X19.880 Y19.382
X20.557 Y18.983
X21.318 Y19.180
X21.718 Y19.857
X21.521 Y20.618
X20.843 Y21.017
G0 Z3.000
G0  X46.843 Y21.017
G0  Z3.000
G01 F400 Z0
G01 F400 Z-0.100
G01F400X46.082 Y20.820
X45.683 Y20.143
X45.880 Y19.382
X46.557 Y18.983
X47.318 Y19.180
X47.718 Y19.857
X47.521 Y20.618
X46.843 Y21.017
G0 Z3.000
G0  X33.843 Y21.017
G0  Z3.000
G01 F400 Z0
G01 F400 Z-0.100
G01F400X33.082 Y20.820
X32.683 Y20.143
X32.880 Y19.382
X33.557 Y18.983
X34.318 Y19.180
X34.718 Y19.857
X34.521 Y20.618
X33.843 Y21.017
G0 Z3.000
G0  X25.024 Y13.674
G0  Z3.000
G01 F400 Z0
G01 F400 Z-0.100
G01F400X24.680 Y13.600
X24.359 Y13.457
X24.074 Y13.251
X23.839 Y12.989
X23.663 Y12.684
X23.554 Y12.350
X23.517 Y12.000
X23.554 Y11.650
X23.663 Y11.316
X23.839 Y11.011
X24.074 Y10.750
X24.359 Y10.543
X24.680 Y10.400
X25.024 Y10.326
X25.376 Y10.326
X25.720 Y10.400
X26.042 Y10.543
X26.326 Y10.750
X26.562 Y11.011
X26.738 Y11.316
X26.846 Y11.650
X26.883 Y12.000
X26.846 Y12.350
X26.738 Y12.684
X26.562 Y12.989
X26.326 Y13.251
X26.042 Y13.457
X25.720 Y13.600
X25.376 Y13.674
X25.024 Y13.674
G0 Z3.000
G0  X16.024 Y13.674
G0  Z3.000
G01 F400 Z0
G01 F400 Z-0.100
G01F400X15.680 Y13.600
X15.359 Y13.457
X15.074 Y13.251
X14.839 Y12.989
X14.663 Y12.684
X14.554 Y12.350
X14.517 Y12.000
X14.554 Y11.650
X14.663 Y11.316
X14.839 Y11.011
X15.074 Y10.750
X15.359 Y10.543
X15.680 Y10.400
X16.024 Y10.326
X16.376 Y10.326
X16.720 Y10.400
X17.042 Y10.543
X17.326 Y10.750
X17.562 Y11.011
X17.738 Y11.316
X17.846 Y11.650
X17.883 Y12.000
X17.846 Y12.350
X17.738 Y12.684
X17.562 Y12.989
X17.326 Y13.251
X17.042 Y13.457
X16.720 Y13.600
X16.376 Y13.674
X16.024 Y13.674
G0 Z3.000
G0  X29.024 Y13.674
G0  Z3.000
G01 F400 Z0
G01 F400 Z-0.100
G01F400X28.680 Y13.600
X28.359 Y13.457
X28.074 Y13.251
X27.839 Y12.989
X27.663 Y12.684
X27.554 Y12.350
X27.517 Y12.000
X27.554 Y11.650
X27.663 Y11.316
X27.839 Y11.011
X28.074 Y10.750
X28.359 Y10.543
X28.680 Y10.400
X29.024 Y10.326
X29.376 Y10.326
X29.720 Y10.400
X30.042 Y10.543
X30.326 Y10.750
X30.562 Y11.011
X30.738 Y11.316
X30.846 Y11.650
X30.883 Y12.000
X30.846 Y12.350
X30.738 Y12.684
X30.562 Y12.989
X30.326 Y13.251
X30.042 Y13.457
X29.720 Y13.600
X29.376 Y13.674
X29.024 Y13.674
G0 Z3.000
G0  X38.024 Y13.674
G0  Z3.000
G01 F400 Z0
G01 F400 Z-0.100
G01F400X37.680 Y13.600
X37.359 Y13.457
X37.074 Y13.251
X36.839 Y12.989
X36.663 Y12.684
X36.554 Y12.350
X36.517 Y12.000
X36.554 Y11.650
X36.663 Y11.316
X36.839 Y11.011
X37.074 Y10.750
X37.359 Y10.543
X37.680 Y10.400
X38.024 Y10.326
X38.376 Y10.326
X38.720 Y10.400
X39.042 Y10.543
X39.326 Y10.750
X39.562 Y11.011
X39.738 Y11.316
X39.846 Y11.650
X39.883 Y12.000
X39.846 Y12.350
X39.738 Y12.684
X39.562 Y12.989
X39.326 Y13.251
X39.042 Y13.457
X38.720 Y13.600
X38.376 Y13.674
X38.024 Y13.674
G0 Z3.000
G0  X12.024 Y13.674
G0  Z3.000
G01 F400 Z0
G01 F400 Z-0.100
G01F400X11.680 Y13.600
X11.359 Y13.457
X11.074 Y13.251
X10.839 Y12.989
X10.663 Y12.684
X10.554 Y12.350
X10.517 Y12.000
X10.554 Y11.650
X10.663 Y11.316
X10.839 Y11.011
X11.074 Y10.750
X11.359 Y10.543
X11.680 Y10.400
X12.024 Y10.326
X12.376 Y10.326
X12.720 Y10.400
X13.042 Y10.543
X13.326 Y10.750
X13.562 Y11.011
X13.738 Y11.316
X13.846 Y11.650
X13.883 Y12.000
X13.846 Y12.350
X13.738 Y12.684
X13.562 Y12.989
X13.326 Y13.251
X13.042 Y13.457
X12.720 Y13.600
X12.376 Y13.674
X12.024 Y13.674
G0 Z3.000
G0  X3.024 Y13.674
G0  Z3.000
G01 F400 Z0
G01 F400 Z-0.100
G01F400X2.680 Y13.600
X2.359 Y13.457
X2.074 Y13.251
X1.839 Y12.989
X1.663 Y12.684
X1.554 Y12.350
X1.517 Y12.000
X1.554 Y11.650
X1.663 Y11.316
X1.839 Y11.011
X2.074 Y10.750
X2.359 Y10.543
X2.680 Y10.400
X3.024 Y10.326
X3.376 Y10.326
X3.720 Y10.400
X4.042 Y10.543
X4.326 Y10.750
X4.562 Y11.011
X4.737 Y11.316
X4.846 Y11.650
X4.883 Y12.000
X4.846 Y12.350
X4.737 Y12.684
X4.562 Y12.989
X4.326 Y13.251
X4.042 Y13.457
X3.720 Y13.600
X3.376 Y13.674
X3.024 Y13.674
G0 Z3.000
G0  X51.024 Y13.674
G0  Z3.000
G01 F400 Z0
G01 F400 Z-0.100
G01F400X50.680 Y13.600
X50.359 Y13.457
X50.074 Y13.251
X49.839 Y12.989
X49.663 Y12.684
X49.554 Y12.350
X49.517 Y12.000
X49.554 Y11.650
X49.663 Y11.316
X49.839 Y11.011
X50.074 Y10.750
X50.359 Y10.543
X50.680 Y10.400
X51.024 Y10.326
X51.376 Y10.326
X51.720 Y10.400
X52.042 Y10.543
X52.326 Y10.750
X52.562 Y11.011
X52.738 Y11.316
X52.846 Y11.650
X52.883 Y12.000
X52.846 Y12.350
X52.738 Y12.684
X52.562 Y12.989
X52.326 Y13.251
X52.042 Y13.457
X51.720 Y13.600
X51.376 Y13.674
X51.024 Y13.674
G0 Z3.000
G0  X42.024 Y13.674
G0  Z3.000
G01 F400 Z0
G01 F400 Z-0.100
G01F400X41.680 Y13.600
X41.359 Y13.457
X41.074 Y13.251
X40.839 Y12.989
X40.663 Y12.684
X40.554 Y12.350
X40.517 Y12.000
X40.554 Y11.650
X40.663 Y11.316
X40.839 Y11.011
X41.074 Y10.750
X41.359 Y10.543
X41.680 Y10.400
X42.024 Y10.326
X42.376 Y10.326
X42.720 Y10.400
X43.042 Y10.543
X43.326 Y10.750
X43.562 Y11.011
X43.738 Y11.316
X43.846 Y11.650
X43.883 Y12.000
X43.846 Y12.350
X43.738 Y12.684
X43.562 Y12.989
X43.326 Y13.251
X43.042 Y13.457
X42.720 Y13.600
X42.376 Y13.674
X42.024 Y13.674
G0 Z3.000
G0  X20.843 Y6.017
G0  Z3.000
G01 F400 Z0
G01 F400 Z-0.100
G01F400X20.082 Y5.820
X19.683 Y5.143
X19.880 Y4.382
X20.557 Y3.983
X21.318 Y4.180
X21.718 Y4.857
X21.521 Y5.618
X20.843 Y6.017
G0 Z3.000
G0  X7.843 Y6.017
G0  Z3.000
G01 F400 Z0
G01 F400 Z-0.100
G01F400X7.082 Y5.820
X6.683 Y5.143
X6.880 Y4.382
X7.557 Y3.983
X8.318 Y4.180
X8.718 Y4.857
X8.521 Y5.618
X7.843 Y6.017
G0 Z3.000
G0  X33.843 Y6.017
G0  Z3.000
G01 F400 Z0
G01 F400 Z-0.100
G01F400X33.082 Y5.820
X32.683 Y5.143
X32.880 Y4.382
X33.557 Y3.983
X34.318 Y4.180
X34.718 Y4.857
X34.521 Y5.618
X33.843 Y6.017
G0 Z3.000
G0  X46.843 Y6.017
G0  Z3.000
G01 F400 Z0
G01 F400 Z-0.100
G01F400X46.082 Y5.820
X45.683 Y5.143
X45.880 Y4.382
X46.557 Y3.983
X47.318 Y4.180
X47.718 Y4.857
X47.521 Y5.618
X46.843 Y6.017
G0 Z3.000
G0  X26.346 Y61.556
G0  Z3.000
G01 F400 Z0
G01 F400 Z-0.100
G01F400X26.082 Y61.500
X25.836 Y61.391
X25.618 Y61.232
X25.438 Y61.032
X25.303 Y60.799
X25.220 Y60.542
X25.216 Y60.502
X25.144 Y60.722
X25.009 Y60.956
X24.829 Y61.156
X24.611 Y61.315
X24.365 Y61.424
X24.101 Y61.480
X23.832 Y61.480
X23.568 Y61.424
X23.322 Y61.315
X23.104 Y61.156
X22.923 Y60.956
X22.789 Y60.722
X22.705 Y60.466
X22.677 Y60.198
X22.705 Y59.930
X22.789 Y59.674
X22.923 Y59.440
X23.104 Y59.240
X23.322 Y59.082
X23.568 Y58.972
X23.832 Y58.916
X24.101 Y58.916
X24.365 Y58.972
X24.611 Y59.082
X24.829 Y59.240
X25.009 Y59.440
X25.144 Y59.674
X25.227 Y59.930
X25.231 Y59.970
X25.303 Y59.750
X25.438 Y59.517
X25.618 Y59.316
X25.836 Y59.158
X26.082 Y59.048
X26.346 Y58.992
X26.616 Y58.992
X26.879 Y59.048
X27.125 Y59.158
X27.343 Y59.316
X27.524 Y59.517
X27.659 Y59.750
X27.742 Y60.006
X27.770 Y60.274
X27.742 Y60.542
X27.659 Y60.799
X27.524 Y61.032
X27.343 Y61.232
X27.125 Y61.391
X26.879 Y61.500
X26.616 Y61.556
X26.346 Y61.556
G0 Z3.000
G0  X29.039 Y61.480
G0  Z3.000
G01 F400 Z0
G01 F400 Z-0.100
G01F400X28.775 Y61.424
X28.529 Y61.315
X28.311 Y61.156
X28.130 Y60.956
X27.995 Y60.722
X27.912 Y60.466
X27.884 Y60.198
X27.912 Y59.930
X27.995 Y59.674
X28.130 Y59.440
X28.311 Y59.240
X28.529 Y59.082
X28.775 Y58.972
X29.039 Y58.916
X29.308 Y58.916
X29.572 Y58.972
X29.818 Y59.082
X30.036 Y59.240
X30.216 Y59.440
X30.351 Y59.674
X30.434 Y59.930
X30.462 Y60.198
X30.434 Y60.466
X30.351 Y60.722
X30.216 Y60.956
X30.036 Y61.156
X29.818 Y61.315
X29.572 Y61.424
X29.308 Y61.480
X29.039 Y61.480
G0 Z3.000
G0  X5.696 Y61.404
G0  Z3.000
G01 F400 Z0
G01 F400 Z-0.100
G01F400X5.432 Y61.348
X5.186 Y61.238
X4.968 Y61.080
X4.788 Y60.880
X4.653 Y60.646
X4.570 Y60.390
X4.541 Y60.122
X4.570 Y59.854
X4.653 Y59.598
X4.788 Y59.364
X4.968 Y59.164
X5.186 Y59.005
X5.432 Y58.896
X5.448 Y58.892
X2.138 Y58.892
X2.005 Y58.878
X1.865 Y58.798
X1.368 Y58.301
X1.284 Y58.185
X1.253 Y58.037
X1.253 Y55.964
X1.284 Y55.815
X1.368 Y55.699
X8.252 Y48.816
X8.235 Y43.085
X8.036 Y42.997
X7.818 Y42.838
X7.637 Y42.638
X7.503 Y42.404
X7.419 Y42.148
X7.410 Y42.063
X7.401 Y42.148
X7.318 Y42.404
X7.183 Y42.638
X7.003 Y42.838
X6.785 Y42.997
X6.539 Y43.106
X6.332 Y43.150
X6.539 Y43.194
X6.785 Y43.303
X7.003 Y43.462
X7.183 Y43.662
X7.318 Y43.896
X7.401 Y44.152
X7.429 Y44.420
X7.401 Y44.688
X7.318 Y44.944
X7.183 Y45.178
X7.003 Y45.378
X6.785 Y45.537
X6.539 Y45.646
X6.275 Y45.702
X6.006 Y45.702
X5.742 Y45.646
X5.496 Y45.537
X5.278 Y45.378
X5.097 Y45.178
X4.963 Y44.944
X4.879 Y44.688
X4.851 Y44.420
X4.879 Y44.152
X4.963 Y43.896
X5.097 Y43.662
X5.278 Y43.462
X5.496 Y43.303
X5.742 Y43.194
X5.949 Y43.150
X5.742 Y43.106
X5.496 Y42.997
X5.278 Y42.838
X5.097 Y42.638
X4.963 Y42.404
X4.879 Y42.148
X4.870 Y42.063
X4.861 Y42.148
X4.778 Y42.404
X4.643 Y42.638
X4.463 Y42.838
X4.245 Y42.997
X3.999 Y43.106
X3.735 Y43.162
X3.466 Y43.162
X3.202 Y43.106
X2.956 Y42.997
X2.738 Y42.838
X2.557 Y42.638
X2.423 Y42.404
X2.339 Y42.148
X2.311 Y41.880
X2.339 Y41.612
X2.423 Y41.356
X2.557 Y41.122
X2.738 Y40.922
X2.956 Y40.764
X3.202 Y40.654
X3.466 Y40.598
X3.735 Y40.598
X3.999 Y40.654
X4.245 Y40.764
X4.463 Y40.922
X4.643 Y41.122
X4.778 Y41.356
X4.861 Y41.612
X4.870 Y41.698
X4.879 Y41.612
X4.963 Y41.356
X5.097 Y41.122
X5.278 Y40.922
X5.496 Y40.764
X5.742 Y40.654
X6.006 Y40.598
X6.275 Y40.598
X6.539 Y40.654
X6.785 Y40.764
X7.003 Y40.922
X7.183 Y41.122
X7.318 Y41.356
X7.401 Y41.612
X7.410 Y41.698
X7.419 Y41.612
X7.503 Y41.356
X7.637 Y41.122
X7.818 Y40.922
X8.036 Y40.764
X8.282 Y40.654
X8.546 Y40.598
X8.815 Y40.598
X9.079 Y40.654
X9.325 Y40.764
X9.543 Y40.922
X9.723 Y41.122
X9.858 Y41.356
X9.941 Y41.612
X9.950 Y41.698
X9.959 Y41.612
X10.043 Y41.356
X10.177 Y41.122
X10.358 Y40.922
X10.576 Y40.764
X10.822 Y40.654
X11.085 Y40.598
X11.355 Y40.598
X11.619 Y40.654
X11.865 Y40.764
X12.083 Y40.922
X12.263 Y41.122
X12.398 Y41.356
X12.481 Y41.612
X12.490 Y41.698
X12.499 Y41.612
X12.583 Y41.356
X12.717 Y41.122
X12.898 Y40.922
X13.116 Y40.764
X13.362 Y40.654
X13.626 Y40.598
X13.895 Y40.598
X14.159 Y40.654
X14.405 Y40.764
X14.623 Y40.922
X14.803 Y41.122
X14.938 Y41.356
X15.021 Y41.612
X15.030 Y41.698
X15.039 Y41.612
X15.123 Y41.356
X15.257 Y41.122
X15.438 Y40.922
X15.656 Y40.764
X15.902 Y40.654
X16.166 Y40.598
X16.435 Y40.598
X16.699 Y40.654
X16.945 Y40.764
X17.163 Y40.922
X17.343 Y41.122
X17.478 Y41.356
X17.561 Y41.612
X17.570 Y41.698
X17.579 Y41.612
X17.663 Y41.356
X17.797 Y41.122
X17.978 Y40.922
X18.196 Y40.764
X18.442 Y40.654
X18.706 Y40.598
X18.975 Y40.598
X19.239 Y40.654
X19.485 Y40.764
X19.703 Y40.922
X19.883 Y41.122
X20.018 Y41.356
X20.101 Y41.612
X20.110 Y41.698
X20.119 Y41.612
X20.203 Y41.356
X20.337 Y41.122
X20.518 Y40.922
X20.736 Y40.764
X20.982 Y40.654
X21.245 Y40.598
X21.515 Y40.598
X21.779 Y40.654
X22.025 Y40.764
X22.243 Y40.922
X22.423 Y41.122
X22.558 Y41.356
X22.641 Y41.612
X22.650 Y41.698
X22.659 Y41.612
X22.742 Y41.356
X22.877 Y41.122
X23.058 Y40.922
X23.276 Y40.764
X23.522 Y40.654
X23.786 Y40.598
X24.055 Y40.598
X24.319 Y40.654
X24.565 Y40.764
X24.783 Y40.922
X24.963 Y41.122
X25.098 Y41.356
X25.181 Y41.612
X25.190 Y41.698
X25.199 Y41.612
X25.283 Y41.356
X25.417 Y41.122
X25.598 Y40.922
X25.816 Y40.764
X26.062 Y40.654
X26.326 Y40.598
X26.595 Y40.598
X26.859 Y40.654
X27.105 Y40.764
X27.323 Y40.922
X27.503 Y41.122
X27.638 Y41.356
X27.721 Y41.612
X27.730 Y41.698
X27.739 Y41.612
X27.823 Y41.356
X27.957 Y41.122
X28.138 Y40.922
X28.356 Y40.764
X28.602 Y40.654
X28.866 Y40.598
X29.135 Y40.598
X29.399 Y40.654
X29.645 Y40.764
X29.863 Y40.922
X30.043 Y41.122
X30.178 Y41.356
X30.261 Y41.612
X30.270 Y41.698
X30.279 Y41.612
X30.363 Y41.356
X30.497 Y41.122
X30.678 Y40.922
X30.896 Y40.764
X31.142 Y40.654
X31.405 Y40.598
X31.675 Y40.598
X31.939 Y40.654
X32.185 Y40.764
X32.403 Y40.922
X32.583 Y41.122
X32.718 Y41.356
X32.801 Y41.612
X32.810 Y41.698
X32.819 Y41.612
X32.903 Y41.356
X33.037 Y41.122
X33.218 Y40.922
X33.436 Y40.764
X33.682 Y40.654
X33.946 Y40.598
X34.215 Y40.598
X34.479 Y40.654
X34.725 Y40.764
X34.943 Y40.922
X35.123 Y41.122
X35.258 Y41.356
X35.341 Y41.612
X35.350 Y41.698
X35.359 Y41.612
X35.443 Y41.356
X35.577 Y41.122
X35.758 Y40.922
X35.976 Y40.764
X36.222 Y40.654
X36.486 Y40.598
X36.755 Y40.598
X37.019 Y40.654
X37.265 Y40.764
X37.483 Y40.922
X37.663 Y41.122
X37.798 Y41.356
X37.881 Y41.612
X37.909 Y41.880
X37.881 Y42.148
X37.798 Y42.404
X37.663 Y42.638
X37.483 Y42.838
X37.265 Y42.997
X37.019 Y43.106
X36.812 Y43.150
X37.019 Y43.194
X37.265 Y43.303
X37.483 Y43.462
X37.663 Y43.662
X37.798 Y43.896
X37.881 Y44.152
X37.909 Y44.420
X37.881 Y44.688
X37.798 Y44.944
X37.663 Y45.178
X37.483 Y45.378
X37.265 Y45.537
X37.019 Y45.646
X36.812 Y45.690
X37.019 Y45.734
X37.265 Y45.843
X37.483 Y46.002
X37.663 Y46.202
X37.798 Y46.436
X37.881 Y46.692
X37.909 Y46.960
X37.881 Y47.228
X37.798 Y47.484
X37.663 Y47.718
X37.483 Y47.918
X37.265 Y48.077
X37.019 Y48.186
X36.812 Y48.230
X37.019 Y48.274
X37.265 Y48.384
X37.483 Y48.542
X37.637 Y48.714
X39.688 Y46.663
X39.688 Y28.182
X39.477 Y28.417
X39.154 Y28.652
X38.790 Y28.814
X38.400 Y28.897
X38.001 Y28.897
X37.611 Y28.814
X37.247 Y28.652
X36.924 Y28.417
X36.657 Y28.121
X36.458 Y27.776
X36.334 Y27.397
X36.293 Y27.000
X36.334 Y26.603
X36.458 Y26.224
X36.657 Y25.879
X36.924 Y25.583
X37.247 Y25.348
X37.611 Y25.186
X38.001 Y25.103
X38.400 Y25.103
X38.790 Y25.186
X39.154 Y25.348
X39.477 Y25.583
X39.688 Y25.818
X39.688 Y24.197
X19.711 Y24.197
X8.826 Y24.193
X8.670 Y24.102
X5.659 Y21.091
X5.377 Y21.257
X4.437 Y21.014
X3.944 Y20.177
X4.187 Y19.236
X4.753 Y18.903
X4.753 Y13.105
X4.743 Y13.121
X4.477 Y13.417
X4.154 Y13.652
X3.790 Y13.814
X3.400 Y13.897
X3.001 Y13.897
X2.611 Y13.814
X2.247 Y13.652
X1.924 Y13.417
X1.657 Y13.121
X1.458 Y12.776
X1.335 Y12.397
X1.293 Y12.000
X1.335 Y11.603
X1.458 Y11.224
X1.657 Y10.879
X1.924 Y10.583
X2.247 Y10.348
X2.611 Y10.186
X3.001 Y10.103
X3.400 Y10.103
X3.790 Y10.186
X4.154 Y10.348
X4.477 Y10.583
X4.743 Y10.879
X4.753 Y10.895
X4.753 Y6.095
X4.437 Y6.014
X3.944 Y5.177
X4.187 Y4.236
X5.024 Y3.743
X5.964 Y3.987
X6.457 Y4.823
X6.214 Y5.764
X5.648 Y6.097
X5.648 Y6.553
X17.756 Y6.553
X17.753 Y6.537
X17.753 Y6.095
X17.437 Y6.014
X16.944 Y5.177
X17.187 Y4.236
X18.024 Y3.743
X18.964 Y3.987
X19.457 Y4.823
X19.214 Y5.764
X18.646 Y6.098
X18.646 Y6.313
X18.885 Y6.553
X30.514 Y6.553
X30.753 Y6.315
X30.753 Y6.095
X30.437 Y6.014
X29.944 Y5.177
X30.187 Y4.236
X31.024 Y3.743
X31.964 Y3.987
X32.457 Y4.823
X32.214 Y5.764
X31.646 Y6.098
X31.646 Y6.553
X42.014 Y6.553
X43.109 Y5.458
X42.944 Y5.177
X43.187 Y4.236
X44.024 Y3.743
X44.964 Y3.987
X45.457 Y4.823
X45.214 Y5.764
X44.377 Y6.257
X43.740 Y6.092
X42.520 Y7.311
X42.428 Y7.394
X42.266 Y7.447
X5.648 Y7.447
X5.646 Y18.904
X5.964 Y18.986
X6.457 Y19.823
X6.292 Y20.460
X9.134 Y23.303
X18.621 Y23.303
X17.868 Y22.551
X17.784 Y22.435
X17.753 Y22.287
X17.753 Y21.095
X17.437 Y21.014
X16.944 Y20.177
X17.187 Y19.236
X18.024 Y18.743
X18.964 Y18.986
X19.457 Y19.823
X19.214 Y20.764
X18.647 Y21.098
X18.646 Y22.063
X19.885 Y23.303
X30.514 Y23.303
X30.753 Y23.065
X30.753 Y21.095
X30.437 Y21.014
X29.944 Y20.177
X30.187 Y19.236
X31.024 Y18.743
X31.964 Y18.986
X32.457 Y19.823
X32.214 Y20.764
X31.647 Y21.098
X31.645 Y23.303
X40.264 Y23.303
X43.109 Y20.458
X42.944 Y20.177
X43.187 Y19.236
X44.024 Y18.743
X44.964 Y18.986
X45.457 Y19.823
X45.214 Y20.764
X44.377 Y21.257
X43.741 Y21.092
X40.762 Y24.071
X40.583 Y24.247
X40.583 Y26.007
X40.657 Y25.879
X40.924 Y25.583
X41.247 Y25.348
X41.611 Y25.186
X42.001 Y25.103
X42.400 Y25.103
X42.790 Y25.186
X43.154 Y25.348
X43.477 Y25.583
X43.743 Y25.879
X43.943 Y26.224
X44.066 Y26.603
X44.108 Y27.000
X44.066 Y27.397
X43.943 Y27.776
X43.743 Y28.121
X43.477 Y28.417
X43.154 Y28.652
X42.790 Y28.814
X42.400 Y28.897
X42.001 Y28.897
X41.611 Y28.814
X41.247 Y28.652
X40.924 Y28.417
X40.657 Y28.121
X40.583 Y27.993
X40.582 Y35.147
X40.652 Y35.050
X48.753 Y26.950
X48.753 Y21.172
X48.028 Y21.172
X48.028 Y18.828
X48.753 Y18.828
X48.753 Y18.447
X37.147 Y18.447
X37.147 Y18.828
X37.373 Y18.828
X37.373 Y21.172
X35.028 Y21.172
X35.028 Y18.828
X36.253 Y18.828
X36.253 Y18.447
X23.147 Y18.447
X23.146 Y18.828
X24.373 Y18.828
X24.373 Y21.172
X22.028 Y21.172
X22.028 Y18.828
X22.253 Y18.828
X22.253 Y18.447
X11.886 Y18.447
X11.373 Y18.958
X11.373 Y21.172
X9.028 Y21.172
X9.028 Y18.828
X10.240 Y18.828
X11.433 Y17.634
X11.616 Y17.553
X48.753 Y17.553
X48.753 Y6.173
X48.028 Y6.173
X48.028 Y4.460
X47.015 Y3.447
X37.159 Y3.443
X37.159 Y3.447
X36.828 Y3.447
X36.647 Y3.663
X36.647 Y3.828
X37.373 Y3.828
X37.373 Y6.173
X35.028 Y6.173
X35.028 Y3.828
X35.753 Y3.828
X35.753 Y3.464
X35.756 Y3.447
X23.648 Y3.447
X23.647 Y3.828
X24.373 Y3.828
X24.373 Y6.173
X22.028 Y6.173
X22.028 Y3.828
X22.753 Y3.828
X22.753 Y3.685
X22.515 Y3.447
X12.317 Y3.443
X11.373 Y4.423
X11.373 Y6.173
X9.028 Y6.173
X9.028 Y3.828
X10.740 Y3.828
X11.920 Y2.648
X12.060 Y2.567
X12.193 Y2.553
X47.284 Y2.553
X47.467 Y2.635
X48.659 Y3.828
X50.373 Y3.828
X50.373 Y6.173
X49.648 Y6.173
X49.648 Y10.895
X49.657 Y10.879
X49.924 Y10.583
X50.247 Y10.348
X50.611 Y10.186
X51.001 Y10.103
X51.400 Y10.103
X51.790 Y10.186
X52.154 Y10.348
X52.477 Y10.583
X52.743 Y10.879
X52.943 Y11.224
X53.066 Y11.603
X53.108 Y12.000
X53.066 Y12.397
X52.943 Y12.776
X52.743 Y13.121
X52.477 Y13.417
X52.154 Y13.652
X51.790 Y13.814
X51.400 Y13.897
X51.001 Y13.897
X50.611 Y13.814
X50.247 Y13.652
X49.924 Y13.417
X49.657 Y13.121
X49.648 Y13.105
X49.648 Y18.828
X50.373 Y18.828
X50.373 Y21.172
X49.647 Y21.172
X49.646 Y25.898
X49.657 Y25.879
X49.924 Y25.583
X50.247 Y25.348
X50.611 Y25.186
X51.001 Y25.103
X51.400 Y25.103
X51.790 Y25.186
X52.154 Y25.348
X52.477 Y25.583
X52.743 Y25.879
X52.943 Y26.224
X53.066 Y26.603
X53.108 Y27.000
X53.066 Y27.397
X52.943 Y27.776
X52.743 Y28.121
X52.477 Y28.417
X52.154 Y28.652
X51.790 Y28.814
X51.400 Y28.897
X51.001 Y28.897
X50.611 Y28.814
X50.247 Y28.652
X49.924 Y28.417
X49.657 Y28.121
X49.458 Y27.776
X49.393 Y27.575
X41.432 Y35.532
X41.430 Y56.045
X41.329 Y56.219
X38.790 Y58.756
X38.697 Y58.840
X38.535 Y58.892
X21.758 Y58.892
X21.774 Y58.896
X22.020 Y59.005
X22.238 Y59.164
X22.418 Y59.364
X22.553 Y59.598
X22.636 Y59.854
X22.665 Y60.122
X22.636 Y60.390
X22.553 Y60.646
X22.418 Y60.880
X22.238 Y61.080
X22.020 Y61.238
X21.774 Y61.348
X21.510 Y61.404
X21.241 Y61.404
X20.977 Y61.348
X20.731 Y61.238
X20.513 Y61.080
X20.332 Y60.880
X20.198 Y60.646
X20.114 Y60.390
X20.086 Y60.122
X20.114 Y59.854
X20.198 Y59.598
X20.332 Y59.364
X20.513 Y59.164
X20.731 Y59.005
X20.977 Y58.896
X20.993 Y58.892
X19.167 Y58.892
X19.183 Y58.896
X19.429 Y59.005
X19.647 Y59.164
X19.828 Y59.364
X19.962 Y59.598
X20.046 Y59.854
X20.074 Y60.122
X20.046 Y60.390
X19.962 Y60.646
X19.828 Y60.880
X19.647 Y61.080
X19.429 Y61.238
X19.183 Y61.348
X18.919 Y61.404
X18.650 Y61.404
X18.386 Y61.348
X18.140 Y61.238
X17.922 Y61.080
X17.742 Y60.880
X17.607 Y60.646
X17.524 Y60.390
X17.495 Y60.122
X17.524 Y59.854
X17.607 Y59.598
X17.742 Y59.364
X17.922 Y59.164
X18.140 Y59.005
X18.386 Y58.896
X18.402 Y58.892
X16.576 Y58.892
X16.592 Y58.896
X16.838 Y59.005
X17.056 Y59.164
X17.237 Y59.364
X17.372 Y59.598
X17.455 Y59.854
X17.483 Y60.122
X17.455 Y60.390
X17.372 Y60.646
X17.237 Y60.880
X17.056 Y61.080
X16.838 Y61.238
X16.592 Y61.348
X16.329 Y61.404
X16.059 Y61.404
X15.795 Y61.348
X15.549 Y61.238
X15.331 Y61.080
X15.151 Y60.880
X15.016 Y60.646
X14.933 Y60.390
X14.905 Y60.122
X14.933 Y59.854
X15.016 Y59.598
X15.151 Y59.364
X15.331 Y59.164
X15.549 Y59.005
X15.795 Y58.896
X15.811 Y58.892
X13.985 Y58.892
X14.001 Y58.896
X14.248 Y59.005
X14.466 Y59.164
X14.646 Y59.364
X14.781 Y59.598
X14.864 Y59.854
X14.892 Y60.122
X14.864 Y60.390
X14.781 Y60.646
X14.646 Y60.880
X14.466 Y61.080
X14.248 Y61.238
X14.001 Y61.348
X13.738 Y61.404
X13.468 Y61.404
X13.205 Y61.348
X12.958 Y61.238
X12.740 Y61.080
X12.560 Y60.880
X12.425 Y60.646
X12.342 Y60.390
X12.314 Y60.122
X12.342 Y59.854
X12.425 Y59.598
X12.560 Y59.364
X12.740 Y59.164
X12.958 Y59.005
X13.205 Y58.896
X13.221 Y58.892
X11.395 Y58.892
X11.411 Y58.896
X11.657 Y59.005
X11.875 Y59.164
X12.055 Y59.364
X12.190 Y59.598
X12.273 Y59.854
X12.301 Y60.122
X12.273 Y60.390
X12.190 Y60.646
X12.055 Y60.880
X11.875 Y61.080
X11.657 Y61.238
X11.411 Y61.348
X11.147 Y61.404
X10.878 Y61.404
X10.614 Y61.348
X10.368 Y61.238
X10.150 Y61.080
X9.969 Y60.880
X9.835 Y60.646
X9.751 Y60.390
X9.723 Y60.122
X9.751 Y59.854
X9.835 Y59.598
X9.969 Y59.364
X10.150 Y59.164
X10.368 Y59.005
X10.614 Y58.896
X10.630 Y58.892
X8.804 Y58.892
X8.820 Y58.896
X9.066 Y59.005
X9.284 Y59.164
X9.464 Y59.364
X9.599 Y59.598
X9.682 Y59.854
X9.711 Y60.122
X9.682 Y60.390
X9.599 Y60.646
X9.464 Y60.880
X9.284 Y61.080
X9.066 Y61.238
X8.820 Y61.348
X8.556 Y61.404
X8.287 Y61.404
X8.023 Y61.348
X7.777 Y61.238
X7.559 Y61.080
X7.378 Y60.880
X7.244 Y60.646
X7.160 Y60.390
X7.132 Y60.122
X7.160 Y59.854
X7.244 Y59.598
X7.378 Y59.364
X7.559 Y59.164
X7.777 Y59.005
X8.023 Y58.896
X8.039 Y58.892
X6.213 Y58.892
X6.229 Y58.896
X6.475 Y59.005
X6.693 Y59.164
X6.874 Y59.364
X7.008 Y59.598
X7.092 Y59.854
X7.120 Y60.122
X7.092 Y60.390
X7.008 Y60.646
X6.874 Y60.880
X6.693 Y61.080
X6.475 Y61.238
X6.229 Y61.348
X5.965 Y61.404
X5.696 Y61.404
G0 Z3.000
G0  X52.026 Y58.432
G0  Z3.000
G01 F400 Z0
G01 F400 Z-0.100
G01F400X51.762 Y58.376
X51.516 Y58.267
X51.298 Y58.108
X51.117 Y57.908
X50.983 Y57.674
X50.899 Y57.418
X50.871 Y57.150
X50.899 Y56.882
X50.983 Y56.626
X51.117 Y56.392
X51.298 Y56.192
X51.516 Y56.034
X51.762 Y55.924
X52.026 Y55.868
X52.295 Y55.868
X52.559 Y55.924
X52.805 Y56.034
X53.023 Y56.192
X53.203 Y56.392
X53.338 Y56.626
X53.421 Y56.882
X53.449 Y57.150
X53.421 Y57.418
X53.338 Y57.674
X53.203 Y57.908
X53.023 Y58.108
X52.805 Y58.267
X52.559 Y58.376
X52.295 Y58.432
X52.026 Y58.432
G0 Z3.000
G0  X44.406 Y58.432
G0  Z3.000
G01 F400 Z0
G01 F400 Z-0.100
G01F400X44.142 Y58.376
X43.896 Y58.267
X43.678 Y58.108
X43.497 Y57.908
X43.363 Y57.674
X43.279 Y57.418
X43.251 Y57.150
X43.279 Y56.882
X43.363 Y56.626
X43.497 Y56.392
X43.678 Y56.192
X43.896 Y56.034
X44.142 Y55.924
X44.406 Y55.868
X44.675 Y55.868
X44.939 Y55.924
X45.185 Y56.034
X45.403 Y56.192
X45.583 Y56.392
X45.718 Y56.626
X45.801 Y56.882
X45.829 Y57.150
X45.801 Y57.418
X45.718 Y57.674
X45.583 Y57.908
X45.403 Y58.108
X45.185 Y58.267
X44.939 Y58.376
X44.675 Y58.432
X44.406 Y58.432
G0 Z3.000
G0  X48.216 Y58.432
G0  Z3.000
G01 F400 Z0
G01 F400 Z-0.100
G01F400X47.952 Y58.376
X47.706 Y58.267
X47.488 Y58.108
X47.307 Y57.908
X47.172 Y57.674
X47.089 Y57.418
X47.061 Y57.150
X47.089 Y56.882
X47.172 Y56.626
X47.307 Y56.392
X47.488 Y56.192
X47.706 Y56.034
X47.952 Y55.924
X48.216 Y55.868
X48.485 Y55.868
X48.749 Y55.924
X48.995 Y56.034
X49.213 Y56.192
X49.393 Y56.392
X49.528 Y56.626
X49.611 Y56.882
X49.639 Y57.150
X49.611 Y57.418
X49.528 Y57.674
X49.393 Y57.908
X49.213 Y58.108
X48.995 Y58.267
X48.749 Y58.376
X48.485 Y58.432
X48.216 Y58.432
G0 Z3.000
G0  X2.330 Y57.998
G0  Z3.000
G01 F400 Z0
G01 F400 Z-0.100
G01F400X2.666 Y57.998
X2.557 Y57.878
X2.423 Y57.644
X2.339 Y57.388
X2.311 Y57.120
X2.339 Y56.852
X2.423 Y56.596
X2.557 Y56.362
X2.738 Y56.162
X2.956 Y56.004
X3.202 Y55.894
X3.466 Y55.838
X3.735 Y55.838
X3.999 Y55.894
X4.134 Y55.954
X10.940 Y49.148
X11.080 Y49.067
X11.213 Y49.053
X35.417 Y49.053
X35.443 Y48.976
X35.577 Y48.742
X35.758 Y48.542
X35.976 Y48.384
X36.222 Y48.274
X36.428 Y48.230
X36.222 Y48.186
X35.976 Y48.077
X35.758 Y47.918
X35.577 Y47.718
X35.443 Y47.484
X35.359 Y47.228
X35.331 Y46.960
X35.359 Y46.692
X35.443 Y46.436
X35.577 Y46.202
X35.758 Y46.002
X35.976 Y45.843
X36.222 Y45.734
X36.428 Y45.690
X36.222 Y45.646
X35.976 Y45.537
X35.758 Y45.378
X35.577 Y45.178
X35.443 Y44.944
X35.359 Y44.688
X35.331 Y44.420
X35.359 Y44.152
X35.443 Y43.896
X35.577 Y43.662
X35.758 Y43.462
X35.976 Y43.303
X36.222 Y43.194
X36.428 Y43.150
X36.222 Y43.106
X35.976 Y42.997
X35.758 Y42.838
X35.577 Y42.638
X35.443 Y42.404
X35.359 Y42.148
X35.350 Y42.063
X35.341 Y42.148
X35.258 Y42.404
X35.123 Y42.638
X34.943 Y42.838
X34.725 Y42.997
X34.479 Y43.106
X34.215 Y43.162
X33.946 Y43.162
X33.682 Y43.106
X33.436 Y42.997
X33.218 Y42.838
X33.037 Y42.638
X32.903 Y42.404
X32.819 Y42.148
X32.810 Y42.063
X32.801 Y42.148
X32.718 Y42.404
X32.583 Y42.638
X32.403 Y42.838
X32.185 Y42.997
X31.939 Y43.106
X31.675 Y43.162
X31.405 Y43.162
X31.142 Y43.106
X30.896 Y42.997
X30.678 Y42.838
X30.497 Y42.638
X30.363 Y42.404
X30.279 Y42.148
X30.270 Y42.063
X30.261 Y42.148
X30.178 Y42.404
X30.043 Y42.638
X29.863 Y42.838
X29.645 Y42.997
X29.399 Y43.106
X29.135 Y43.162
X28.866 Y43.162
X28.602 Y43.106
X28.356 Y42.997
X28.138 Y42.838
X27.957 Y42.638
X27.823 Y42.404
X27.739 Y42.148
X27.730 Y42.063
X27.721 Y42.148
X27.638 Y42.404
X27.503 Y42.638
X27.323 Y42.838
X27.105 Y42.997
X26.859 Y43.106
X26.595 Y43.162
X26.326 Y43.162
X26.062 Y43.106
X25.816 Y42.997
X25.598 Y42.838
X25.417 Y42.638
X25.283 Y42.404
X25.199 Y42.148
X25.190 Y42.063
X25.181 Y42.148
X25.098 Y42.404
X24.963 Y42.638
X24.783 Y42.838
X24.565 Y42.997
X24.319 Y43.106
X24.055 Y43.162
X23.786 Y43.162
X23.522 Y43.106
X23.276 Y42.997
X23.058 Y42.838
X22.877 Y42.638
X22.742 Y42.404
X22.659 Y42.148
X22.650 Y42.063
X22.641 Y42.148
X22.558 Y42.404
X22.423 Y42.638
X22.243 Y42.838
X22.025 Y42.997
X21.779 Y43.106
X21.515 Y43.162
X21.245 Y43.162
X20.982 Y43.106
X20.736 Y42.997
X20.518 Y42.838
X20.337 Y42.638
X20.203 Y42.404
X20.119 Y42.148
X20.110 Y42.063
X20.101 Y42.148
X20.018 Y42.404
X19.883 Y42.638
X19.703 Y42.838
X19.485 Y42.997
X19.239 Y43.106
X18.975 Y43.162
X18.706 Y43.162
X18.442 Y43.106
X18.196 Y42.997
X17.978 Y42.838
X17.797 Y42.638
X17.663 Y42.404
X17.579 Y42.148
X17.570 Y42.063
X17.561 Y42.148
X17.478 Y42.404
X17.343 Y42.638
X17.163 Y42.838
X16.945 Y42.997
X16.699 Y43.106
X16.492 Y43.150
X16.699 Y43.194
X16.945 Y43.303
X17.163 Y43.462
X17.343 Y43.662
X17.478 Y43.896
X17.561 Y44.152
X17.589 Y44.420
X17.561 Y44.688
X17.478 Y44.944
X17.343 Y45.178
X17.163 Y45.378
X16.945 Y45.537
X16.699 Y45.646
X16.435 Y45.702
X16.166 Y45.702
X15.902 Y45.646
X15.656 Y45.537
X15.438 Y45.378
X15.257 Y45.178
X15.123 Y44.944
X15.039 Y44.688
X15.030 Y44.602
X15.021 Y44.688
X14.938 Y44.944
X14.803 Y45.178
X14.623 Y45.378
X14.405 Y45.537
X14.159 Y45.646
X13.895 Y45.702
X13.626 Y45.702
X13.362 Y45.646
X13.116 Y45.537
X12.898 Y45.378
X12.717 Y45.178
X12.583 Y44.944
X12.499 Y44.688
X12.490 Y44.602
X12.481 Y44.688
X12.398 Y44.944
X12.263 Y45.178
X12.083 Y45.378
X11.865 Y45.537
X11.619 Y45.646
X11.355 Y45.702
X11.085 Y45.702
X10.822 Y45.646
X10.576 Y45.537
X10.358 Y45.378
X10.177 Y45.178
X10.043 Y44.944
X9.959 Y44.688
X9.931 Y44.420
X9.959 Y44.152
X10.043 Y43.896
X10.177 Y43.662
X10.358 Y43.462
X10.576 Y43.303
X10.822 Y43.194
X11.029 Y43.150
X10.822 Y43.106
X10.576 Y42.997
X10.358 Y42.838
X10.177 Y42.638
X10.043 Y42.404
X9.959 Y42.148
X9.950 Y42.063
X9.941 Y42.148
X9.858 Y42.404
X9.723 Y42.638
X9.543 Y42.838
X9.325 Y42.997
X9.147 Y43.076
X9.146 Y49.114
X9.045 Y49.288
X2.147 Y56.181
X2.146 Y57.813
X2.330 Y57.998
G0 Z3.000
G0  X4.534 Y57.998
G0  Z3.000
G01 F400 Z0
G01 F400 Z-0.100
G01F400X5.206 Y57.998
X5.097 Y57.878
X4.963 Y57.644
X4.879 Y57.388
X4.870 Y57.303
X4.861 Y57.388
X4.778 Y57.644
X4.643 Y57.878
X4.534 Y57.998
G0 Z3.000
G0  X7.074 Y57.998
G0  Z3.000
G01 F400 Z0
G01 F400 Z-0.100
G01F400X7.746 Y57.998
X7.637 Y57.878
X7.503 Y57.644
X7.419 Y57.388
X7.410 Y57.303
X7.401 Y57.388
X7.318 Y57.644
X7.183 Y57.878
X7.074 Y57.998
G0 Z3.000
G0  X9.614 Y57.998
G0  Z3.000
G01 F400 Z0
G01 F400 Z-0.100
G01F400X10.286 Y57.998
X10.177 Y57.878
X10.043 Y57.644
X9.959 Y57.388
X9.950 Y57.303
X9.941 Y57.388
X9.858 Y57.644
X9.723 Y57.878
X9.614 Y57.998
G0 Z3.000
G0  X12.154 Y57.998
G0  Z3.000
G01 F400 Z0
G01 F400 Z-0.100
G01F400X12.826 Y57.998
X12.717 Y57.878
X12.583 Y57.644
X12.499 Y57.388
X12.490 Y57.303
X12.481 Y57.388
X12.398 Y57.644
X12.263 Y57.878
X12.154 Y57.998
G0 Z3.000
G0  X14.694 Y57.998
G0  Z3.000
G01 F400 Z0
G01 F400 Z-0.100
G01F400X15.366 Y57.998
X15.257 Y57.878
X15.123 Y57.644
X15.039 Y57.388
X15.030 Y57.303
X15.021 Y57.388
X14.938 Y57.644
X14.803 Y57.878
X14.694 Y57.998
G0 Z3.000
G0  X17.234 Y57.998
G0  Z3.000
G01 F400 Z0
G01 F400 Z-0.100
G01F400X17.906 Y57.998
X17.797 Y57.878
X17.663 Y57.644
X17.579 Y57.388
X17.570 Y57.303
X17.561 Y57.388
X17.478 Y57.644
X17.343 Y57.878
X17.234 Y57.998
G0 Z3.000
G0  X19.774 Y57.998
G0  Z3.000
G01 F400 Z0
G01 F400 Z-0.100
G01F400X20.446 Y57.998
X20.337 Y57.878
X20.203 Y57.644
X20.119 Y57.388
X20.110 Y57.303
X20.101 Y57.388
X20.018 Y57.644
X19.883 Y57.878
X19.774 Y57.998
G0 Z3.000
G0  X22.314 Y57.998
G0  Z3.000
G01 F400 Z0
G01 F400 Z-0.100
G01F400X22.986 Y57.998
X22.877 Y57.878
X22.742 Y57.644
X22.659 Y57.388
X22.650 Y57.303
X22.641 Y57.388
X22.558 Y57.644
X22.423 Y57.878
X22.314 Y57.998
G0 Z3.000
G0  X24.854 Y57.998
G0  Z3.000
G01 F400 Z0
G01 F400 Z-0.100
G01F400X25.526 Y57.998
X25.417 Y57.878
X25.283 Y57.644
X25.199 Y57.388
X25.190 Y57.303
X25.181 Y57.388
X25.098 Y57.644
X24.963 Y57.878
X24.854 Y57.998
G0 Z3.000
G0  X27.394 Y57.998
G0  Z3.000
G01 F400 Z0
G01 F400 Z-0.100
G01F400X28.066 Y57.998
X27.957 Y57.878
X27.823 Y57.644
X27.739 Y57.388
X27.730 Y57.303
X27.721 Y57.388
X27.638 Y57.644
X27.503 Y57.878
X27.394 Y57.998
G0 Z3.000
G0  X29.934 Y57.998
G0  Z3.000
G01 F400 Z0
G01 F400 Z-0.100
G01F400X30.606 Y57.998
X30.497 Y57.878
X30.363 Y57.644
X30.279 Y57.388
X30.270 Y57.303
X30.261 Y57.388
X30.178 Y57.644
X30.043 Y57.878
X29.934 Y57.998
G0 Z3.000
G0  X32.474 Y57.998
G0  Z3.000
G01 F400 Z0
G01 F400 Z-0.100
G01F400X33.146 Y57.998
X33.037 Y57.878
X32.903 Y57.644
X32.819 Y57.388
X32.810 Y57.303
X32.801 Y57.388
X32.718 Y57.644
X32.583 Y57.878
X32.474 Y57.998
G0 Z3.000
G0  X35.014 Y57.998
G0  Z3.000
G01 F400 Z0
G01 F400 Z-0.100
G01F400X35.686 Y57.998
X35.577 Y57.878
X35.443 Y57.644
X35.359 Y57.388
X35.350 Y57.303
X35.341 Y57.388
X35.258 Y57.644
X35.123 Y57.878
X35.014 Y57.998
G0 Z3.000
G0  X37.554 Y57.998
G0  Z3.000
G01 F400 Z0
G01 F400 Z-0.100
G01F400X38.284 Y57.998
X40.537 Y55.746
X40.537 Y47.039
X40.481 Y47.136
X37.885 Y49.730
X37.881 Y49.768
X37.798 Y50.024
X37.663 Y50.258
X37.483 Y50.458
X37.265 Y50.617
X37.019 Y50.726
X36.812 Y50.770
X37.019 Y50.814
X37.265 Y50.924
X37.483 Y51.082
X37.663 Y51.282
X37.798 Y51.516
X37.881 Y51.772
X37.909 Y52.040
X37.881 Y52.308
X37.798 Y52.564
X37.663 Y52.798
X37.483 Y52.998
X37.265 Y53.157
X37.019 Y53.266
X36.812 Y53.310
X37.019 Y53.354
X37.265 Y53.464
X37.483 Y53.622
X37.663 Y53.822
X37.798 Y54.056
X37.881 Y54.312
X37.909 Y54.580
X37.881 Y54.848
X37.798 Y55.104
X37.663 Y55.338
X37.483 Y55.538
X37.265 Y55.697
X37.019 Y55.806
X36.812 Y55.850
X37.019 Y55.894
X37.265 Y56.004
X37.483 Y56.162
X37.663 Y56.362
X37.798 Y56.596
X37.881 Y56.852
X37.909 Y57.120
X37.881 Y57.388
X37.798 Y57.644
X37.663 Y57.878
X37.554 Y57.998
G0 Z3.000
G0  X4.870 Y56.938
G0  Z3.000
G01 F400 Z0
G01 F400 Z-0.100
G01F400X4.879 Y56.852
X4.963 Y56.596
X5.097 Y56.362
X5.278 Y56.162
X5.496 Y56.004
X5.742 Y55.894
X6.006 Y55.838
X6.275 Y55.838
X6.539 Y55.894
X6.785 Y56.004
X7.003 Y56.162
X7.183 Y56.362
X7.318 Y56.596
X7.401 Y56.852
X7.410 Y56.938
X7.419 Y56.852
X7.503 Y56.596
X7.637 Y56.362
X7.818 Y56.162
X8.036 Y56.004
X8.282 Y55.894
X8.546 Y55.838
X8.815 Y55.838
X9.079 Y55.894
X9.325 Y56.004
X9.543 Y56.162
X9.723 Y56.362
X9.858 Y56.596
X9.941 Y56.852
X9.950 Y56.938
X9.959 Y56.852
X10.043 Y56.596
X10.177 Y56.362
X10.358 Y56.162
X10.576 Y56.004
X10.822 Y55.894
X11.085 Y55.838
X11.355 Y55.838
X11.619 Y55.894
X11.865 Y56.004
X12.083 Y56.162
X12.263 Y56.362
X12.398 Y56.596
X12.481 Y56.852
X12.490 Y56.938
X12.499 Y56.852
X12.583 Y56.596
X12.717 Y56.362
X12.898 Y56.162
X13.116 Y56.004
X13.362 Y55.894
X13.626 Y55.838
X13.895 Y55.838
X14.159 Y55.894
X14.405 Y56.004
X14.623 Y56.162
X14.803 Y56.362
X14.938 Y56.596
X15.021 Y56.852
X15.030 Y56.938
X15.039 Y56.852
X15.123 Y56.596
X15.257 Y56.362
X15.438 Y56.162
X15.656 Y56.004
X15.902 Y55.894
X16.166 Y55.838
X16.435 Y55.838
X16.699 Y55.894
X16.945 Y56.004
X17.163 Y56.162
X17.343 Y56.362
X17.478 Y56.596
X17.561 Y56.852
X17.570 Y56.938
X17.579 Y56.852
X17.663 Y56.596
X17.797 Y56.362
X17.978 Y56.162
X18.196 Y56.004
X18.442 Y55.894
X18.706 Y55.838
X18.975 Y55.838
X19.239 Y55.894
X19.485 Y56.004
X19.703 Y56.162
X19.883 Y56.362
X20.018 Y56.596
X20.101 Y56.852
X20.110 Y56.938
X20.119 Y56.852
X20.203 Y56.596
X20.337 Y56.362
X20.518 Y56.162
X20.736 Y56.004
X20.982 Y55.894
X21.245 Y55.838
X21.515 Y55.838
X21.779 Y55.894
X22.025 Y56.004
X22.243 Y56.162
X22.423 Y56.362
X22.558 Y56.596
X22.641 Y56.852
X22.650 Y56.938
X22.659 Y56.852
X22.742 Y56.596
X22.877 Y56.362
X23.058 Y56.162
X23.276 Y56.004
X23.522 Y55.894
X23.786 Y55.838
X24.055 Y55.838
X24.319 Y55.894
X24.565 Y56.004
X24.783 Y56.162
X24.963 Y56.362
X25.098 Y56.596
X25.181 Y56.852
X25.190 Y56.938
X25.199 Y56.852
X25.283 Y56.596
X25.417 Y56.362
X25.598 Y56.162
X25.816 Y56.004
X26.062 Y55.894
X26.326 Y55.838
X26.595 Y55.838
X26.859 Y55.894
X27.105 Y56.004
X27.323 Y56.162
X27.503 Y56.362
X27.638 Y56.596
X27.721 Y56.852
X27.730 Y56.938
X27.739 Y56.852
X27.823 Y56.596
X27.957 Y56.362
X28.138 Y56.162
X28.356 Y56.004
X28.602 Y55.894
X28.866 Y55.838
X29.135 Y55.838
X29.399 Y55.894
X29.645 Y56.004
X29.863 Y56.162
X30.043 Y56.362
X30.178 Y56.596
X30.261 Y56.852
X30.270 Y56.938
X30.279 Y56.852
X30.363 Y56.596
X30.497 Y56.362
X30.678 Y56.162
X30.896 Y56.004
X31.142 Y55.894
X31.405 Y55.838
X31.675 Y55.838
X31.939 Y55.894
X32.185 Y56.004
X32.403 Y56.162
X32.583 Y56.362
X32.718 Y56.596
X32.801 Y56.852
X32.810 Y56.938
X32.819 Y56.852
X32.903 Y56.596
X33.037 Y56.362
X33.218 Y56.162
X33.436 Y56.004
X33.682 Y55.894
X33.946 Y55.838
X34.215 Y55.838
X34.479 Y55.894
X34.725 Y56.004
X34.943 Y56.162
X35.123 Y56.362
X35.258 Y56.596
X35.341 Y56.852
X35.350 Y56.938
X35.359 Y56.852
X35.443 Y56.596
X35.577 Y56.362
X35.758 Y56.162
X35.976 Y56.004
X36.222 Y55.894
X36.428 Y55.850
X36.222 Y55.806
X35.976 Y55.697
X35.758 Y55.538
X35.577 Y55.338
X35.443 Y55.104
X35.359 Y54.848
X35.331 Y54.580
X35.359 Y54.312
X35.443 Y54.056
X35.577 Y53.822
X35.758 Y53.622
X35.976 Y53.464
X36.222 Y53.354
X36.428 Y53.310
X36.222 Y53.266
X35.976 Y53.157
X35.758 Y52.998
X35.577 Y52.798
X35.443 Y52.564
X35.359 Y52.308
X35.331 Y52.040
X35.359 Y51.772
X35.443 Y51.516
X35.577 Y51.282
X35.758 Y51.082
X35.976 Y50.924
X36.222 Y50.814
X36.428 Y50.770
X36.222 Y50.726
X35.976 Y50.617
X35.758 Y50.458
X35.577 Y50.258
X35.443 Y50.024
X35.417 Y49.947
X11.334 Y49.943
X4.766 Y56.574
X4.778 Y56.596
X4.861 Y56.852
X4.870 Y56.938
G0 Z3.000
G0  X44.406 Y54.622
G0  Z3.000
G01 F400 Z0
G01 F400 Z-0.100
G01F400X44.142 Y54.566
X43.896 Y54.457
X43.678 Y54.298
X43.497 Y54.098
X43.363 Y53.864
X43.279 Y53.608
X43.251 Y53.340
X43.279 Y53.072
X43.363 Y52.816
X43.497 Y52.582
X43.678 Y52.382
X43.896 Y52.224
X44.142 Y52.114
X44.406 Y52.058
X44.675 Y52.058
X44.939 Y52.114
X45.185 Y52.224
X45.403 Y52.382
X45.583 Y52.582
X45.718 Y52.816
X45.801 Y53.072
X45.829 Y53.340
X45.801 Y53.608
X45.718 Y53.864
X45.583 Y54.098
X45.403 Y54.298
X45.185 Y54.457
X44.939 Y54.566
X44.675 Y54.622
X44.406 Y54.622
G0 Z3.000
G0  X48.216 Y54.622
G0  Z3.000
G01 F400 Z0
G01 F400 Z-0.100
G01F400X47.952 Y54.566
X47.706 Y54.457
X47.488 Y54.298
X47.307 Y54.098
X47.172 Y53.864
X47.089 Y53.608
X47.061 Y53.340
X47.089 Y53.072
X47.172 Y52.816
X47.307 Y52.582
X47.488 Y52.382
X47.706 Y52.224
X47.952 Y52.114
X48.216 Y52.058
X48.485 Y52.058
X48.749 Y52.114
X48.995 Y52.224
X49.213 Y52.382
X49.393 Y52.582
X49.528 Y52.816
X49.611 Y53.072
X49.639 Y53.340
X49.611 Y53.608
X49.528 Y53.864
X49.393 Y54.098
X49.213 Y54.298
X48.995 Y54.457
X48.749 Y54.566
X48.485 Y54.622
X48.216 Y54.622
G0 Z3.000
G0  X52.026 Y54.622
G0  Z3.000
G01 F400 Z0
G01 F400 Z-0.100
G01F400X51.762 Y54.566
X51.516 Y54.457
X51.298 Y54.298
X51.117 Y54.098
X50.983 Y53.864
X50.899 Y53.608
X50.871 Y53.340
X50.899 Y53.072
X50.983 Y52.816
X51.117 Y52.582
X51.298 Y52.382
X51.516 Y52.224
X51.762 Y52.114
X52.026 Y52.058
X52.295 Y52.058
X52.559 Y52.114
X52.805 Y52.224
X53.023 Y52.382
X53.203 Y52.582
X53.338 Y52.816
X53.421 Y53.072
X53.449 Y53.340
X53.421 Y53.608
X53.338 Y53.864
X53.203 Y54.098
X53.023 Y54.298
X52.805 Y54.457
X52.559 Y54.566
X52.295 Y54.622
X52.026 Y54.622
G0 Z3.000
G0  X52.026 Y50.812
G0  Z3.000
G01 F400 Z0
G01 F400 Z-0.100
G01F400X51.762 Y50.756
X51.516 Y50.647
X51.298 Y50.488
X51.117 Y50.288
X50.983 Y50.054
X50.899 Y49.798
X50.871 Y49.530
X50.899 Y49.262
X50.983 Y49.006
X51.117 Y48.772
X51.298 Y48.572
X51.516 Y48.413
X51.762 Y48.304
X52.026 Y48.248
X52.295 Y48.248
X52.559 Y48.304
X52.805 Y48.413
X53.023 Y48.572
X53.203 Y48.772
X53.338 Y49.006
X53.421 Y49.262
X53.449 Y49.530
X53.421 Y49.798
X53.338 Y50.054
X53.203 Y50.288
X53.023 Y50.488
X52.805 Y50.647
X52.559 Y50.756
X52.295 Y50.812
X52.026 Y50.812
G0 Z3.000
G0  X44.406 Y50.812
G0  Z3.000
G01 F400 Z0
G01 F400 Z-0.100
G01F400X44.142 Y50.756
X43.896 Y50.647
X43.678 Y50.488
X43.497 Y50.288
X43.363 Y50.054
X43.279 Y49.798
X43.251 Y49.530
X43.279 Y49.262
X43.363 Y49.006
X43.497 Y48.772
X43.678 Y48.572
X43.896 Y48.413
X44.142 Y48.304
X44.406 Y48.248
X44.675 Y48.248
X44.939 Y48.304
X45.185 Y48.413
X45.403 Y48.572
X45.583 Y48.772
X45.718 Y49.006
X45.801 Y49.262
X45.829 Y49.530
X45.801 Y49.798
X45.718 Y50.054
X45.583 Y50.288
X45.403 Y50.488
X45.185 Y50.647
X44.939 Y50.756
X44.675 Y50.812
X44.406 Y50.812
G0 Z3.000
G0  X48.216 Y50.812
G0  Z3.000
G01 F400 Z0
G01 F400 Z-0.100
G01F400X47.952 Y50.756
X47.706 Y50.647
X47.488 Y50.488
X47.307 Y50.288
X47.172 Y50.054
X47.089 Y49.798
X47.061 Y49.530
X47.089 Y49.262
X47.172 Y49.006
X47.307 Y48.772
X47.488 Y48.572
X47.706 Y48.413
X47.952 Y48.304
X48.216 Y48.248
X48.485 Y48.248
X48.749 Y48.304
X48.995 Y48.413
X49.213 Y48.572
X49.393 Y48.772
X49.528 Y49.006
X49.611 Y49.262
X49.639 Y49.530
X49.611 Y49.798
X49.528 Y50.054
X49.393 Y50.288
X49.213 Y50.488
X48.995 Y50.647
X48.749 Y50.756
X48.485 Y50.812
X48.216 Y50.812
G0 Z3.000
G0  X44.406 Y47.002
G0  Z3.000
G01 F400 Z0
G01 F400 Z-0.100
G01F400X44.142 Y46.946
X43.896 Y46.837
X43.678 Y46.678
X43.497 Y46.478
X43.363 Y46.244
X43.279 Y45.988
X43.251 Y45.720
X43.279 Y45.452
X43.363 Y45.196
X43.497 Y44.962
X43.678 Y44.762
X43.896 Y44.604
X44.142 Y44.494
X44.406 Y44.438
X44.675 Y44.438
X44.939 Y44.494
X45.185 Y44.604
X45.403 Y44.762
X45.583 Y44.962
X45.718 Y45.196
X45.801 Y45.452
X45.829 Y45.720
X45.801 Y45.988
X45.718 Y46.244
X45.583 Y46.478
X45.403 Y46.678
X45.185 Y46.837
X44.939 Y46.946
X44.675 Y47.002
X44.406 Y47.002
G0 Z3.000
G0  X48.216 Y47.002
G0  Z3.000
G01 F400 Z0
G01 F400 Z-0.100
G01F400X47.952 Y46.946
X47.706 Y46.837
X47.488 Y46.678
X47.307 Y46.478
X47.172 Y46.244
X47.089 Y45.988
X47.061 Y45.720
X47.089 Y45.452
X47.172 Y45.196
X47.307 Y44.962
X47.488 Y44.762
X47.706 Y44.604
X47.952 Y44.494
X48.216 Y44.438
X48.485 Y44.438
X48.749 Y44.494
X48.995 Y44.604
X49.213 Y44.762
X49.393 Y44.962
X49.528 Y45.196
X49.611 Y45.452
X49.639 Y45.720
X49.611 Y45.988
X49.528 Y46.244
X49.393 Y46.478
X49.213 Y46.678
X48.995 Y46.837
X48.749 Y46.946
X48.485 Y47.002
X48.216 Y47.002
G0 Z3.000
G0  X52.026 Y47.002
G0  Z3.000
G01 F400 Z0
G01 F400 Z-0.100
G01F400X51.762 Y46.946
X51.516 Y46.837
X51.298 Y46.678
X51.117 Y46.478
X50.983 Y46.244
X50.899 Y45.988
X50.871 Y45.720
X50.899 Y45.452
X50.983 Y45.196
X51.117 Y44.962
X51.298 Y44.762
X51.516 Y44.604
X51.762 Y44.494
X52.026 Y44.438
X52.295 Y44.438
X52.559 Y44.494
X52.805 Y44.604
X53.023 Y44.762
X53.203 Y44.962
X53.338 Y45.196
X53.421 Y45.452
X53.449 Y45.720
X53.421 Y45.988
X53.338 Y46.244
X53.203 Y46.478
X53.023 Y46.678
X52.805 Y46.837
X52.559 Y46.946
X52.295 Y47.002
X52.026 Y47.002
G0 Z3.000
G0  X12.490 Y44.238
G0  Z3.000
G01 F400 Z0
G01 F400 Z-0.100
G01F400X12.499 Y44.152
X12.583 Y43.896
X12.717 Y43.662
X12.898 Y43.462
X13.116 Y43.303
X13.362 Y43.194
X13.569 Y43.150
X13.362 Y43.106
X13.116 Y42.997
X12.898 Y42.838
X12.717 Y42.638
X12.583 Y42.404
X12.499 Y42.148
X12.490 Y42.063
X12.481 Y42.148
X12.398 Y42.404
X12.263 Y42.638
X12.083 Y42.838
X11.865 Y42.997
X11.619 Y43.106
X11.412 Y43.150
X11.619 Y43.194
X11.865 Y43.303
X12.083 Y43.462
X12.263 Y43.662
X12.398 Y43.896
X12.481 Y44.152
X12.490 Y44.238
G0 Z3.000
G0  X15.030 Y44.238
G0  Z3.000
G01 F400 Z0
G01 F400 Z-0.100
G01F400X15.039 Y44.152
X15.123 Y43.896
X15.257 Y43.662
X15.438 Y43.462
X15.656 Y43.303
X15.902 Y43.194
X16.108 Y43.150
X15.902 Y43.106
X15.656 Y42.997
X15.438 Y42.838
X15.257 Y42.638
X15.123 Y42.404
X15.039 Y42.148
X15.030 Y42.063
X15.021 Y42.148
X14.938 Y42.404
X14.803 Y42.638
X14.623 Y42.838
X14.405 Y42.997
X14.159 Y43.106
X13.952 Y43.150
X14.159 Y43.194
X14.405 Y43.303
X14.623 Y43.462
X14.803 Y43.662
X14.938 Y43.896
X15.021 Y44.152
X15.030 Y44.238
G0 Z3.000
G0  X48.216 Y43.192
G0  Z3.000
G01 F400 Z0
G01 F400 Z-0.100
G01F400X47.952 Y43.136
X47.706 Y43.026
X47.488 Y42.868
X47.307 Y42.668
X47.172 Y42.434
X47.089 Y42.178
X47.061 Y41.910
X47.089 Y41.642
X47.172 Y41.386
X47.307 Y41.152
X47.488 Y40.952
X47.706 Y40.794
X47.952 Y40.684
X48.216 Y40.628
X48.485 Y40.628
X48.749 Y40.684
X48.995 Y40.794
X49.213 Y40.952
X49.393 Y41.152
X49.528 Y41.386
X49.611 Y41.642
X49.639 Y41.910
X49.611 Y42.178
X49.528 Y42.434
X49.393 Y42.668
X49.213 Y42.868
X48.995 Y43.026
X48.749 Y43.136
X48.485 Y43.192
X48.216 Y43.192
G0 Z3.000
G0  X52.026 Y43.192
G0  Z3.000
G01 F400 Z0
G01 F400 Z-0.100
G01F400X51.762 Y43.136
X51.516 Y43.026
X51.298 Y42.868
X51.117 Y42.668
X50.983 Y42.434
X50.899 Y42.178
X50.871 Y41.910
X50.899 Y41.642
X50.983 Y41.386
X51.117 Y41.152
X51.298 Y40.952
X51.516 Y40.794
X51.762 Y40.684
X52.026 Y40.628
X52.295 Y40.628
X52.559 Y40.684
X52.805 Y40.794
X53.023 Y40.952
X53.203 Y41.152
X53.338 Y41.386
X53.421 Y41.642
X53.449 Y41.910
X53.421 Y42.178
X53.338 Y42.434
X53.203 Y42.668
X53.023 Y42.868
X52.805 Y43.026
X52.559 Y43.136
X52.295 Y43.192
X52.026 Y43.192
G0 Z3.000
G0  X44.406 Y43.192
G0  Z3.000
G01 F400 Z0
G01 F400 Z-0.100
G01F400X44.142 Y43.136
X43.896 Y43.026
X43.678 Y42.868
X43.497 Y42.668
X43.363 Y42.434
X43.279 Y42.178
X43.251 Y41.910
X43.279 Y41.642
X43.363 Y41.386
X43.497 Y41.152
X43.678 Y40.952
X43.896 Y40.794
X44.142 Y40.684
X44.406 Y40.628
X44.675 Y40.628
X44.939 Y40.684
X45.185 Y40.794
X45.403 Y40.952
X45.583 Y41.152
X45.718 Y41.386
X45.801 Y41.642
X45.829 Y41.910
X45.801 Y42.178
X45.718 Y42.434
X45.583 Y42.668
X45.403 Y42.868
X45.185 Y43.026
X44.939 Y43.136
X44.675 Y43.192
X44.406 Y43.192
G0 Z3.000
G0  X29.001 Y28.897
G0  Z3.000
G01 F400 Z0
G01 F400 Z-0.100
G01F400X28.611 Y28.814
X28.247 Y28.652
X27.924 Y28.417
X27.657 Y28.121
X27.458 Y27.776
X27.335 Y27.397
X27.293 Y27.000
X27.335 Y26.603
X27.458 Y26.224
X27.657 Y25.879
X27.924 Y25.583
X28.247 Y25.348
X28.611 Y25.186
X29.001 Y25.103
X29.400 Y25.103
X29.790 Y25.186
X30.154 Y25.348
X30.477 Y25.583
X30.743 Y25.879
X30.943 Y26.224
X31.066 Y26.603
X31.108 Y27.000
X31.066 Y27.397
X30.943 Y27.776
X30.743 Y28.121
X30.477 Y28.417
X30.154 Y28.652
X29.790 Y28.814
X29.400 Y28.897
X29.001 Y28.897
G0 Z3.000
G0  X12.001 Y28.897
G0  Z3.000
G01 F400 Z0
G01 F400 Z-0.100
G01F400X11.611 Y28.814
X11.247 Y28.652
X10.924 Y28.417
X10.657 Y28.121
X10.458 Y27.776
X10.335 Y27.397
X10.293 Y27.000
X10.335 Y26.603
X10.458 Y26.224
X10.657 Y25.879
X10.924 Y25.583
X11.247 Y25.348
X11.611 Y25.186
X12.001 Y25.103
X12.400 Y25.103
X12.790 Y25.186
X13.154 Y25.348
X13.477 Y25.583
X13.743 Y25.879
X13.943 Y26.224
X14.066 Y26.603
X14.108 Y27.000
X14.066 Y27.397
X13.943 Y27.776
X13.743 Y28.121
X13.477 Y28.417
X13.154 Y28.652
X12.790 Y28.814
X12.400 Y28.897
X12.001 Y28.897
G0 Z3.000
G0  X16.001 Y28.897
G0  Z3.000
G01 F400 Z0
G01 F400 Z-0.100
G01F400X15.611 Y28.814
X15.247 Y28.652
X14.924 Y28.417
X14.657 Y28.121
X14.458 Y27.776
X14.335 Y27.397
X14.293 Y27.000
X14.335 Y26.603
X14.458 Y26.224
X14.657 Y25.879
X14.924 Y25.583
X15.247 Y25.348
X15.611 Y25.186
X16.001 Y25.103
X16.400 Y25.103
X16.790 Y25.186
X17.154 Y25.348
X17.477 Y25.583
X17.743 Y25.879
X17.943 Y26.224
X18.066 Y26.603
X18.108 Y27.000
X18.066 Y27.397
X17.943 Y27.776
X17.743 Y28.121
X17.477 Y28.417
X17.154 Y28.652
X16.790 Y28.814
X16.400 Y28.897
X16.001 Y28.897
G0 Z3.000
G0  X25.001 Y28.897
G0  Z3.000
G01 F400 Z0
G01 F400 Z-0.100
G01F400X24.611 Y28.814
X24.247 Y28.652
X23.924 Y28.417
X23.657 Y28.121
X23.458 Y27.776
X23.335 Y27.397
X23.293 Y27.000
X23.335 Y26.603
X23.458 Y26.224
X23.657 Y25.879
X23.924 Y25.583
X24.247 Y25.348
X24.611 Y25.186
X25.001 Y25.103
X25.400 Y25.103
X25.790 Y25.186
X26.154 Y25.348
X26.477 Y25.583
X26.743 Y25.879
X26.943 Y26.224
X27.066 Y26.603
X27.108 Y27.000
X27.066 Y27.397
X26.943 Y27.776
X26.743 Y28.121
X26.477 Y28.417
X26.154 Y28.652
X25.790 Y28.814
X25.400 Y28.897
X25.001 Y28.897
G0 Z3.000
G0  X3.001 Y28.897
G0  Z3.000
G01 F400 Z0
G01 F400 Z-0.100
G01F400X2.611 Y28.814
X2.247 Y28.652
X1.924 Y28.417
X1.657 Y28.121
X1.458 Y27.776
X1.335 Y27.397
X1.293 Y27.000
X1.335 Y26.603
X1.458 Y26.224
X1.657 Y25.879
X1.924 Y25.583
X2.247 Y25.348
X2.611 Y25.186
X3.001 Y25.103
X3.400 Y25.103
X3.790 Y25.186
X4.154 Y25.348
X4.477 Y25.583
X4.743 Y25.879
X4.943 Y26.224
X5.066 Y26.603
X5.108 Y27.000
X5.066 Y27.397
X4.943 Y27.776
X4.743 Y28.121
X4.477 Y28.417
X4.154 Y28.652
X3.790 Y28.814
X3.400 Y28.897
X3.001 Y28.897
G0 Z3.000
G0  X33.877 Y21.257
G0  Z3.000
G01 F400 Z0
G01 F400 Z-0.100
G01F400X32.937 Y21.014
X32.444 Y20.177
X32.687 Y19.236
X33.523 Y18.743
X34.464 Y18.986
X34.957 Y19.823
X34.714 Y20.764
X33.877 Y21.257
G0 Z3.000
G0  X46.877 Y21.257
G0  Z3.000
G01 F400 Z0
G01 F400 Z-0.100
G01F400X45.937 Y21.014
X45.444 Y20.177
X45.687 Y19.236
X46.524 Y18.743
X47.464 Y18.986
X47.957 Y19.823
X47.714 Y20.764
X46.877 Y21.257
G0 Z3.000
G0  X20.877 Y21.257
G0  Z3.000
G01 F400 Z0
G01 F400 Z-0.100
G01F400X19.937 Y21.014
X19.444 Y20.177
X19.687 Y19.236
X20.524 Y18.743
X21.464 Y18.986
X21.957 Y19.823
X21.714 Y20.764
X20.877 Y21.257
G0 Z3.000
G0  X7.877 Y21.257
G0  Z3.000
G01 F400 Z0
G01 F400 Z-0.100
G01F400X6.937 Y21.014
X6.444 Y20.177
X6.687 Y19.236
X7.524 Y18.743
X8.464 Y18.986
X8.957 Y19.823
X8.714 Y20.764
X7.877 Y21.257
G0 Z3.000
G0  X42.001 Y13.897
G0  Z3.000
G01 F400 Z0
G01 F400 Z-0.100
G01F400X41.611 Y13.814
X41.247 Y13.652
X40.924 Y13.417
X40.657 Y13.121
X40.458 Y12.776
X40.334 Y12.397
X40.293 Y12.000
X40.334 Y11.603
X40.458 Y11.224
X40.657 Y10.879
X40.924 Y10.583
X41.247 Y10.348
X41.611 Y10.186
X42.001 Y10.103
X42.400 Y10.103
X42.790 Y10.186
X43.154 Y10.348
X43.477 Y10.583
X43.743 Y10.879
X43.943 Y11.224
X44.066 Y11.603
X44.108 Y12.000
X44.066 Y12.397
X43.943 Y12.776
X43.743 Y13.121
X43.477 Y13.417
X43.154 Y13.652
X42.790 Y13.814
X42.400 Y13.897
X42.001 Y13.897
G0 Z3.000
G0  X12.001 Y13.897
G0  Z3.000
G01 F400 Z0
G01 F400 Z-0.100
G01F400X11.611 Y13.814
X11.247 Y13.652
X10.924 Y13.417
X10.657 Y13.121
X10.458 Y12.776
X10.335 Y12.397
X10.293 Y12.000
X10.335 Y11.603
X10.458 Y11.224
X10.657 Y10.879
X10.924 Y10.583
X11.247 Y10.348
X11.611 Y10.186
X12.001 Y10.103
X12.400 Y10.103
X12.790 Y10.186
X13.154 Y10.348
X13.477 Y10.583
X13.743 Y10.879
X13.943 Y11.224
X14.066 Y11.603
X14.108 Y12.000
X14.066 Y12.397
X13.943 Y12.776
X13.743 Y13.121
X13.477 Y13.417
X13.154 Y13.652
X12.790 Y13.814
X12.400 Y13.897
X12.001 Y13.897
G0 Z3.000
G0  X38.001 Y13.897
G0  Z3.000
G01 F400 Z0
G01 F400 Z-0.100
G01F400X37.611 Y13.814
X37.247 Y13.652
X36.924 Y13.417
X36.657 Y13.121
X36.458 Y12.776
X36.334 Y12.397
X36.293 Y12.000
X36.334 Y11.603
X36.458 Y11.224
X36.657 Y10.879
X36.924 Y10.583
X37.247 Y10.348
X37.611 Y10.186
X38.001 Y10.103
X38.400 Y10.103
X38.790 Y10.186
X39.154 Y10.348
X39.477 Y10.583
X39.743 Y10.879
X39.943 Y11.224
X40.066 Y11.603
X40.108 Y12.000
X40.066 Y12.397
X39.943 Y12.776
X39.743 Y13.121
X39.477 Y13.417
X39.154 Y13.652
X38.790 Y13.814
X38.400 Y13.897
X38.001 Y13.897
G0 Z3.000
G0  X29.001 Y13.897
G0  Z3.000
G01 F400 Z0
G01 F400 Z-0.100
G01F400X28.611 Y13.814
X28.247 Y13.652
X27.924 Y13.417
X27.657 Y13.121
X27.458 Y12.776
X27.335 Y12.397
X27.293 Y12.000
X27.335 Y11.603
X27.458 Y11.224
X27.657 Y10.879
X27.924 Y10.583
X28.247 Y10.348
X28.611 Y10.186
X29.001 Y10.103
X29.400 Y10.103
X29.790 Y10.186
X30.154 Y10.348
X30.477 Y10.583
X30.743 Y10.879
X30.943 Y11.224
X31.066 Y11.603
X31.108 Y12.000
X31.066 Y12.397
X30.943 Y12.776
X30.743 Y13.121
X30.477 Y13.417
X30.154 Y13.652
X29.790 Y13.814
X29.400 Y13.897
X29.001 Y13.897
G0 Z3.000
G0  X16.001 Y13.897
G0  Z3.000
G01 F400 Z0
G01 F400 Z-0.100
G01F400X15.611 Y13.814
X15.247 Y13.652
X14.924 Y13.417
X14.657 Y13.121
X14.458 Y12.776
X14.335 Y12.397
X14.293 Y12.000
X14.335 Y11.603
X14.458 Y11.224
X14.657 Y10.879
X14.924 Y10.583
X15.247 Y10.348
X15.611 Y10.186
X16.001 Y10.103
X16.400 Y10.103
X16.790 Y10.186
X17.154 Y10.348
X17.477 Y10.583
X17.743 Y10.879
X17.943 Y11.224
X18.066 Y11.603
X18.108 Y12.000
X18.066 Y12.397
X17.943 Y12.776
X17.743 Y13.121
X17.477 Y13.417
X17.154 Y13.652
X16.790 Y13.814
X16.400 Y13.897
X16.001 Y13.897
G0 Z3.000
G0  X25.001 Y13.897
G0  Z3.000
G01 F400 Z0
G01 F400 Z-0.100
G01F400X24.611 Y13.814
X24.247 Y13.652
X23.924 Y13.417
X23.657 Y13.121
X23.458 Y12.776
X23.335 Y12.397
X23.293 Y12.000
X23.335 Y11.603
X23.458 Y11.224
X23.657 Y10.879
X23.924 Y10.583
X24.247 Y10.348
X24.611 Y10.186
X25.001 Y10.103
X25.400 Y10.103
X25.790 Y10.186
X26.154 Y10.348
X26.477 Y10.583
X26.743 Y10.879
X26.943 Y11.224
X27.066 Y11.603
X27.108 Y12.000
X27.066 Y12.397
X26.943 Y12.776
X26.743 Y13.121
X26.477 Y13.417
X26.154 Y13.652
X25.790 Y13.814
X25.400 Y13.897
X25.001 Y13.897
G0 Z3.000
G0  X46.877 Y6.257
G0  Z3.000
G01 F400 Z0
G01 F400 Z-0.100
G01F400X45.937 Y6.014
X45.444 Y5.177
X45.687 Y4.236
X46.524 Y3.743
X47.464 Y3.987
X47.957 Y4.823
X47.714 Y5.764
X46.877 Y6.257
G0 Z3.000
G0  X33.877 Y6.257
G0  Z3.000
G01 F400 Z0
G01 F400 Z-0.100
G01F400X32.937 Y6.014
X32.444 Y5.177
X32.687 Y4.236
X33.523 Y3.743
X34.464 Y3.987
X34.957 Y4.823
X34.714 Y5.764
X33.877 Y6.257
G0 Z3.000
G0  X7.877 Y6.257
G0  Z3.000
G01 F400 Z0
G01 F400 Z-0.100
G01F400X6.937 Y6.014
X6.444 Y5.177
X6.687 Y4.236
X7.524 Y3.743
X8.464 Y3.987
X8.957 Y4.823
X8.714 Y5.764
X7.877 Y6.257
G0 Z3.000
G0  X20.877 Y6.257
G0  Z3.000
G01 F400 Z0
G01 F400 Z-0.100
G01F400X19.937 Y6.014
X19.444 Y5.177
X19.687 Y4.236
X20.524 Y3.743
X21.464 Y3.987
X21.957 Y4.823
X21.714 Y5.764
X20.877 Y6.257
G0 Z3.000
G0  X26.323 Y61.780
G0  Z3.000
G01 F400 Z0
G01 F400 Z-0.100
G01F400X26.013 Y61.714
X25.724 Y61.585
X25.468 Y61.399
X25.256 Y61.164
X25.202 Y61.069
X25.191 Y61.088
X24.979 Y61.323
X24.723 Y61.509
X24.434 Y61.638
X24.124 Y61.704
X23.808 Y61.704
X23.498 Y61.638
X23.209 Y61.509
X22.953 Y61.323
X22.742 Y61.088
X22.649 Y60.927
X22.600 Y61.012
X22.388 Y61.247
X22.132 Y61.433
X21.843 Y61.562
X21.534 Y61.627
X21.217 Y61.627
X20.908 Y61.562
X20.619 Y61.433
X20.363 Y61.247
X20.151 Y61.012
X20.080 Y60.889
X20.009 Y61.012
X19.797 Y61.247
X19.541 Y61.433
X19.252 Y61.562
X18.943 Y61.627
X18.626 Y61.627
X18.317 Y61.562
X18.028 Y61.433
X17.772 Y61.247
X17.560 Y61.012
X17.489 Y60.889
X17.419 Y61.012
X17.207 Y61.247
X16.951 Y61.433
X16.662 Y61.562
X16.352 Y61.627
X16.036 Y61.627
X15.726 Y61.562
X15.437 Y61.433
X15.181 Y61.247
X14.969 Y61.012
X14.898 Y60.889
X14.828 Y61.012
X14.616 Y61.247
X14.360 Y61.433
X14.071 Y61.562
X13.761 Y61.627
X13.445 Y61.627
X13.135 Y61.562
X12.846 Y61.433
X12.590 Y61.247
X12.378 Y61.012
X12.308 Y60.889
X12.237 Y61.012
X12.025 Y61.247
X11.769 Y61.433
X11.480 Y61.562
X11.170 Y61.627
X10.854 Y61.627
X10.544 Y61.562
X10.255 Y61.433
X9.999 Y61.247
X9.787 Y61.012
X9.717 Y60.889
X9.646 Y61.012
X9.434 Y61.247
X9.178 Y61.433
X8.889 Y61.562
X8.580 Y61.627
X8.263 Y61.627
X7.954 Y61.562
X7.665 Y61.433
X7.409 Y61.247
X7.197 Y61.012
X7.126 Y60.889
X7.055 Y61.012
X6.844 Y61.247
X6.588 Y61.433
X6.298 Y61.562
X5.989 Y61.627
X5.672 Y61.627
X5.363 Y61.562
X5.074 Y61.433
X4.818 Y61.247
X4.606 Y61.012
X4.448 Y60.737
X4.350 Y60.437
X4.317 Y60.122
X4.350 Y59.807
X4.448 Y59.506
X4.606 Y59.232
X4.711 Y59.116
X2.126 Y59.116
X1.935 Y59.096
X1.728 Y58.976
X1.198 Y58.446
X1.076 Y58.278
X1.029 Y58.060
X1.029 Y55.940
X1.076 Y55.722
X1.198 Y55.554
X8.029 Y48.723
X8.012 Y43.231
X7.923 Y43.191
X7.667 Y43.005
X7.456 Y42.770
X7.410 Y42.691
X7.365 Y42.770
X7.153 Y43.005
X6.954 Y43.150
X7.153 Y43.295
X7.365 Y43.530
X7.523 Y43.804
X7.621 Y44.105
X7.654 Y44.420
X7.621 Y44.735
X7.523 Y45.036
X7.365 Y45.310
X7.153 Y45.545
X6.897 Y45.731
X6.608 Y45.860
X6.298 Y45.925
X5.982 Y45.925
X5.672 Y45.860
X5.383 Y45.731
X5.127 Y45.545
X4.916 Y45.310
X4.757 Y45.036
X4.660 Y44.735
X4.626 Y44.420
X4.660 Y44.105
X4.757 Y43.804
X4.916 Y43.530
X5.127 Y43.295
X5.327 Y43.150
X5.127 Y43.005
X4.916 Y42.770
